; Generated by Inkscape InkBurn extension
; Document: untitled
; Date: 2026-05-14T15:07:06Z
G21
G90
; Layer: Calque 1
; Job: fill 0 (id=e3d6548c-7b4f-44ef-b457-e25d1ad1d74c)
; Shape: hatch#hatch
G0 X60.09 Y173.11
M3 S600
G1 X70.02 Y183.03 F800
M5
G0 X69.54 Y183.26
M3 S600
G1 X59.59 Y173.31
M5
G0 X59.1 Y173.53
M3 S600
G1 X69.07 Y183.5
M5
G0 X68.6 Y183.73
M3 S600
G1 X58.61 Y173.75
M5
G0 X58.12 Y173.96
M3 S600
G1 X68.16 Y184
M5
G0 X67.72 Y184.27
M3 S600
G1 X57.63 Y174.18
M5
G0 X57.15 Y174.4
M3 S600
G1 X67.29 Y184.54
M5
G0 X66.87 Y184.84
M3 S600
G1 X56.66 Y174.62
M5
G0 X56.21 Y174.88
M3 S600
G1 X66.47 Y185.14
M5
G0 X66.07 Y185.45
M3 S600
G1 X55.76 Y175.14
M5
G0 X55.31 Y175.39
M3 S600
G1 X65.68 Y185.77
M5
G0 X65.32 Y186.11
M3 S600
G1 X54.86 Y175.65
M5
G0 X54.4 Y175.9
M3 S600
G1 X64.95 Y186.45
M5
G0 X64.59 Y186.79
M3 S600
G1 X53.95 Y176.16
M5
G0 X53.52 Y176.43
M3 S600
G1 X64.25 Y187.16
M5
G0 X63.92 Y187.54
M3 S600
G1 X53.1 Y176.72
M5
G0 X52.69 Y177.02
M3 S600
G1 X63.59 Y187.91
M5
G0 X63.26 Y188.3
M3 S600
G1 X52.27 Y177.31
M5
G0 X51.86 Y177.6
M3 S600
G1 X62.97 Y188.71
M5
G0 X62.67 Y189.12
M3 S600
G1 X51.44 Y177.89
M5
G0 X51.03 Y178.18
M3 S600
G1 X62.38 Y189.53
M5
G0 X62.11 Y189.97
M3 S600
G1 X50.64 Y178.5
M5
G0 X50.26 Y178.83
M3 S600
G1 X61.85 Y190.42
M5
G0 X61.59 Y190.87
M3 S600
G1 X49.88 Y179.15
M5
G0 X49.49 Y179.48
M3 S600
G1 X61.34 Y191.32
M5
G0 X61.12 Y191.81
M3 S600
G1 X49.11 Y179.81
M5
G0 X48.73 Y180.13
M3 S600
G1 X60.89 Y192.29
M5
G0 X60.67 Y192.78
M3 S600
G1 X48.35 Y180.46
M5
G0 X48 Y180.82
M3 S600
G1 X60.49 Y193.3
M5
G0 X60.31 Y193.83
M3 S600
G1 X47.66 Y181.18
M5
G0 X47.31 Y181.54
M3 S600
G1 X60.12 Y194.35
M5
G0 X59.97 Y194.91
M3 S600
G1 X46.97 Y181.9
M5
G0 X46.62 Y182.26
M3 S600
G1 X59.84 Y195.48
M5
G0 X59.7 Y196.05
M3 S600
G1 X46.28 Y182.62
M5
G0 X45.93 Y182.99
M3 S600
G1 X59.59 Y196.65
M5
G0 X59.5 Y197.27
M3 S600
G1 X45.62 Y183.38
M5
G0 X45.31 Y183.78
M3 S600
G1 X59.41 Y197.88
M5
G0 X59.37 Y198.55
M3 S600
G1 X45 Y184.18
M5
G0 X44.69 Y184.57
M3 S600
G1 X59.34 Y199.22
M5
G0 X59.31 Y199.9
M3 S600
G1 X44.38 Y184.97
M5
G0 X44.07 Y185.37
M3 S600
G1 X59.35 Y200.65
M5
G0 X59.38 Y201.39
M3 S600
G1 X43.77 Y185.78
M5
G0 X43.5 Y186.21
M3 S600
G1 X59.47 Y202.18
M5
G0 X59.59 Y203.01
M3 S600
G1 X43.22 Y186.64
M5
G0 X42.95 Y187.08
M3 S600
G1 X59.76 Y203.89
M5
G0 X59.99 Y204.83
M3 S600
G1 X42.68 Y187.51
M5
G0 X42.4 Y187.94
M3 S600
G1 X60.31 Y205.85
M5
G0 X60.7 Y206.94
M3 S600
G1 X42.13 Y188.38
M5
G0 X41.88 Y188.84
M3 S600
G1 X61.31 Y208.26
M5
G0 X62.23 Y209.89
M3 S600
G1 X41.65 Y189.31
M5
G0 X41.41 Y189.78
M3 S600
G1 X87.17 Y235.54
M5
G0 X87.67 Y235.33
M3 S600
G1 X67.71 Y215.37
M5
G0 X69.33 Y216.29
M3 S600
G1 X88.15 Y235.11
M5
G0 X88.64 Y234.88
M3 S600
G1 X70.61 Y216.86
M5
G0 X71.74 Y217.28
M3 S600
G1 X89.12 Y234.66
M5
G0 X89.61 Y234.44
M3 S600
G1 X72.7 Y217.53
M5
G0 X73.62 Y217.75
M3 S600
G1 X90.09 Y234.22
M5
G0 X90.57 Y233.98
M3 S600
G1 X74.46 Y217.88
M5
G0 X75.28 Y217.99
M3 S600
G1 X91.01 Y233.73
M5
G0 X91.46 Y233.47
M3 S600
G1 X76.02 Y218.03
M5
G0 X76.77 Y218.07
M3 S600
G1 X91.91 Y233.21
M5
G0 X92.36 Y232.95
M3 S600
G1 X77.45 Y218.04
M5
G0 X78.12 Y218.01
M3 S600
G1 X92.81 Y232.69
M5
G0 X93.26 Y232.43
M3 S600
G1 X78.78 Y217.96
M5
G0 X79.39 Y217.86
M3 S600
G1 X93.68 Y232.15
M5
G0 X94.09 Y231.85
M3 S600
G1 X80.01 Y217.77
M5
G0 X80.6 Y217.65
M3 S600
G1 X94.51 Y231.56
M5
G0 X94.92 Y231.27
M3 S600
G1 X81.16 Y217.5
M5
G0 X81.71 Y217.36
M3 S600
G1 X95.33 Y230.97
M5
G0 X95.75 Y230.68
M3 S600
G1 X82.26 Y217.19
M5
G0 X82.77 Y217
M3 S600
G1 X96.15 Y230.38
M5
G0 X96.53 Y230.05
M3 S600
G1 X83.28 Y216.8
M5
G0 X83.79 Y216.6
M3 S600
G1 X96.91 Y229.73
M5
G0 X97.29 Y229.4
M3 S600
G1 X84.26 Y216.36
M5
G0 X84.73 Y216.13
M3 S600
G1 X97.67 Y229.07
M5
G0 X98.05 Y228.74
M3 S600
G1 X85.2 Y215.89
M5
G0 X85.64 Y215.62
M3 S600
G1 X98.43 Y228.42
M5
G0 X98.79 Y228.07
M3 S600
G1 X86.07 Y215.35
M5
G0 X86.51 Y215.08
M3 S600
G1 X99.14 Y227.71
M5
G0 X99.49 Y227.35
M3 S600
G1 X86.92 Y214.78
M5
G0 X87.32 Y214.47
M3 S600
G1 X99.83 Y226.99
M5
G0 X100.18 Y226.63
M3 S600
G1 X87.71 Y214.16
M5
G0 X88.11 Y213.85
M3 S600
G1 X100.52 Y226.27
M5
G0 X100.87 Y225.9
M3 S600
G1 X88.47 Y213.51
M5
G0 X88.83 Y213.16
M3 S600
G1 X101.19 Y225.51
M5
G0 X101.5 Y225.12
M3 S600
G1 X89.2 Y212.82
M5
G0 X89.54 Y212.45
M3 S600
G1 X101.81 Y224.72
M5
G0 X102.12 Y224.33
M3 S600
G1 X89.87 Y212.07
M5
G0 X90.2 Y211.7
M3 S600
G1 X102.43 Y223.93
M5
G0 X102.74 Y223.54
M3 S600
G1 X90.52 Y211.31
M5
G0 X90.81 Y210.9
M3 S600
G1 X103.04 Y223.13
M5
G0 X103.32 Y222.7
M3 S600
G1 X91.11 Y210.49
M5
G0 X91.4 Y210.07
M3 S600
G1 X103.6 Y222.27
M5
G0 X103.87 Y221.84
M3 S600
G1 X91.67 Y209.63
M5
G0 X91.93 Y209.19
M3 S600
G1 X104.15 Y221.41
M5
G0 X104.42 Y220.97
M3 S600
G1 X92.19 Y208.74
M5
G0 X92.43 Y208.27
M3 S600
G1 X104.7 Y220.54
M5
G0 X104.94 Y220.08
M3 S600
G1 X92.66 Y207.79
M5
G0 X92.88 Y207.31
M3 S600
G1 X105.18 Y219.61
M5
G0 X105.42 Y219.14
M3 S600
G1 X93.1 Y206.82
M5
G0 X93.28 Y206.29
M3 S600
G1 X105.66 Y218.67
M5
G0 X105.9 Y218.2
M3 S600
G1 X93.46 Y205.77
M5
G0 X93.65 Y205.25
M3 S600
G1 X106.14 Y217.73
M5
G0 X106.35 Y217.24
M3 S600
G1 X93.79 Y204.68
M5
G0 X93.93 Y204.11
M3 S600
G1 X106.55 Y216.73
M5
G0 X106.74 Y216.22
M3 S600
G1 X94.07 Y203.55
M5
G0 X94.16 Y202.94
M3 S600
G1 X106.94 Y215.71
M5
G0 X107.14 Y215.2
M3 S600
G1 X94.25 Y202.32
M5
G0 X94.35 Y201.7
M3 S600
G1 X107.33 Y214.69
M5
G0 X107.51 Y214.16
M3 S600
G1 X94.38 Y201.03
M5
G0 X94.41 Y200.35
M3 S600
G1 X107.66 Y213.6
M5
G0 X107.81 Y213.05
M3 S600
G1 X94.43 Y199.67
M5
G0 X94.39 Y198.92
M3 S600
G1 X107.96 Y212.49
M5
G0 X108.11 Y211.93
M3 S600
G1 X94.36 Y198.18
M5
G0 X94.26 Y197.38
M3 S600
G1 X108.26 Y211.38
M5
G0 X108.38 Y210.79
M3 S600
G1 X94.14 Y196.55
M5
G0 X93.96 Y195.66
M3 S600
G1 X108.48 Y210.18
M5
G0 X108.57 Y209.57
M3 S600
G1 X93.73 Y194.72
M5
G0 X93.4 Y193.68
M3 S600
G1 X108.67 Y208.96
M5
G0 X108.77 Y208.35
M3 S600
G1 X92.98 Y192.56
M5
G0 X92.37 Y191.24
M3 S600
G1 X108.86 Y207.73
M5
G0 X108.89 Y207.06
M3 S600
G1 X91.39 Y189.55
M5
G0 X86.25 Y184.41
M3 S600
G1 X72.51 Y170.67
M5
G0 X71.83 Y170.7
M3 S600
G1 X84.57 Y183.44
M5
G0 X83.26 Y182.84
M3 S600
G1 X71.16 Y170.73
M5
G0 X70.48 Y170.77
M3 S600
G1 X82.12 Y182.41
M5
G0 X81.15 Y182.14
M3 S600
G1 X69.82 Y170.81
M5
G0 X69.2 Y170.9
M3 S600
G1 X80.22 Y181.92
M5
G0 X79.38 Y181.78
M3 S600
G1 X68.58 Y170.98
M5
G0 X67.96 Y171.07
M3 S600
G1 X78.55 Y181.66
M5
G0 X77.8 Y181.62
M3 S600
G1 X67.34 Y171.16
M5
G0 X66.72 Y171.25
M3 S600
G1 X77.06 Y181.59
M5
G0 X76.37 Y181.6
M3 S600
G1 X66.13 Y171.36
M5
G0 X65.56 Y171.5
M3 S600
G1 X75.69 Y181.64
M5
G0 X75.03 Y181.68
M3 S600
G1 X64.99 Y171.64
M5
G0 X64.42 Y171.77
M3 S600
G1 X74.42 Y181.78
M5
G0 X73.81 Y181.87
M3 S600
G1 X63.85 Y171.91
M5
G0 X63.27 Y172.05
M3 S600
G1 X73.22 Y181.99
M5
G0 X72.65 Y182.13
M3 S600
G1 X62.73 Y172.21
M5
G0 X62.21 Y172.39
M3 S600
G1 X72.09 Y182.28
M5
G0 X71.55 Y182.44
M3 S600
G1 X61.68 Y172.57
M5
G0 X61.15 Y172.75
M3 S600
G1 X71.04 Y182.64
M5
G0 X70.52 Y182.83
M3 S600
G1 X60.62 Y172.93
M5
G0 X73.18 Y170.64
M3 S600
G1 X108.93 Y206.39
M5
G0 X108.97 Y205.72
M3 S600
G1 X73.9 Y170.65
M5
G0 X74.64 Y170.68
M3 S600
G1 X109 Y205.04
M5
G0 X109.04 Y204.37
M3 S600
G1 X75.38 Y170.72
M5
G0 X76.13 Y170.75
M3 S600
G1 X109 Y203.63
M5
G0 X108.96 Y202.88
M3 S600
G1 X76.87 Y170.79
M5
G0 X77.67 Y170.89
M3 S600
G1 X108.92 Y202.13
M5
G0 X108.88 Y201.38
M3 S600
G1 X78.5 Y171
M5
G0 X79.32 Y171.12
M3 S600
G1 X108.8 Y200.6
M5
G0 X108.66 Y199.76
M3 S600
G1 X80.15 Y171.24
M5
G0 X81.02 Y171.41
M3 S600
G1 X108.53 Y198.91
M5
G0 X108.39 Y198.07
M3 S600
G1 X81.96 Y171.64
M5
G0 X82.89 Y171.87
M3 S600
G1 X108.2 Y197.18
M5
G0 X107.94 Y196.21
M3 S600
G1 X83.83 Y172.1
M5
G0 X84.88 Y172.44
M3 S600
G1 X107.68 Y195.24
M5
G0 X107.4 Y194.25
M3 S600
G1 X85.96 Y172.82
M5
G0 X87.05 Y173.19
M3 S600
G1 X106.95 Y193.1
M5
G0 X106.51 Y191.95
M3 S600
G1 X88.3 Y173.73
M5
G0 X89.6 Y174.33
M3 S600
G1 X105.96 Y190.68
M5
G0 X105.23 Y189.25
M3 S600
G1 X91.04 Y175.06
M5
G0 X92.71 Y176.03
M3 S600
G1 X104.32 Y187.63
M5
G0 X103.06 Y185.67
M3 S600
G1 X94.85 Y177.46
M5
G0 X41.18 Y190.26
M3 S600
G1 X86.65 Y235.72
M5
G0 X86.12 Y235.9
M3 S600
G1 X40.94 Y190.73
M5
G0 X40.71 Y191.2
M3 S600
G1 X85.6 Y236.09
M5
G0 X85.07 Y236.27
M3 S600
G1 X40.49 Y191.69
M5
G0 X40.3 Y192.2
M3 S600
G1 X84.55 Y236.45
M5
G0 X84.02 Y236.63
M3 S600
G1 X40.1 Y192.72
M5
G0 X39.91 Y193.23
M3 S600
G1 X83.45 Y236.77
M5
G0 X82.88 Y236.91
M3 S600
G1 X39.72 Y193.74
M5
G0 X39.52 Y194.26
M3 S600
G1 X82.32 Y237.05
M5
G0 X81.75 Y237.19
M3 S600
G1 X39.35 Y194.79
M5
G0 X39.2 Y195.35
M3 S600
G1 X81.18 Y237.33
M5
G0 X80.61 Y237.46
M3 S600
G1 X39.05 Y195.9
M5
G0 X38.9 Y196.46
M3 S600
G1 X79.99 Y237.55
M5
G0 X79.37 Y237.64
M3 S600
G1 X38.75 Y197.02
M5
G0 X38.61 Y197.58
M3 S600
G1 X78.76 Y237.73
M5
G0 X78.14 Y237.82
M3 S600
G1 X38.49 Y198.18
M5
G0 X38.4 Y198.79
M3 S600
G1 X77.52 Y237.91
M5
G0 X76.89 Y237.98
M3 S600
G1 X38.3 Y199.4
M5
G0 X38.2 Y200.01
M3 S600
G1 X76.21 Y238.02
M5
G0 X75.54 Y238.05
M3 S600
G1 X38.11 Y200.62
M5
G0 X38.03 Y201.25
M3 S600
G1 X74.86 Y238.08
M5
G0 X74.19 Y238.11
M3 S600
G1 X38 Y201.92
M5
G0 X37.96 Y202.59
M3 S600
G1 X73.51 Y238.14
M5
G0 X72.78 Y238.12
M3 S600
G1 X37.93 Y203.26
M5
G0 X37.89 Y203.94
M3 S600
G1 X72.03 Y238.08
M5
G0 X71.29 Y238.05
M3 S600
G1 X37.88 Y204.63
M5
G0 X37.92 Y205.38
M3 S600
G1 X70.55 Y238.01
M5
G0 X69.79 Y237.96
M3 S600
G1 X37.96 Y206.13
M5
G0 X38 Y206.87
M3 S600
G1 X68.97 Y237.85
M5
G0 X68.15 Y237.73
M3 S600
G1 X38.04 Y207.62
M5
G0 X38.15 Y208.44
M3 S600
G1 X67.32 Y237.61
M5
G0 X66.5 Y237.5
M3 S600
G1 X38.29 Y209.28
M5
G0 X38.42 Y210.12
M3 S600
G1 X65.57 Y237.28
M5
G0 X64.65 Y237.06
M3 S600
G1 X38.55 Y210.96
M5
G0 X38.8 Y211.92
M3 S600
G1 X63.72 Y236.83
M5
G0 X62.74 Y236.56
M3 S600
G1 X39.05 Y212.88
M5
G0 X39.31 Y213.84
M3 S600
G1 X61.67 Y236.2
M5
G0 X60.6 Y235.84
M3 S600
G1 X39.67 Y214.91
M5
G0 X40.1 Y216.05
M3 S600
G1 X59.47 Y235.41
M5
G0 X58.18 Y234.84
M3 S600
G1 X40.53 Y217.18
M5
G0 X41.2 Y218.56
M3 S600
G1 X56.9 Y234.26
M5
G0 X55.32 Y233.39
M3 S600
G1 X41.9 Y219.97
M5
G0 X43 Y221.77
M3 S600
G1 X53.68 Y232.46
M5
G0 X51.31 Y230.79
M3 S600
G1 X44.59 Y224.07
M5
G0 X44.7 Y268.26
M3 S600
G1 X46.72 Y270.28
M5
G0 X45.99 Y270.25
M3 S600
G1 X43.99 Y268.26
M5
G0 X43.29
M3 S600
G1 X45.46 Y270.43
M5
G0 Y271.14
M3 S600
G1 X43.11 Y268.79
M5
G0 Y269.49
M3 S600
G1 X45.46 Y271.84
M5
G0 Y272.55
M3 S600
G1 X43.11 Y270.2
M5
G0 Y270.91
M3 S600
G1 X45.46 Y273.26
M5
G0 Y273.97
M3 S600
G1 X43.11 Y271.61
M5
G0 Y272.32
M3 S600
G1 X45.46 Y274.67
M5
G0 Y275.38
M3 S600
G1 X43.11 Y273.03
M5
G0 Y273.74
M3 S600
G1 X45.46 Y276.09
M5
G0 Y276.79
M3 S600
G1 X43.11 Y274.44
M5
G0 Y275.15
M3 S600
G1 X45.46 Y277.5
M5
G0 Y278.21
M3 S600
G1 X43.11 Y275.86
M5
G0 Y276.56
M3 S600
G1 X45.46 Y278.92
M5
G0 Y279.62
M3 S600
G1 X43.11 Y277.27
M5
G0 Y277.98
M3 S600
G1 X45.46 Y280.33
M5
G0 X45.91 Y280.78
M3 S600
G1 X47.76 Y282.63
M5
G0 X48.32 Y282.48
M3 S600
G1 X46.6 Y280.76
M5
G0 X47.21 Y280.67
M3 S600
G1 X48.8 Y282.26
M5
G0 X49.25 Y282
M3 S600
G1 X47.71 Y280.46
M5
G0 X48.11 Y280.15
M3 S600
G1 X49.65 Y281.69
M5
G0 X50.03 Y281.37
M3 S600
G1 X48.46 Y279.79
M5
G0 X48.75 Y279.38
M3 S600
G1 X50.36 Y280.99
M5
G0 X50.66 Y280.59
M3 S600
G1 X49 Y278.92
M5
G0 X49.19 Y278.4
M3 S600
G1 X50.92 Y280.14
M5
G0 X51.17 Y279.67
M3 S600
G1 X49.34 Y277.85
M5
G0 X49.46 Y277.25
M3 S600
G1 X51.36 Y279.16
M5
G0 X51.54 Y278.63
M3 S600
G1 X49.52 Y276.62
M5
G0 X49.56 Y275.94
M3 S600
G1 X51.67 Y278.06
M5
G0 X51.79 Y277.47
M3 S600
G1 X49.56 Y275.24
M5
G0 X49.53 Y274.5
M3 S600
G1 X51.85 Y276.82
M5
G0 X51.89 Y276.16
M3 S600
G1 X49.44 Y273.71
M5
G0 X49.25 Y272.81
M3 S600
G1 X51.92 Y275.47
M5
G0 X51.89 Y274.74
M3 S600
G1 X48.71 Y271.56
M5
G0 X47.7 Y270.55
M3 S600
G1 X45.41 Y268.26
M5
G0 X46.12
M3 S600
G1 X51.83 Y273.97
M5
G0 X51.72 Y273.15
M3 S600
G1 X46.85 Y268.28
M5
G0 X47.63 Y268.36
M3 S600
G1 X51.48 Y272.21
M5
G0 X50.98 Y271
M3 S600
G1 X48.71 Y268.73
M5
G0 X55.06 Y270.84
M3 S600
G1 X57.15 Y272.93
M5
G0 X57.18 Y272.25
M3 S600
G1 X55.23 Y270.3
M5
G0 X55.5 Y269.87
M3 S600
G1 X57.25 Y271.62
M5
G0 X57.47 Y271.13
M3 S600
G1 X55.8 Y269.46
M5
G0 X56.15 Y269.1
M3 S600
G1 X57.76 Y270.71
M5
G0 X58.16 Y270.4
M3 S600
G1 X56.56 Y268.81
M5
G0 X56.99 Y268.53
M3 S600
G1 X58.67 Y270.2
M5
G0 X59.28 Y270.11
M3 S600
G1 X57.53 Y268.36
M5
G0 X58.07 Y268.19
M3 S600
G1 X60.37 Y270.49
M5
G0 X60.88 Y271.01
M3 S600
G1 X63.61 Y273.74
M5
G0 Y273.03
M3 S600
G1 X58.73 Y268.14
M5
G0 X59.41 Y268.12
M3 S600
G1 X63.6 Y272.31
M5
G0 X63.53 Y271.53
M3 S600
G1 X60.18 Y268.18
M5
G0 X61.15 Y268.44
M3 S600
G1 X63.25 Y270.55
M5
G0 X61.21 Y272.04
M3 S600
G1 X63.61 Y274.44
M5
G0 Y275.15
M3 S600
G1 X61.26 Y272.8
M5
G0 Y273.51
M3 S600
G1 X63.61 Y275.86
M5
G0 X63.35 Y276.3
M3 S600
G1 X61.26 Y274.21
M5
G0 X60.67 Y274.32
M3 S600
G1 X62.64 Y276.3
M5
G0 X61.93
M3 S600
G1 X59.96 Y274.32
M5
G0 X59.29 Y274.36
M3 S600
G1 X61.23 Y276.3
M5
G0 X60.52
M3 S600
G1 X59.29 Y275.07
M5
G0 Y275.77
M3 S600
G1 X59.81 Y276.3
M5
G0 X57.15 Y276.47
M3 S600
G1 X54.8 Y274.12
M5
G0 Y273.41
M3 S600
G1 X57.15 Y275.76
M5
G0 Y275.05
M3 S600
G1 X54.8 Y272.7
M5
G0 X54.84 Y272.04
M3 S600
G1 X57.15 Y274.35
M5
G0 Y273.64
M3 S600
G1 X54.9 Y271.38
M5
G0 X54.8 Y274.82
M3 S600
G1 X57.15 Y277.18
M5
G0 Y277.88
M3 S600
G1 X54.8 Y275.53
M5
G0 Y276.24
M3 S600
G1 X57.16 Y278.6
M5
G0 X57.25 Y279.39
M3 S600
G1 X54.8 Y276.95
M5
G0 Y277.65
M3 S600
G1 X60.03 Y282.88
M5
G0 X60.63 Y282.77
M3 S600
G1 X58.69 Y280.83
M5
G0 X59.47 Y280.91
M3 S600
G1 X61.18 Y282.62
M5
G0 X61.67 Y282.4
M3 S600
G1 X60.07 Y280.8
M5
G0 X60.54 Y280.56
M3 S600
G1 X62.11 Y282.13
M5
G0 X62.5 Y281.82
M3 S600
G1 X60.89 Y280.21
M5
G0 X61.16 Y279.77
M3 S600
G1 X62.84 Y281.45
M5
G0 X63.13 Y281.03
M3 S600
G1 X61.28 Y279.18
M5
G0 X61.85 Y279.04
M3 S600
G1 X63.35 Y280.54
M5
G0 X63.52 Y280.01
M3 S600
G1 X62.56 Y279.04
M5
G0 X63.27
M3 S600
G1 X63.61 Y279.39
M5
G0 X66.81 Y279.06
M3 S600
G1 X70.54 Y282.78
M5
G0 X71.22 Y282.75
M3 S600
G1 X69.25 Y280.78
M5
G0 X69.17 Y280.7
M3 S600
G1 X66.81 Y278.35
M5
G0 Y277.64
M3 S600
G1 X69.17 Y279.99
M5
G0 Y279.29
M3 S600
G1 X66.81 Y276.94
M5
G0 Y276.23
M3 S600
G1 X69.17 Y278.58
M5
G0 Y277.87
M3 S600
G1 X66.81 Y275.52
M5
G0 Y274.82
M3 S600
G1 X69.17 Y277.17
M5
G0 X69.48 Y276.77
M3 S600
G1 X66.81 Y274.11
M5
G0 Y273.4
M3 S600
G1 X70.19 Y276.77
M5
G0 X70.89
M3 S600
G1 X66.81 Y272.69
M5
G0 Y271.99
M3 S600
G1 X69.17 Y274.34
M5
G0 X69.61 Y274.78
M3 S600
G1 X71.76 Y276.93
M5
G0 X72.6 Y277.77
M3 S600
G1 X74.97 Y280.14
M5
G0 X74.78 Y280.66
M3 S600
G1 X72.83 Y278.71
M5
G0 X72.75 Y279.34
M3 S600
G1 X74.53 Y281.12
M5
G0 X74.22 Y281.51
M3 S600
G1 X72.56 Y279.85
M5
G0 X72.27 Y280.28
M3 S600
G1 X73.87 Y281.87
M5
G0 X73.43 Y282.14
M3 S600
G1 X71.84 Y280.55
M5
G0 X71.3 Y280.72
M3 S600
G1 X72.99 Y282.4
M5
G0 X72.44 Y282.56
M3 S600
G1 X70.66 Y280.78
M5
G0 X69.95
M3 S600
G1 X71.86 Y282.69
M5
G0 X69.83 Y282.78
M3 S600
G1 X66.81 Y279.77
M5
G0 Y280.47
M3 S600
G1 X69.12 Y282.78
M5
G0 X68.41
M3 S600
G1 X66.81 Y281.18
M5
G0 Y281.89
M3 S600
G1 X67.71 Y282.78
M5
G0 X67
M3 S600
G1 X66.81 Y282.59
M5
G0 X59.37 Y282.93
M3 S600
G1 X54.8 Y278.36
M5
G0 X54.85 Y279.12
M3 S600
G1 X58.62 Y282.89
M5
G0 X57.78 Y282.75
M3 S600
G1 X54.99 Y279.96
M5
G0 X55.64 Y281.31
M3 S600
G1 X56.43 Y282.1
M5
G0 X47.15 Y282.72
M3 S600
G1 X43.11 Y278.69
M5
G0 Y279.39
M3 S600
G1 X46.49 Y282.78
M5
G0 X45.79
M3 S600
G1 X43.11 Y280.1
M5
G0 Y280.81
M3 S600
G1 X45.08 Y282.78
M5
G0 X44.37
M3 S600
G1 X43.11 Y281.51
M5
G0 Y282.22
M3 S600
G1 X43.67 Y282.78
M5
G0 X39.58 Y280.81
M3 S600
G1 X37.67 Y278.9
M5
G0 X37.56 Y279.51
M3 S600
G1 X39.28 Y281.22
M5
G0 X38.98 Y281.63
M3 S600
G1 X37.33 Y279.98
M5
G0 X37.02 Y280.38
M3 S600
G1 X38.61 Y281.96
M5
G0 X38.19 Y282.25
M3 S600
G1 X36.61 Y280.67
M5
G0 X36.07 Y280.84
M3 S600
G1 X37.74 Y282.51
M5
G0 X37.21 Y282.69
M3 S600
G1 X35.44 Y280.91
M5
G0 X34.36 Y280.54
M3 S600
G1 X36.66 Y282.85
M5
G0 X36.01 Y282.9
M3 S600
G1 X31.1 Y277.99
M5
G0 Y277.28
M3 S600
G1 X33.82 Y280.01
M5
G0 X33.5 Y278.97
M3 S600
G1 X31.1 Y276.57
M5
G0 Y275.87
M3 S600
G1 X33.45 Y278.22
M5
G0 Y277.51
M3 S600
G1 X31.1 Y275.16
M5
G0 Y274.45
M3 S600
G1 X33.45 Y276.8
M5
G0 Y276.1
M3 S600
G1 X31.1 Y273.75
M5
G0 Y273.04
M3 S600
G1 X33.45 Y275.39
M5
G0 Y274.68
M3 S600
G1 X31.11 Y272.34
M5
G0 X31.16 Y271.69
M3 S600
G1 X33.45 Y273.97
M5
G0 Y273.27
M3 S600
G1 X31.27 Y271.09
M5
G0 X31.45 Y270.56
M3 S600
G1 X33.45 Y272.56
M5
G0 X33.51 Y271.92
M3 S600
G1 X31.66 Y270.07
M5
G0 X31.97 Y269.67
M3 S600
G1 X33.66 Y271.36
M5
G0 X33.89 Y270.89
M3 S600
G1 X32.27 Y269.26
M5
G0 X32.68 Y268.96
M3 S600
G1 X34.27 Y270.55
M5
G0 X34.68 Y270.25
M3 S600
G1 X33.09 Y268.67
M5
G0 X33.58 Y268.45
M3 S600
G1 X35.28 Y270.15
M5
G0 X36.01 Y270.17
M3 S600
G1 X34.12 Y268.28
M5
G0 X34.72 Y268.17
M3 S600
G1 X40.07 Y273.52
M5
G0 Y272.81
M3 S600
G1 X35.37 Y268.12
M5
G0 X36.1 Y268.14
M3 S600
G1 X40.02 Y272.06
M5
G0 X39.93 Y271.26
M3 S600
G1 X36.91 Y268.24
M5
G0 X38.01 Y268.63
M3 S600
G1 X39.57 Y270.2
M5
G0 X37.62 Y271.78
M3 S600
G1 X40.07 Y274.23
M5
G0 Y274.94
M3 S600
G1 X37.71 Y272.59
M5
G0 Y273.29
M3 S600
G1 X40.07 Y275.64
M5
G0 Y276.35
M3 S600
G1 X37.71 Y274
M5
G0 Y274.71
M3 S600
G1 X40.07 Y277.06
M5
G0 Y277.76
M3 S600
G1 X37.71 Y275.41
M5
G0 Y276.12
M3 S600
G1 X40.07 Y278.47
M5
G0 X40.01 Y279.12
M3 S600
G1 X37.71 Y276.83
M5
G0 Y277.54
M3 S600
G1 X39.93 Y279.75
M5
G0 X39.75 Y280.28
M3 S600
G1 X37.71 Y278.24
M5
G0 X35.32 Y282.91
M3 S600
G1 X31.11 Y278.71
M5
G0 X31.18 Y279.48
M3 S600
G1 X34.54 Y282.85
M5
G0 X33.55 Y282.56
M3 S600
G1 X31.45 Y280.46
M5
G0 X66.81 Y271.28
M3 S600
G1 X69.17 Y273.63
M5
G0 Y272.92
M3 S600
G1 X66.81 Y270.57
M5
G0 Y269.87
M3 S600
G1 X69.17 Y272.22
M5
G0 Y271.51
M3 S600
G1 X66.81 Y269.16
M5
G0 Y268.45
M3 S600
G1 X69.17 Y270.8
M5
G0 X69.32 Y270.25
M3 S600
G1 X67.33 Y268.26
M5
G0 X68.04
M3 S600
G1 X70.03 Y270.25
M5
G0 X70.74
M3 S600
G1 X68.74 Y268.26
M5
G0 X69.45
M3 S600
G1 X71.48 Y270.29
M5
G0 X72.63 Y270.73
M3 S600
G1 X70.16 Y268.26
M5
G0 X70.86
M3 S600
G1 X75.7 Y273.1
M5
G0 X75.58 Y273.68
M3 S600
G1 X72.97 Y271.07
M5
G0 X73.41 Y272.21
M3 S600
G1 X75.36 Y274.17
M5
G0 X75.11 Y274.62
M3 S600
G1 X73.39 Y272.91
M5
G0 X73.24 Y273.47
M3 S600
G1 X74.76 Y274.98
M5
G0 X74.4 Y275.33
M3 S600
G1 X72.98 Y273.91
M5
G0 X72.63 Y274.26
M3 S600
G1 X73.95 Y275.59
M5
G0 X74.82 Y277.17
M3 S600
G1 X72.19 Y274.53
M5
G0 X71.64 Y274.69
M3 S600
G1 X75.11 Y278.16
M5
G0 X75.16 Y278.92
M3 S600
G1 X71.01 Y274.77
M5
G0 X70.31 Y274.78
M3 S600
G1 X75.09 Y279.56
M5
G0 X78.15 Y279.79
M3 S600
G1 X81.14 Y282.78
M5
G0 X81.31 Y282.24
M3 S600
G1 X78.15 Y279.08
M5
G0 Y278.38
M3 S600
G1 X81.42 Y281.64
M5
G0 X81.53 Y281.04
M3 S600
G1 X80.09 Y279.6
M5
G0 X80.02 Y279.53
M3 S600
G1 X78.15 Y277.67
M5
G0 Y276.96
M3 S600
G1 X80.05 Y278.86
M5
G0 X80.2 Y279
M3 S600
G1 X81.64 Y280.45
M5
G0 X81.75 Y279.85
M3 S600
G1 X80.3 Y278.41
M5
G0 X80.08 Y278.18
M3 S600
G1 X78.15 Y276.26
M5
G0 Y275.55
M3 S600
G1 X80.11 Y277.5
M5
G0 X80.41 Y277.81
M3 S600
G1 X81.85 Y279.25
M5
G0 X81.96 Y278.65
M3 S600
G1 X80.52 Y277.21
M5
G0 X80.15 Y276.83
M3 S600
G1 X78.15 Y274.84
M5
G0 Y274.13
M3 S600
G1 X80.18 Y276.16
M5
G0 X80.74 Y276.01
M3 S600
G1 X82.18 Y277.45
M5
G0 X82.07 Y278.05
M3 S600
G1 X80.63 Y276.61
M5
G0 X80.21 Y275.49
M3 S600
G1 X78.15 Y273.43
M5
G0 Y272.72
M3 S600
G1 X80.24 Y274.8
M5
G0 X80.26 Y274.12
M3 S600
G1 X78.15 Y272.01
M5
G0 Y271.31
M3 S600
G1 X80.29 Y273.44
M5
G0 Y272.74
M3 S600
G1 X78.15 Y270.6
M5
G0 Y269.89
M3 S600
G1 X80.3 Y272.04
M5
G0 X80.31 Y271.34
M3 S600
G1 X78.15 Y269.18
M5
G0 Y268.48
M3 S600
G1 X80.31 Y270.63
M5
G0 Y269.92
M3 S600
G1 X78.64 Y268.26
M5
G0 X79.35
M3 S600
G1 X80.31 Y269.22
M5
G0 Y268.51
M3 S600
G1 X80.06 Y268.26
M5
G0 X82.04 Y268.83
M3 S600
G1 X84.37 Y271.16
M5
G0 X84.21 Y270.29
M3 S600
G1 X82.18 Y268.26
M5
G0 X82.88
M3 S600
G1 X84.06 Y269.43
M5
G0 X83.9 Y268.57
M3 S600
G1 X83.59 Y268.26
M5
G0 X81.93 Y269.43
M3 S600
G1 X84.53 Y272.02
M5
G0 X84.68 Y272.88
M3 S600
G1 X81.82 Y270.03
M5
G0 X81.72 Y270.62
M3 S600
G1 X84.84 Y273.75
M5
G0 X85 Y274.61
M3 S600
G1 X81.61 Y271.22
M5
G0 X81.5 Y271.82
M3 S600
G1 X82.93 Y273.26
M5
G0 X83.08 Y273.4
M3 S600
G1 X85.15 Y275.48
M5
G0 X85.77 Y275.39
M3 S600
G1 X87.83 Y277.45
M5
G0 Y276.74
M3 S600
G1 X85.75 Y274.65
M5
G0 X85.72 Y273.92
M3 S600
G1 X87.83 Y276.04
M5
G0 Y275.33
M3 S600
G1 X85.7 Y273.19
M5
G0 X85.69 Y272.48
M3 S600
G1 X87.83 Y274.62
M5
G0 Y273.91
M3 S600
G1 X85.69 Y271.77
M5
G0 X85.68 Y271.05
M3 S600
G1 X87.83 Y273.21
M5
G0 Y272.5
M3 S600
G1 X85.68 Y270.35
M5
G0 Y269.64
M3 S600
G1 X87.83 Y271.79
M5
G0 Y271.09
M3 S600
G1 X85.68 Y268.93
M5
G0 X85.71 Y268.26
M3 S600
G1 X87.83 Y270.38
M5
G0 Y269.67
M3 S600
G1 X86.42 Y268.26
M5
G0 X87.13
M3 S600
G1 X87.83 Y268.97
M5
G0 X82.83 Y273.86
M3 S600
G1 X81.39 Y272.42
M5
G0 X81.28 Y273.02
M3 S600
G1 X82.72 Y274.45
M5
G0 X83.24 Y274.27
M3 S600
G1 X85.31 Y276.34
M5
G0 X85.81 Y276.13
M3 S600
G1 X87.83 Y278.16
M5
G0 Y278.86
M3 S600
G1 X85.85 Y276.88
M5
G0 X85.47 Y277.2
M3 S600
G1 X83.39 Y275.13
M5
G0 X82.61 Y275.05
M3 S600
G1 X81.17 Y273.62
M5
G0 X81.06 Y274.22
M3 S600
G1 X82.5 Y275.65
M5
G0 X82.39 Y276.25
M3 S600
G1 X80.96 Y274.81
M5
G0 X80.85 Y275.41
M3 S600
G1 X82.29 Y276.85
M5
G0 X83.7 Y276.86
M3 S600
G1 X85.78 Y278.93
M5
G0 X85.95 Y279.1
M3 S600
G1 X87.83 Y280.99
M5
G0 Y280.28
M3 S600
G1 X85.92 Y278.36
M5
G0 X85.62 Y278.07
M3 S600
G1 X83.55 Y275.99
M5
G0 X83.86 Y277.72
M3 S600
G1 X85.94 Y279.79
M5
G0 X85.98 Y279.84
M3 S600
G1 X87.83 Y281.69
M5
G0 Y282.4
M3 S600
G1 X84.02 Y278.58
M5
G0 X84.17 Y279.44
M3 S600
G1 X87.51 Y282.78
M5
G0 X86.8
M3 S600
G1 X84.33 Y280.31
M5
G0 X84.48 Y281.17
M3 S600
G1 X86.09 Y282.78
M5
G0 X85.38
M3 S600
G1 X84.64 Y282.03
M5
G0 X87.83 Y279.57
M3 S600
G1 X85.88 Y277.62
M5
G0 X80.43 Y282.78
M3 S600
G1 X78.15 Y280.5
M5
G0 Y281.21
M3 S600
G1 X79.73 Y282.78
M5
G0 X79.02
M3 S600
G1 X78.15 Y281.91
M5
G0 Y282.62
M3 S600
G1 X78.31 Y282.78
M5
G0 X75.78 Y272.47
M3 S600
G1 X71.62 Y268.3
M5
G0 X72.44 Y268.41
M3 S600
G1 X75.69 Y271.67
M5
G0 X75.4 Y270.68
M3 S600
G1 X73.45 Y268.73
M5
G0 X0 Y0
M2
