; Generated by Inkscape InkBurn extension
; Document: untitled
; Date: 2026-05-14T15:41:45Z
G21
G90
; Layer: Calque 1
; Job: fill 0 (id=eed5fcb6-3a91-4785-b5e2-c786ac9772e5)
; Shape: path#path1
G0 X60.09 Y173.11
M3 S233
G1 X60.44 Y173.45 F800 S231
X60.78 Y173.79 S230
X61.12 Y174.13 S228
X61.46 Y174.48 S226
X61.81 Y174.82 S225
X62.15 Y175.16 S223
X62.49 Y175.5 S221
X62.83 Y175.85 S220
X63.17 Y176.19 S218
X63.52 Y176.53 S217
X63.86 Y176.87 S215
X64.2 Y177.21 S213
X64.54 Y177.56 S212
X64.88 Y177.9 S210
X65.23 Y178.24 S208
X65.57 Y178.58 S207
X65.91 Y178.92 S205
X66.25 Y179.27 S203
X66.6 Y179.61 S202
X66.94 Y179.95 S200
X67.28 Y180.29 S199
X67.62 Y180.64 S197
X67.96 Y180.98 S195
X68.31 Y181.32 S194
X68.65 Y181.66 S192
X68.99 Y182 S190
X69.33 Y182.35 S189
X69.68 Y182.69 S187
X70.02 Y183.03 S186
M5
G0 X69.54 Y183.26
M3 S188
G1 X69.2 Y182.92 S189
X68.86 Y182.58 S191
X68.51 Y182.23 S193
X68.17 Y181.89 S194
X67.83 Y181.55 S196
X67.48 Y181.2 S198
X67.14 Y180.86 S199
X66.8 Y180.52 S201
X66.45 Y180.17 S203
X66.11 Y179.83 S204
X65.77 Y179.49 S206
X65.42 Y179.14 S207
X65.08 Y178.8 S209
X64.74 Y178.46 S211
X64.39 Y178.11 S212
X64.05 Y177.77 S214
X63.71 Y177.43 S216
X63.36 Y177.08 S217
X63.02 Y176.74 S219
X62.68 Y176.4 S221
X62.33 Y176.05 S222
X61.99 Y175.71 S224
X61.65 Y175.37 S225
X61.3 Y175.02 S227
X60.96 Y174.68 S229
X60.62 Y174.34 S230
X60.27 Y173.99 S232
X59.93 Y173.65 S234
X59.59 Y173.31 S235
M5
G0 X59.1 Y173.53
M3 S238
G1 X59.44 Y173.87 S236
X59.79 Y174.21 S234
X60.13 Y174.56 S233
X60.47 Y174.9 S231
X60.82 Y175.25 S229
X61.16 Y175.59 S228
X61.51 Y175.93 S226
X61.85 Y176.28 S224
X62.19 Y176.62 S223
X62.54 Y176.96 S221
X62.88 Y177.31 S220
X63.22 Y177.65 S218
X63.57 Y178 S216
X63.91 Y178.34 S215
X64.26 Y178.68 S213
X64.6 Y179.03 S211
X64.94 Y179.37 S210
X65.29 Y179.71 S208
X65.63 Y180.06 S206
X65.97 Y180.4 S205
X66.32 Y180.75 S203
X66.66 Y181.09 S202
X67.01 Y181.43 S200
X67.35 Y181.78 S198
X67.69 Y182.12 S197
X68.04 Y182.47 S195
X68.38 Y182.81 S193
X68.73 Y183.15 S192
X69.07 Y183.5 S190
M5
G0 X68.6 Y183.73
M3 S192
G1 X68.25 Y183.39 S194
X67.91 Y183.04 S196
X67.56 Y182.7 S197
X67.22 Y182.35 S199
X66.87 Y182.01 S201
X66.53 Y181.66 S202
X66.19 Y181.32 S204
X65.84 Y180.98 S205
X65.5 Y180.63 S207
X65.15 Y180.29 S209
X64.81 Y179.94 S210
X64.46 Y179.6 S212
X64.12 Y179.25 S214
X63.77 Y178.91 S215
X63.43 Y178.57 S217
X63.09 Y178.22 S219
X62.74 Y177.88 S220
X62.4 Y177.53 S222
X62.05 Y177.19 S223
X61.71 Y176.84 S225
X61.36 Y176.5 S227
X61.02 Y176.16 S228
X60.68 Y175.81 S230
X60.33 Y175.47 S232
X59.99 Y175.12 S233
X59.64 Y174.78 S235
X59.3 Y174.43 S237
X58.95 Y174.09 S238
X58.61 Y173.75 S240
M5
G0 X58.12 Y173.96
M3 S242
G1 X58.47 Y174.31 S241
X58.81 Y174.66 S239
X59.16 Y175 S237
X59.51 Y175.35 S236
X59.85 Y175.69 S234
X60.2 Y176.04 S232
X60.54 Y176.39 S231
X60.89 Y176.73 S229
X61.24 Y177.08 S227
X61.58 Y177.43 S226
X61.93 Y177.77 S224
X62.28 Y178.12 S222
X62.62 Y178.46 S221
X62.97 Y178.81 S219
X63.31 Y179.16 S217
X63.66 Y179.5 S216
X64.01 Y179.85 S214
X64.35 Y180.19 S213
X64.7 Y180.54 S211
X65.04 Y180.89 S209
X65.39 Y181.23 S208
X65.74 Y181.58 S206
X66.08 Y181.92 S204
X66.43 Y182.27 S203
X66.77 Y182.62 S201
X67.12 Y182.96 S199
X67.47 Y183.31 S198
X67.81 Y183.66 S196
X68.16 Y184 S194
M5
G0 X67.72 Y184.27
M3 S196
G1 X67.38 Y183.92 S198
X67.03 Y183.58 S200
X66.68 Y183.23 S201
X66.33 Y182.88 S203
X65.98 Y182.53 S205
X65.64 Y182.18 S206
X65.29 Y181.84 S208
X64.94 Y181.49 S210
X64.59 Y181.14 S211
X64.24 Y180.79 S213
X63.9 Y180.45 S215
X63.55 Y180.1 S216
X63.2 Y179.75 S218
X62.85 Y179.4 S220
X62.5 Y179.05 S221
X62.16 Y178.71 S223
X61.81 Y178.36 S225
X61.46 Y178.01 S226
X61.11 Y177.66 S228
X60.77 Y177.31 S230
X60.42 Y176.97 S231
X60.07 Y176.62 S233
X59.72 Y176.27 S235
X59.37 Y175.92 S236
X59.03 Y175.57 S238
X58.68 Y175.23 S240
X58.33 Y174.88 S241
X57.98 Y174.53 S243
X57.63 Y174.18 S245
M5
G0 X57.15 Y174.4
M3 S247
G1 X57.5 Y174.75 S245
X57.85 Y175.1 S244
X58.19 Y175.45 S242
X58.54 Y175.8 S240
X58.89 Y176.15 S239
X59.24 Y176.5 S237
X59.59 Y176.85 S235
X59.94 Y177.2 S234
X60.29 Y177.55 S232
X60.64 Y177.9 S230
X60.99 Y178.25 S229
X61.34 Y178.6 S227
X61.69 Y178.95 S225
X62.04 Y179.3 S224
X62.39 Y179.65 S222
X62.74 Y180 S220
X63.09 Y180.35 S219
X63.44 Y180.7 S217
X63.79 Y181.05 S215
X64.14 Y181.4 S214
X64.49 Y181.75 S212
X64.84 Y182.1 S210
X65.19 Y182.45 S209
X65.54 Y182.79 S207
X65.89 Y183.14 S205
X66.24 Y183.49 S204
X66.59 Y183.84 S202
X66.94 Y184.19 S200
X67.29 Y184.54 S199
M5
G0 X66.87 Y184.84
M3 S201
G1 X66.52 Y184.49 S202
X66.17 Y184.13 S204
X65.82 Y183.78 S206
X65.47 Y183.43 S207
X65.11 Y183.08 S209
X64.76 Y182.72 S211
X64.41 Y182.37 S212
X64.06 Y182.02 S214
X63.7 Y181.67 S216
X63.35 Y181.32 S217
X63 Y180.96 S219
X62.65 Y180.61 S221
X62.3 Y180.26 S222
X61.94 Y179.91 S224
X61.59 Y179.55 S226
X61.24 Y179.2 S227
X60.89 Y178.85 S229
X60.53 Y178.5 S231
X60.18 Y178.15 S232
X59.83 Y177.79 S234
X59.48 Y177.44 S236
X59.13 Y177.09 S237
X58.77 Y176.74 S239
X58.42 Y176.38 S241
X58.07 Y176.03 S242
X57.72 Y175.68 S244
X57.36 Y175.33 S246
X57.01 Y174.98 S248
X56.66 Y174.62 S249
M5
G0 X56.21 Y174.88
M3 S251
G1 X56.55 Y175.22 S250
X56.89 Y175.56 S248
X57.24 Y175.91 S246
X57.58 Y176.25 S245
X57.92 Y176.59 S243
X58.26 Y176.93 S242
X58.6 Y177.27 S240
X58.95 Y177.62 S238
X59.29 Y177.96 S237
X59.63 Y178.3 S235
X59.97 Y178.64 S233
X60.32 Y178.99 S232
X60.66 Y179.33 S230
X61 Y179.67 S229
X61.34 Y180.01 S227
X61.68 Y180.35 S225
X62.03 Y180.7 S224
X62.37 Y181.04 S222
X62.71 Y181.38 S220
X63.05 Y181.72 S219
X63.39 Y182.07 S217
X63.74 Y182.41 S215
X64.08 Y182.75 S214
X64.42 Y183.09 S212
X64.76 Y183.43 S211
X65.11 Y183.78 S209
X65.45 Y184.12 S207
X65.79 Y184.46 S206
X66.13 Y184.8 S204
X66.47 Y185.14 S202
M5
G0 X66.07 Y185.45
M3 S204
G1 X65.73 Y185.11 S206
X65.39 Y184.76 S208
X65.04 Y184.42 S209
X64.7 Y184.08 S211
X64.36 Y183.73 S213
X64.01 Y183.39 S214
X63.67 Y183.05 S216
X63.32 Y182.7 S217
X62.98 Y182.36 S219
X62.64 Y182.01 S221
X62.29 Y181.67 S222
X61.95 Y181.33 S224
X61.6 Y180.98 S226
X61.26 Y180.64 S227
X60.92 Y180.29 S229
X60.57 Y179.95 S231
X60.23 Y179.61 S232
X59.88 Y179.26 S234
X59.54 Y178.92 S235
X59.2 Y178.57 S237
X58.85 Y178.23 S239
X58.51 Y177.89 S240
X58.17 Y177.54 S242
X57.82 Y177.2 S244
X57.48 Y176.86 S245
X57.13 Y176.51 S247
X56.79 Y176.17 S249
X56.45 Y175.82 S250
X56.1 Y175.48 S252
X55.76 Y175.14 S254
M5
G0 X55.31 Y175.39
M3 S256
G1 X55.65 Y175.74 S254
X56 Y176.08 S252
X56.34 Y176.43 S251
X56.69 Y176.77 S249
X57.04 Y177.12 S247
X57.38 Y177.47 S246
X57.73 Y177.81 S244
X58.07 Y178.16 S242
X58.42 Y178.5 S241
X58.77 Y178.85 S239
X59.11 Y179.2 S238
X59.46 Y179.54 S236
X59.8 Y179.89 S234
X60.15 Y180.23 S233
X60.49 Y180.58 S231
X60.84 Y180.92 S229
X61.19 Y181.27 S228
X61.53 Y181.62 S226
X61.88 Y181.96 S224
X62.22 Y182.31 S223
X62.57 Y182.65 S221
X62.91 Y183 S219
X63.26 Y183.35 S218
X63.61 Y183.69 S216
X63.95 Y184.04 S214
X64.3 Y184.38 S213
X64.64 Y184.73 S211
X64.99 Y185.07 S209
X65.34 Y185.42 S208
X65.68 Y185.77 S206
M5
G0 X65.32 Y186.11
M3 S208
G1 X64.97 Y185.76 S210
X64.62 Y185.41 S211
X64.27 Y185.06 S213
X63.92 Y184.71 S215
X63.57 Y184.37 S216
X63.22 Y184.02 S218
X62.88 Y183.67 S220
X62.53 Y183.32 S221
X62.18 Y182.97 S223
X61.83 Y182.62 S225
X61.48 Y182.27 S226
X61.13 Y181.92 S228
X60.78 Y181.58 S230
X60.44 Y181.23 S231
X60.09 Y180.88 S233
X59.74 Y180.53 S235
X59.39 Y180.18 S236
X59.04 Y179.83 S238
X58.69 Y179.48 S240
X58.34 Y179.13 S241
X57.99 Y178.79 S243
X57.65 Y178.44 S245
X57.3 Y178.09 S246
X56.95 Y177.74 S248
X56.6 Y177.39 S249
X56.25 Y177.04 S251
X55.9 Y176.69 S253
X55.55 Y176.35 S254
X55.2 Y176 S256
X54.86 Y175.65 S258
M5
G0 X54.4 Y175.9
M3 S260
G1 X54.76 Y176.26 S258
X55.11 Y176.61 S257
X55.46 Y176.96 S255
X55.81 Y177.31 S253
X56.16 Y177.66 S252
X56.51 Y178.01 S250
X56.87 Y178.36 S248
X57.22 Y178.72 S247
X57.57 Y179.07 S245
X57.92 Y179.42 S243
X58.27 Y179.77 S242
X58.62 Y180.12 S240
X58.98 Y180.47 S238
X59.33 Y180.83 S236
X59.68 Y181.18 S235
X60.03 Y181.53 S233
X60.38 Y181.88 S231
X60.73 Y182.23 S230
X61.08 Y182.58 S228
X61.44 Y182.94 S226
X61.79 Y183.29 S225
X62.14 Y183.64 S223
X62.49 Y183.99 S221
X62.84 Y184.34 S220
X63.19 Y184.69 S218
X63.55 Y185.04 S216
X63.9 Y185.4 S215
X64.25 Y185.75 S213
X64.6 Y186.1 S211
X64.95 Y186.45 S210
M5
G0 X64.59 Y186.79
M3 S211
G1 X64.24 Y186.45 S213
X63.9 Y186.11 S215
X63.56 Y185.76 S216
X63.22 Y185.42 S218
X62.87 Y185.08 S220
X62.53 Y184.74 S221
X62.19 Y184.39 S223
X61.84 Y184.05 S224
X61.5 Y183.71 S226
X61.16 Y183.36 S228
X60.81 Y183.02 S229
X60.47 Y182.68 S231
X60.13 Y182.33 S233
X59.79 Y181.99 S234
X59.44 Y181.65 S236
X59.1 Y181.31 S238
X58.76 Y180.96 S239
X58.41 Y180.62 S241
X58.07 Y180.28 S242
X57.73 Y179.93 S244
X57.38 Y179.59 S246
X57.04 Y179.25 S247
X56.7 Y178.9 S249
X56.36 Y178.56 S251
X56.01 Y178.22 S252
X55.67 Y177.88 S254
X55.33 Y177.53 S256
X54.98 Y177.19 S257
X54.64 Y176.85 S259
X54.3 Y176.5 S260
X53.95 Y176.16 S262
M5
G0 X53.52 Y176.43
M3 S264
G1 X53.87 Y176.78 S263
X54.21 Y177.12 S261
X54.56 Y177.47 S259
X54.9 Y177.82 S258
X55.25 Y178.16 S256
X55.6 Y178.51 S254
X55.94 Y178.85 S253
X56.29 Y179.2 S251
X56.63 Y179.55 S249
X56.98 Y179.89 S248
X57.33 Y180.24 S246
X57.67 Y180.58 S244
X58.02 Y180.93 S243
X58.36 Y181.28 S241
X58.71 Y181.62 S239
X59.06 Y181.97 S238
X59.4 Y182.31 S236
X59.75 Y182.66 S234
X60.09 Y183.01 S233
X60.44 Y183.35 S231
X60.79 Y183.7 S230
X61.13 Y184.04 S228
X61.48 Y184.39 S226
X61.82 Y184.74 S225
X62.17 Y185.08 S223
X62.52 Y185.43 S221
X62.86 Y185.77 S220
X63.21 Y186.12 S218
X63.55 Y186.47 S216
X63.9 Y186.81 S215
X64.25 Y187.16 S213
M5
G0 X63.92 Y187.54
M3 S215
G1 X63.57 Y187.19 S216
X63.22 Y186.84 S218
X62.87 Y186.49 S220
X62.52 Y186.14 S221
X62.17 Y185.79 S223
X61.82 Y185.44 S225
X61.47 Y185.1 S226
X61.13 Y184.75 S228
X60.78 Y184.4 S230
X60.43 Y184.05 S231
X60.08 Y183.7 S233
X59.73 Y183.35 S235
X59.38 Y183 S236
X59.03 Y182.65 S238
X58.68 Y182.3 S240
X58.34 Y181.96 S241
X57.99 Y181.61 S243
X57.64 Y181.26 S245
X57.29 Y180.91 S246
X56.94 Y180.56 S248
X56.59 Y180.21 S250
X56.24 Y179.86 S251
X55.89 Y179.51 S253
X55.55 Y179.17 S255
X55.2 Y178.82 S256
X54.85 Y178.47 S258
X54.5 Y178.12 S260
X54.15 Y177.77 S261
X53.8 Y177.42 S263
X53.45 Y177.07 S264
X53.1 Y176.72 S266
M5
G0 X52.69 Y177.02
M3 S268
G1 X53.04 Y177.37 S266
X53.39 Y177.72 S265
X53.74 Y178.07 S263
X54.09 Y178.42 S261
X54.45 Y178.77 S260
X54.8 Y179.13 S258
X55.15 Y179.48 S256
X55.5 Y179.83 S255
X55.85 Y180.18 S253
X56.2 Y180.53 S251
X56.56 Y180.88 S250
X56.91 Y181.23 S248
X57.26 Y181.59 S246
X57.61 Y181.94 S245
X57.96 Y182.29 S243
X58.31 Y182.64 S241
X58.67 Y182.99 S240
X59.02 Y183.34 S238
X59.37 Y183.7 S236
X59.72 Y184.05 S235
X60.07 Y184.4 S233
X60.42 Y184.75 S231
X60.77 Y185.1 S230
X61.13 Y185.45 S228
X61.48 Y185.81 S226
X61.83 Y186.16 S225
X62.18 Y186.51 S223
X62.53 Y186.86 S221
X62.88 Y187.21 S220
X63.24 Y187.56 S218
X63.59 Y187.91 S216
M5
G0 X63.26 Y188.3
M3 S218
G1 X62.92 Y187.95 S219
X62.57 Y187.61 S221
X62.23 Y187.27 S223
X61.89 Y186.92 S224
X61.54 Y186.58 S226
X61.2 Y186.24 S228
X60.86 Y185.89 S229
X60.51 Y185.55 S231
X60.17 Y185.2 S232
X59.83 Y184.86 S234
X59.48 Y184.52 S236
X59.14 Y184.17 S237
X58.8 Y183.83 S239
X58.45 Y183.49 S241
X58.11 Y183.14 S242
X57.77 Y182.8 S244
X57.42 Y182.46 S246
X57.08 Y182.11 S247
X56.74 Y181.77 S249
X56.39 Y181.43 S250
X56.05 Y181.08 S252
X55.71 Y180.74 S254
X55.36 Y180.4 S255
X55.02 Y180.05 S257
X54.68 Y179.71 S259
X54.33 Y179.37 S260
X53.99 Y179.02 S262
X53.65 Y178.68 S264
X53.3 Y178.34 S265
X52.96 Y177.99 S267
X52.62 Y177.65 S268
X52.27 Y177.31 S270
M5
G0 X51.86 Y177.6
M3 S272
G1 X52.2 Y177.95 S270
X52.55 Y178.29 S269
X52.9 Y178.64 S267
X53.25 Y178.99 S265
X53.59 Y179.33 S264
X53.94 Y179.68 S262
X54.29 Y180.03 S261
X54.63 Y180.38 S259
X54.98 Y180.72 S257
X55.33 Y181.07 S256
X55.68 Y181.42 S254
X56.02 Y181.77 S252
X56.37 Y182.11 S251
X56.72 Y182.46 S249
X57.06 Y182.81 S247
X57.41 Y183.15 S246
X57.76 Y183.5 S244
X58.11 Y183.85 S242
X58.45 Y184.2 S241
X58.8 Y184.54 S239
X59.15 Y184.89 S237
X59.5 Y185.24 S236
X59.84 Y185.58 S234
X60.19 Y185.93 S232
X60.54 Y186.28 S231
X60.88 Y186.63 S229
X61.23 Y186.97 S227
X61.58 Y187.32 S226
X61.93 Y187.67 S224
X62.27 Y188.01 S222
X62.62 Y188.36 S221
X62.97 Y188.71 S219
M5
G0 X62.67 Y189.12
M3 S221
G1 X62.32 Y188.77 S222
X61.97 Y188.42 S224
X61.62 Y188.07 S226
X61.27 Y187.72 S227
X60.92 Y187.37 S229
X60.57 Y187.02 S231
X60.22 Y186.66 S232
X59.86 Y186.31 S234
X59.51 Y185.96 S236
X59.16 Y185.61 S237
X58.81 Y185.26 S239
X58.46 Y184.91 S241
X58.11 Y184.56 S242
X57.76 Y184.21 S244
X57.41 Y183.86 S246
X57.06 Y183.51 S247
X56.71 Y183.16 S249
X56.36 Y182.8 S251
X56 Y182.45 S252
X55.65 Y182.1 S254
X55.3 Y181.75 S256
X54.95 Y181.4 S257
X54.6 Y181.05 S259
X54.25 Y180.7 S261
X53.9 Y180.35 S262
X53.55 Y180 S264
X53.2 Y179.65 S266
X52.85 Y179.29 S267
X52.5 Y178.94 S269
X52.14 Y178.59 S271
X51.79 Y178.24 S272
X51.44 Y177.89 S274
M5
G0 X51.03 Y178.18
M3 S276
G1 X51.37 Y178.53 S274
X51.71 Y178.87 S273
X52.06 Y179.21 S271
X52.4 Y179.56 S269
X52.75 Y179.9 S268
X53.09 Y180.25 S266
X53.43 Y180.59 S265
X53.78 Y180.93 S263
X54.12 Y181.28 S261
X54.47 Y181.62 S260
X54.81 Y181.97 S258
X55.15 Y182.31 S256
X55.5 Y182.65 S255
X55.84 Y183 S253
X56.19 Y183.34 S251
X56.53 Y183.69 S250
X56.87 Y184.03 S248
X57.22 Y184.37 S247
X57.56 Y184.72 S245
X57.91 Y185.06 S243
X58.25 Y185.41 S242
X58.59 Y185.75 S240
X58.94 Y186.09 S238
X59.28 Y186.44 S237
X59.63 Y186.78 S235
X59.97 Y187.13 S233
X60.31 Y187.47 S232
X60.66 Y187.81 S230
X61 Y188.16 S229
X61.35 Y188.5 S227
X61.69 Y188.85 S225
X62.03 Y189.19 S224
X62.38 Y189.53 S222
M5
G0 X62.11 Y189.97
M3 S223
G1 X61.76 Y189.62 S225
X61.41 Y189.27 S227
X61.06 Y188.93 S228
X60.72 Y188.58 S230
X60.37 Y188.23 S232
X60.02 Y187.88 S233
X59.67 Y187.54 S235
X59.32 Y187.19 S236
X58.98 Y186.84 S238
X58.63 Y186.49 S240
X58.28 Y186.15 S241
X57.93 Y185.8 S243
X57.59 Y185.45 S245
X57.24 Y185.1 S246
X56.89 Y184.75 S248
X56.54 Y184.41 S250
X56.2 Y184.06 S251
X55.85 Y183.71 S253
X55.5 Y183.36 S255
X55.15 Y183.02 S256
X54.81 Y182.67 S258
X54.46 Y182.32 S260
X54.11 Y181.97 S261
X53.76 Y181.63 S263
X53.42 Y181.28 S265
X53.07 Y180.93 S266
X52.72 Y180.58 S268
X52.37 Y180.24 S270
X52.03 Y179.89 S271
X51.68 Y179.54 S273
X51.33 Y179.19 S275
X50.98 Y178.85 S276
X50.64 Y178.5 S278
M5
G0 X50.26 Y178.83
M3 S280
G1 X50.61 Y179.18 S278
X50.96 Y179.53 S276
X51.31 Y179.88 S275
X51.66 Y180.23 S273
X52.01 Y180.58 S271
X52.36 Y180.93 S270
X52.71 Y181.28 S268
X53.07 Y181.64 S266
X53.42 Y181.99 S265
X53.77 Y182.34 S263
X54.12 Y182.69 S261
X54.47 Y183.04 S260
X54.82 Y183.39 S258
X55.17 Y183.74 S256
X55.52 Y184.09 S255
X55.88 Y184.45 S253
X56.23 Y184.8 S251
X56.58 Y185.15 S250
X56.93 Y185.5 S248
X57.28 Y185.85 S246
X57.63 Y186.2 S245
X57.98 Y186.55 S243
X58.33 Y186.9 S241
X58.69 Y187.26 S240
X59.04 Y187.61 S238
X59.39 Y187.96 S236
X59.74 Y188.31 S235
X60.09 Y188.66 S233
X60.44 Y189.01 S231
X60.79 Y189.36 S229
X61.14 Y189.71 S228
X61.5 Y190.07 S226
X61.85 Y190.42 S224
M5
G0 X61.59 Y190.87
M3 S226
G1 X61.24 Y190.52 S227
X60.9 Y190.18 S229
X60.56 Y189.83 S231
X60.21 Y189.49 S232
X59.87 Y189.14 S234
X59.52 Y188.8 S236
X59.18 Y188.45 S237
X58.83 Y188.11 S239
X58.49 Y187.77 S240
X58.14 Y187.42 S242
X57.8 Y187.08 S244
X57.45 Y186.73 S245
X57.11 Y186.39 S247
X56.77 Y186.04 S249
X56.42 Y185.7 S250
X56.08 Y185.35 S252
X55.73 Y185.01 S254
X55.39 Y184.66 S255
X55.04 Y184.32 S257
X54.7 Y183.98 S259
X54.35 Y183.63 S260
X54.01 Y183.29 S262
X53.66 Y182.94 S263
X53.32 Y182.6 S265
X52.98 Y182.25 S267
X52.63 Y181.91 S268
X52.29 Y181.56 S270
X51.94 Y181.22 S272
X51.6 Y180.87 S273
X51.25 Y180.53 S275
X50.91 Y180.19 S277
X50.56 Y179.84 S278
X50.22 Y179.5 S280
X49.88 Y179.15 S282
M5
G0 X49.49 Y179.48
M3 S283
G1 X49.84 Y179.83 S282
X50.19 Y180.18 S280
X50.54 Y180.52 S278
X50.89 Y180.87 S277
X51.24 Y181.22 S275
X51.58 Y181.57 S273
X51.93 Y181.92 S272
X52.28 Y182.27 S270
X52.63 Y182.61 S268
X52.98 Y182.96 S267
X53.33 Y183.31 S265
X53.67 Y183.66 S263
X54.02 Y184.01 S262
X54.37 Y184.36 S260
X54.72 Y184.7 S258
X55.07 Y185.05 S257
X55.42 Y185.4 S255
X55.76 Y185.75 S253
X56.11 Y186.1 S252
X56.46 Y186.45 S250
X56.81 Y186.79 S248
X57.16 Y187.14 S247
X57.51 Y187.49 S245
X57.85 Y187.84 S244
X58.2 Y188.19 S242
X58.55 Y188.53 S240
X58.9 Y188.88 S239
X59.25 Y189.23 S237
X59.6 Y189.58 S235
X59.94 Y189.93 S234
X60.29 Y190.28 S232
X60.64 Y190.62 S230
X60.99 Y190.97 S229
X61.34 Y191.32 S227
M5
G0 X61.12 Y191.81
M3 S228
G1 X60.76 Y191.45 S230
X60.41 Y191.1 S231
X60.06 Y190.75 S233
X59.7 Y190.4 S235
X59.35 Y190.04 S236
X59 Y189.69 S238
X58.65 Y189.34 S240
X58.29 Y188.98 S241
X57.94 Y188.63 S243
X57.59 Y188.28 S245
X57.23 Y187.92 S246
X56.88 Y187.57 S248
X56.53 Y187.22 S250
X56.17 Y186.87 S252
X55.82 Y186.51 S253
X55.47 Y186.16 S255
X55.12 Y185.81 S257
X54.76 Y185.45 S258
X54.41 Y185.1 S260
X54.06 Y184.75 S262
X53.7 Y184.39 S263
X53.35 Y184.04 S265
X53 Y183.69 S267
X52.64 Y183.34 S268
X52.29 Y182.98 S270
X51.94 Y182.63 S272
X51.59 Y182.28 S273
X51.23 Y181.92 S275
X50.88 Y181.57 S277
X50.53 Y181.22 S278
X50.17 Y180.86 S280
X49.82 Y180.51 S282
X49.47 Y180.16 S283
X49.11 Y179.81 S285
M5
G0 X48.73 Y180.13
M3 S287
G1 X49.08 Y180.48 S285
X49.43 Y180.83 S284
X49.78 Y181.17 S282
X50.12 Y181.52 S280
X50.47 Y181.87 S279
X50.82 Y182.22 S277
X51.17 Y182.56 S275
X51.51 Y182.91 S274
X51.86 Y183.26 S272
X52.21 Y183.61 S270
X52.56 Y183.95 S269
X52.9 Y184.3 S267
X53.25 Y184.65 S265
X53.6 Y185 S264
X53.95 Y185.34 S262
X54.29 Y185.69 S260
X54.64 Y186.04 S259
X54.99 Y186.39 S257
X55.34 Y186.73 S256
X55.68 Y187.08 S254
X56.03 Y187.43 S252
X56.38 Y187.78 S251
X56.73 Y188.12 S249
X57.07 Y188.47 S247
X57.42 Y188.82 S246
X57.77 Y189.17 S244
X58.12 Y189.51 S242
X58.46 Y189.86 S241
X58.81 Y190.21 S239
X59.16 Y190.56 S237
X59.51 Y190.9 S236
X59.85 Y191.25 S234
X60.2 Y191.6 S232
X60.55 Y191.95 S231
X60.89 Y192.29 S229
M5
G0 X60.67 Y192.78
M3 S230
G1 X60.32 Y192.43 S232
X59.97 Y192.08 S233
X59.62 Y191.72 S235
X59.27 Y191.37 S237
X58.91 Y191.02 S238
X58.56 Y190.67 S240
X58.21 Y190.32 S242
X57.86 Y189.96 S243
X57.51 Y189.61 S245
X57.15 Y189.26 S247
X56.8 Y188.91 S249
X56.45 Y188.56 S250
X56.1 Y188.2 S252
X55.75 Y187.85 S254
X55.39 Y187.5 S255
X55.04 Y187.15 S257
X54.69 Y186.8 S259
X54.34 Y186.44 S260
X53.99 Y186.09 S262
X53.63 Y185.74 S264
X53.28 Y185.39 S265
X52.93 Y185.04 S267
X52.58 Y184.68 S269
X52.23 Y184.33 S270
X51.87 Y183.98 S272
X51.52 Y183.63 S274
X51.17 Y183.28 S275
X50.82 Y182.92 S277
X50.47 Y182.57 S279
X50.11 Y182.22 S280
X49.76 Y181.87 S282
X49.41 Y181.52 S284
X49.06 Y181.16 S285
X48.71 Y180.81 S287
X48.35 Y180.46 S289
M5
G0 X48 Y180.82
M3 S290
G1 X48.35 Y181.16 S289
X48.7 Y181.51 S287
X49.04 Y181.86 S286
X49.39 Y182.2 S284
X49.74 Y182.55 S282
X50.08 Y182.9 S281
X50.43 Y183.24 S279
X50.78 Y183.59 S277
X51.12 Y183.94 S276
X51.47 Y184.28 S274
X51.82 Y184.63 S272
X52.16 Y184.98 S271
X52.51 Y185.32 S269
X52.86 Y185.67 S267
X53.2 Y186.02 S266
X53.55 Y186.36 S264
X53.9 Y186.71 S262
X54.24 Y187.06 S261
X54.59 Y187.4 S259
X54.94 Y187.75 S257
X55.29 Y188.1 S256
X55.63 Y188.44 S254
X55.98 Y188.79 S252
X56.33 Y189.14 S251
X56.67 Y189.49 S249
X57.02 Y189.83 S247
X57.37 Y190.18 S246
X57.71 Y190.53 S244
X58.06 Y190.87 S243
X58.41 Y191.22 S241
X58.75 Y191.57 S239
X59.1 Y191.91 S238
X59.45 Y192.26 S236
X59.79 Y192.61 S234
X60.14 Y192.95 S233
X60.49 Y193.3 S231
M5
G0 X60.31 Y193.83
M3 S232
G1 X59.95 Y193.47 S233
X59.6 Y193.12 S235
X59.25 Y192.77 S237
X58.9 Y192.42 S239
X58.55 Y192.07 S240
X58.2 Y191.72 S242
X57.85 Y191.37 S244
X57.5 Y191.02 S245
X57.14 Y190.66 S247
X56.79 Y190.31 S249
X56.44 Y189.96 S250
X56.09 Y189.61 S252
X55.74 Y189.26 S254
X55.39 Y188.91 S255
X55.04 Y188.56 S257
X54.68 Y188.2 S259
X54.33 Y187.85 S260
X53.98 Y187.5 S262
X53.63 Y187.15 S264
X53.28 Y186.8 S265
X52.93 Y186.45 S267
X52.58 Y186.1 S269
X52.22 Y185.74 S270
X51.87 Y185.39 S272
X51.52 Y185.04 S274
X51.17 Y184.69 S275
X50.82 Y184.34 S277
X50.47 Y183.99 S279
X50.12 Y183.64 S280
X49.77 Y183.29 S282
X49.41 Y182.93 S284
X49.06 Y182.58 S285
X48.71 Y182.23 S287
X48.36 Y181.88 S289
X48.01 Y181.53 S290
X47.66 Y181.18 S292
M5
G0 X47.31 Y181.54
M3 S294
G1 X47.66 Y181.89 S292
X48 Y182.23 S290
X48.35 Y182.58 S289
X48.7 Y182.92 S287
X49.04 Y183.27 S286
X49.39 Y183.62 S284
X49.74 Y183.96 S282
X50.08 Y184.31 S281
X50.43 Y184.66 S279
X50.77 Y185 S277
X51.12 Y185.35 S276
X51.47 Y185.69 S274
X51.81 Y186.04 S272
X52.16 Y186.39 S271
X52.51 Y186.73 S269
X52.85 Y187.08 S267
X53.2 Y187.43 S266
X53.55 Y187.77 S264
X53.89 Y188.12 S262
X54.24 Y188.46 S261
X54.58 Y188.81 S259
X54.93 Y189.16 S257
X55.28 Y189.5 S256
X55.62 Y189.85 S254
X55.97 Y190.2 S252
X56.32 Y190.54 S251
X56.66 Y190.89 S249
X57.01 Y191.24 S248
X57.35 Y191.58 S246
X57.7 Y191.93 S244
X58.05 Y192.27 S243
X58.39 Y192.62 S241
X58.74 Y192.97 S239
X59.09 Y193.31 S238
X59.43 Y193.66 S236
X59.78 Y194.01 S234
X60.12 Y194.35 S233
M5
G0 X59.97 Y194.91
M3 S233
G1 X59.62 Y194.56 S235
X59.27 Y194.2 S237
X58.92 Y193.85 S238
X58.57 Y193.5 S240
X58.22 Y193.15 S242
X57.86 Y192.8 S243
X57.51 Y192.45 S245
X57.16 Y192.1 S247
X56.81 Y191.74 S248
X56.46 Y191.39 S250
X56.11 Y191.04 S252
X55.75 Y190.69 S254
X55.4 Y190.34 S255
X55.05 Y189.99 S257
X54.7 Y189.63 S259
X54.35 Y189.28 S260
X54 Y188.93 S262
X53.65 Y188.58 S264
X53.29 Y188.23 S265
X52.94 Y187.88 S267
X52.59 Y187.53 S269
X52.24 Y187.17 S270
X51.89 Y186.82 S272
X51.54 Y186.47 S274
X51.18 Y186.12 S275
X50.83 Y185.77 S277
X50.48 Y185.42 S279
X50.13 Y185.06 S280
X49.78 Y184.71 S282
X49.43 Y184.36 S284
X49.08 Y184.01 S285
X48.72 Y183.66 S287
X48.37 Y183.31 S289
X48.02 Y182.96 S290
X47.67 Y182.6 S292
X47.32 Y182.25 S294
X46.97 Y181.9 S295
M5
G0 X46.62 Y182.26
M3 S297
G1 X46.97 Y182.61 S295
X47.32 Y182.96 S294
X47.66 Y183.31 S292
X48.01 Y183.65 S290
X48.36 Y184 S289
X48.71 Y184.35 S287
X49.06 Y184.7 S285
X49.4 Y185.04 S284
X49.75 Y185.39 S282
X50.1 Y185.74 S280
X50.45 Y186.09 S279
X50.79 Y186.44 S277
X51.14 Y186.78 S276
X51.49 Y187.13 S274
X51.84 Y187.48 S272
X52.19 Y187.83 S271
X52.53 Y188.17 S269
X52.88 Y188.52 S267
X53.23 Y188.87 S266
X53.58 Y189.22 S264
X53.92 Y189.57 S262
X54.27 Y189.91 S261
X54.62 Y190.26 S259
X54.97 Y190.61 S257
X55.31 Y190.96 S256
X55.66 Y191.3 S254
X56.01 Y191.65 S252
X56.36 Y192 S251
X56.71 Y192.35 S249
X57.05 Y192.69 S247
X57.4 Y193.04 S246
X57.75 Y193.39 S244
X58.1 Y193.74 S242
X58.44 Y194.09 S241
X58.79 Y194.43 S239
X59.14 Y194.78 S237
X59.49 Y195.13 S236
X59.84 Y195.48 S234
M5
G0 X59.7 Y196.05
M3 S235
G1 X59.34 Y195.69 S236
X58.99 Y195.34 S238
X58.64 Y194.99 S240
X58.29 Y194.63 S241
X57.93 Y194.28 S243
X57.58 Y193.93 S245
X57.23 Y193.57 S247
X56.87 Y193.22 S248
X56.52 Y192.87 S250
X56.17 Y192.51 S252
X55.81 Y192.16 S253
X55.46 Y191.81 S255
X55.11 Y191.45 S257
X54.75 Y191.1 S258
X54.4 Y190.75 S260
X54.05 Y190.39 S262
X53.69 Y190.04 S263
X53.34 Y189.69 S265
X52.99 Y189.34 S267
X52.63 Y188.98 S268
X52.28 Y188.63 S270
X51.93 Y188.28 S272
X51.57 Y187.92 S273
X51.22 Y187.57 S275
X50.87 Y187.22 S277
X50.51 Y186.86 S279
X50.16 Y186.51 S280
X49.81 Y186.16 S282
X49.45 Y185.8 S284
X49.1 Y185.45 S285
X48.75 Y185.1 S287
X48.4 Y184.74 S289
X48.04 Y184.39 S290
X47.69 Y184.04 S292
X47.34 Y183.68 S294
X46.98 Y183.33 S295
X46.63 Y182.98 S297
X46.28 Y182.62 S299
M5
G0 X45.93 Y182.99
M3 S300
G1 X46.28 Y183.34 S299
X46.63 Y183.69 S297
X46.98 Y184.04 S295
X47.33 Y184.39 S294
X47.68 Y184.74 S292
X48.03 Y185.09 S290
X48.38 Y185.44 S289
X48.73 Y185.79 S287
X49.08 Y186.14 S285
X49.43 Y186.49 S284
X49.78 Y186.84 S282
X50.13 Y187.19 S280
X50.48 Y187.54 S279
X50.83 Y187.89 S277
X51.18 Y188.24 S275
X51.54 Y188.59 S274
X51.89 Y188.94 S272
X52.24 Y189.29 S270
X52.59 Y189.64 S269
X52.94 Y189.99 S267
X53.29 Y190.34 S265
X53.64 Y190.69 S264
X53.99 Y191.04 S262
X54.34 Y191.39 S260
X54.69 Y191.74 S259
X55.04 Y192.09 S257
X55.39 Y192.44 S255
X55.74 Y192.79 S254
X56.09 Y193.14 S252
X56.44 Y193.49 S250
X56.79 Y193.84 S249
X57.14 Y194.2 S247
X57.49 Y194.55 S245
X57.84 Y194.9 S244
X58.19 Y195.25 S242
X58.54 Y195.6 S240
X58.89 Y195.95 S239
X59.24 Y196.3 S237
X59.59 Y196.65 S235
M5
G0 X59.5 Y197.27
M3 S236
G1 X59.16 Y196.92 S237
X58.81 Y196.57 S239
X58.46 Y196.22 S241
X58.11 Y195.88 S242
X57.77 Y195.53 S244
X57.42 Y195.18 S246
X57.07 Y194.84 S247
X56.73 Y194.49 S249
X56.38 Y194.14 S251
X56.03 Y193.79 S252
X55.69 Y193.45 S254
X55.34 Y193.1 S256
X54.99 Y192.75 S257
X54.64 Y192.41 S259
X54.3 Y192.06 S260
X53.95 Y191.71 S262
X53.6 Y191.37 S264
X53.26 Y191.02 S265
X52.91 Y190.67 S267
X52.56 Y190.32 S269
X52.21 Y189.98 S270
X51.87 Y189.63 S272
X51.52 Y189.28 S274
X51.17 Y188.94 S275
X50.83 Y188.59 S277
X50.48 Y188.24 S279
X50.13 Y187.89 S280
X49.78 Y187.55 S282
X49.44 Y187.2 S284
X49.09 Y186.85 S285
X48.74 Y186.51 S287
X48.4 Y186.16 S289
X48.05 Y185.81 S290
X47.7 Y185.46 S292
X47.36 Y185.12 S294
X47.01 Y184.77 S295
X46.66 Y184.42 S297
X46.31 Y184.08 S299
X45.97 Y183.73 S300
X45.62 Y183.38 S302
M5
G0 X45.31 Y183.78
M3 S303
G1 X45.66 Y184.13 S302
X46.02 Y184.48 S300
X46.37 Y184.84 S298
X46.72 Y185.19 S297
X47.07 Y185.54 S295
X47.43 Y185.9 S293
X47.78 Y186.25 S292
X48.13 Y186.6 S290
X48.48 Y186.95 S288
X48.84 Y187.31 S287
X49.19 Y187.66 S285
X49.54 Y188.01 S283
X49.89 Y188.36 S281
X50.25 Y188.72 S280
X50.6 Y189.07 S278
X50.95 Y189.42 S276
X51.3 Y189.77 S275
X51.66 Y190.13 S273
X52.01 Y190.48 S271
X52.36 Y190.83 S270
X52.71 Y191.18 S268
X53.07 Y191.54 S266
X53.42 Y191.89 S265
X53.77 Y192.24 S263
X54.13 Y192.59 S261
X54.48 Y192.95 S260
X54.83 Y193.3 S258
X55.18 Y193.65 S256
X55.54 Y194.01 S255
X55.89 Y194.36 S253
X56.24 Y194.71 S251
X56.59 Y195.06 S250
X56.95 Y195.42 S248
X57.3 Y195.77 S246
X57.65 Y196.12 S244
X58 Y196.47 S243
X58.36 Y196.83 S241
X58.71 Y197.18 S239
X59.06 Y197.53 S238
X59.41 Y197.88 S236
M5
G0 X59.37 Y198.55
M3 S236
G1 X59.02 Y198.2 S238
X58.67 Y197.85 S240
X58.32 Y197.49 S241
X57.97 Y197.14 S243
X57.62 Y196.79 S245
X57.27 Y196.44 S246
X56.92 Y196.09 S248
X56.57 Y195.74 S250
X56.22 Y195.39 S251
X55.86 Y195.04 S253
X55.51 Y194.69 S255
X55.16 Y194.34 S256
X54.81 Y193.99 S258
X54.46 Y193.64 S260
X54.11 Y193.29 S261
X53.76 Y192.94 S263
X53.41 Y192.59 S265
X53.06 Y192.24 S266
X52.71 Y191.89 S268
X52.36 Y191.54 S270
X52.01 Y191.19 S271
X51.66 Y190.84 S273
X51.31 Y190.49 S275
X50.96 Y190.13 S276
X50.61 Y189.78 S278
X50.26 Y189.43 S280
X49.91 Y189.08 S281
X49.56 Y188.73 S283
X49.21 Y188.38 S285
X48.86 Y188.03 S286
X48.5 Y187.68 S288
X48.15 Y187.33 S290
X47.8 Y186.98 S291
X47.45 Y186.63 S293
X47.1 Y186.28 S295
X46.75 Y185.93 S296
X46.4 Y185.58 S298
X46.05 Y185.23 S300
X45.7 Y184.88 S301
X45.35 Y184.53 S303
X45 Y184.18 S305
M5
G0 X44.69 Y184.57
M3 S306
G1 X45.04 Y184.92 S305
X45.39 Y185.27 S303
X45.74 Y185.62 S301
X46.09 Y185.97 S300
X46.43 Y186.32 S298
X46.78 Y186.67 S296
X47.13 Y187.02 S295
X47.48 Y187.36 S293
X47.83 Y187.71 S291
X48.18 Y188.06 S290
X48.53 Y188.41 S288
X48.88 Y188.76 S286
X49.22 Y189.11 S285
X49.57 Y189.46 S283
X49.92 Y189.81 S281
X50.27 Y190.15 S280
X50.62 Y190.5 S278
X50.97 Y190.85 S276
X51.32 Y191.2 S275
X51.67 Y191.55 S273
X52.01 Y191.9 S271
X52.36 Y192.25 S270
X52.71 Y192.59 S268
X53.06 Y192.94 S266
X53.41 Y193.29 S265
X53.76 Y193.64 S263
X54.11 Y193.99 S261
X54.45 Y194.34 S260
X54.8 Y194.69 S258
X55.15 Y195.04 S256
X55.5 Y195.38 S255
X55.85 Y195.73 S253
X56.2 Y196.08 S251
X56.55 Y196.43 S250
X56.9 Y196.78 S248
X57.24 Y197.13 S246
X57.59 Y197.48 S245
X57.94 Y197.83 S243
X58.29 Y198.17 S241
X58.64 Y198.52 S240
X58.99 Y198.87 S238
X59.34 Y199.22 S236
M5
G0 X59.31 Y199.9
M3 S237
G1 X58.97 Y199.56 S238
X58.62 Y199.21 S240
X58.27 Y198.86 S242
X57.92 Y198.51 S243
X57.58 Y198.17 S245
X57.23 Y197.82 S246
X56.88 Y197.47 S248
X56.53 Y197.13 S250
X56.19 Y196.78 S251
X55.84 Y196.43 S253
X55.49 Y196.08 S255
X55.15 Y195.74 S256
X54.8 Y195.39 S258
X54.45 Y195.04 S260
X54.1 Y194.69 S261
X53.76 Y194.35 S263
X53.41 Y194 S265
X53.06 Y193.65 S266
X52.71 Y193.31 S268
X52.37 Y192.96 S270
X52.02 Y192.61 S271
X51.67 Y192.26 S273
X51.33 Y191.92 S275
X50.98 Y191.57 S276
X50.63 Y191.22 S278
X50.28 Y190.87 S280
X49.94 Y190.53 S281
X49.59 Y190.18 S283
X49.24 Y189.83 S285
X48.89 Y189.49 S286
X48.55 Y189.14 S288
X48.2 Y188.79 S290
X47.85 Y188.44 S291
X47.51 Y188.1 S293
X47.16 Y187.75 S295
X46.81 Y187.4 S296
X46.46 Y187.05 S298
X46.12 Y186.71 S299
X45.77 Y186.36 S301
X45.42 Y186.01 S303
X45.07 Y185.67 S304
X44.73 Y185.32 S306
X44.38 Y184.97 S308
M5
G0 X44.07 Y185.37
M3 S309
G1 X44.42 Y185.72 S308
X44.76 Y186.06 S306
X45.11 Y186.41 S304
X45.46 Y186.76 S303
X45.81 Y187.1 S301
X46.15 Y187.45 S299
X46.5 Y187.8 S298
X46.85 Y188.15 S296
X47.2 Y188.49 S294
X47.54 Y188.84 S293
X47.89 Y189.19 S291
X48.24 Y189.54 S289
X48.58 Y189.88 S288
X48.93 Y190.23 S286
X49.28 Y190.58 S284
X49.63 Y190.92 S283
X49.97 Y191.27 S281
X50.32 Y191.62 S279
X50.67 Y191.97 S278
X51.01 Y192.31 S276
X51.36 Y192.66 S274
X51.71 Y193.01 S273
X52.06 Y193.35 S271
X52.4 Y193.7 S269
X52.75 Y194.05 S268
X53.1 Y194.4 S266
X53.45 Y194.74 S265
X53.79 Y195.09 S263
X54.14 Y195.44 S261
X54.49 Y195.79 S260
X54.83 Y196.13 S258
X55.18 Y196.48 S256
X55.53 Y196.83 S255
X55.88 Y197.17 S253
X56.22 Y197.52 S251
X56.57 Y197.87 S250
X56.92 Y198.22 S248
X57.27 Y198.56 S246
X57.61 Y198.91 S245
X57.96 Y199.26 S243
X58.31 Y199.6 S241
X58.65 Y199.95 S240
X59 Y200.3 S238
X59.35 Y200.65 S236
M5
G0 X59.38 Y201.39
M3 S236
G1 X59.04 Y201.04 S238
X58.69 Y200.7 S240
X58.34 Y200.35 S241
X58 Y200 S243
X57.65 Y199.65 S244
X57.3 Y199.31 S246
X56.96 Y198.96 S248
X56.61 Y198.61 S249
X56.26 Y198.27 S251
X55.91 Y197.92 S253
X55.57 Y197.57 S254
X55.22 Y197.23 S256
X54.87 Y196.88 S258
X54.53 Y196.53 S259
X54.18 Y196.18 S261
X53.83 Y195.84 S263
X53.49 Y195.49 S264
X53.14 Y195.14 S266
X52.79 Y194.8 S268
X52.44 Y194.45 S269
X52.1 Y194.1 S271
X51.75 Y193.76 S273
X51.4 Y193.41 S274
X51.06 Y193.06 S276
X50.71 Y192.72 S278
X50.36 Y192.37 S279
X50.02 Y192.02 S281
X49.67 Y191.67 S283
X49.32 Y191.33 S284
X48.98 Y190.98 S286
X48.63 Y190.63 S287
X48.28 Y190.29 S289
X47.93 Y189.94 S291
X47.59 Y189.59 S292
X47.24 Y189.25 S294
X46.89 Y188.9 S296
X46.55 Y188.55 S297
X46.2 Y188.2 S299
X45.85 Y187.86 S301
X45.51 Y187.51 S302
X45.16 Y187.16 S304
X44.81 Y186.82 S306
X44.46 Y186.47 S307
X44.12 Y186.12 S309
X43.77 Y185.78 S311
M5
G0 X43.5 Y186.21
M3 S312
G1 X43.84 Y186.56 S310
X44.19 Y186.9 S309
X44.54 Y187.25 S307
X44.89 Y187.6 S305
X45.23 Y187.95 S304
X45.58 Y188.29 S302
X45.93 Y188.64 S300
X46.28 Y188.99 S299
X46.62 Y189.33 S297
X46.97 Y189.68 S295
X47.32 Y190.03 S294
X47.66 Y190.38 S292
X48.01 Y190.72 S290
X48.36 Y191.07 S289
X48.71 Y191.42 S287
X49.05 Y191.77 S285
X49.4 Y192.11 S284
X49.75 Y192.46 S282
X50.1 Y192.81 S281
X50.44 Y193.15 S279
X50.79 Y193.5 S277
X51.14 Y193.85 S276
X51.48 Y194.2 S274
X51.83 Y194.54 S272
X52.18 Y194.89 S271
X52.53 Y195.24 S269
X52.87 Y195.59 S267
X53.22 Y195.93 S266
X53.57 Y196.28 S264
X53.92 Y196.63 S262
X54.26 Y196.97 S261
X54.61 Y197.32 S259
X54.96 Y197.67 S257
X55.3 Y198.02 S256
X55.65 Y198.36 S254
X56 Y198.71 S252
X56.35 Y199.06 S251
X56.69 Y199.41 S249
X57.04 Y199.75 S247
X57.39 Y200.1 S246
X57.74 Y200.45 S244
X58.08 Y200.79 S242
X58.43 Y201.14 S241
X58.78 Y201.49 S239
X59.12 Y201.84 S237
X59.47 Y202.18 S236
M5
G0 X59.59 Y203.01
M3 S235
G1 X59.25 Y202.66 S237
X58.9 Y202.32 S239
X58.55 Y201.97 S240
X58.2 Y201.62 S242
X57.85 Y201.27 S244
X57.5 Y200.92 S245
X57.16 Y200.57 S247
X56.81 Y200.23 S249
X56.46 Y199.88 S250
X56.11 Y199.53 S252
X55.76 Y199.18 S253
X55.41 Y198.83 S255
X55.07 Y198.48 S257
X54.72 Y198.14 S258
X54.37 Y197.79 S260
X54.02 Y197.44 S262
X53.67 Y197.09 S263
X53.32 Y196.74 S265
X52.98 Y196.4 S267
X52.63 Y196.05 S268
X52.28 Y195.7 S270
X51.93 Y195.35 S272
X51.58 Y195 S273
X51.23 Y194.65 S275
X50.89 Y194.31 S277
X50.54 Y193.96 S278
X50.19 Y193.61 S280
X49.84 Y193.26 S282
X49.49 Y192.91 S283
X49.14 Y192.56 S285
X48.8 Y192.22 S287
X48.45 Y191.87 S288
X48.1 Y191.52 S290
X47.75 Y191.17 S292
X47.4 Y190.82 S293
X47.05 Y190.47 S295
X46.71 Y190.13 S297
X46.36 Y189.78 S298
X46.01 Y189.43 S300
X45.66 Y189.08 S302
X45.31 Y188.73 S303
X44.96 Y188.38 S305
X44.62 Y188.04 S307
X44.27 Y187.69 S308
X43.92 Y187.34 S310
X43.57 Y186.99 S312
X43.22 Y186.64 S313
M5
G0 X42.95 Y187.08
M3 S315
G1 X43.3 Y187.43 S313
X43.65 Y187.78 S311
X44 Y188.13 S310
X44.35 Y188.48 S308
X44.7 Y188.83 S306
X45.05 Y189.18 S305
X45.4 Y189.53 S303
X45.75 Y189.88 S301
X46.1 Y190.23 S300
X46.45 Y190.58 S298
X46.8 Y190.93 S296
X47.15 Y191.28 S295
X47.5 Y191.63 S293
X47.85 Y191.98 S291
X48.2 Y192.33 S290
X48.55 Y192.68 S288
X48.9 Y193.03 S286
X49.25 Y193.38 S285
X49.6 Y193.73 S283
X49.95 Y194.08 S281
X50.3 Y194.43 S280
X50.65 Y194.78 S278
X51.01 Y195.13 S276
X51.36 Y195.48 S274
X51.71 Y195.83 S273
X52.06 Y196.18 S271
X52.41 Y196.53 S269
X52.76 Y196.88 S268
X53.11 Y197.23 S266
X53.46 Y197.58 S264
X53.81 Y197.93 S263
X54.16 Y198.28 S261
X54.51 Y198.63 S259
X54.86 Y198.98 S258
X55.21 Y199.33 S256
X55.56 Y199.68 S254
X55.91 Y200.03 S253
X56.26 Y200.38 S251
X56.61 Y200.73 S249
X56.96 Y201.09 S248
X57.31 Y201.44 S246
X57.66 Y201.79 S244
X58.01 Y202.14 S243
X58.36 Y202.49 S241
X58.71 Y202.84 S239
X59.06 Y203.19 S238
X59.41 Y203.54 S236
X59.76 Y203.89 S234
M5
G0 X59.99 Y204.83
M3 S233
G1 X59.64 Y204.47 S235
X59.29 Y204.12 S237
X58.93 Y203.77 S238
X58.58 Y203.41 S240
X58.23 Y203.06 S242
X57.87 Y202.71 S243
X57.52 Y202.35 S245
X57.17 Y202 S247
X56.81 Y201.65 S248
X56.46 Y201.29 S250
X56.11 Y200.94 S252
X55.75 Y200.59 S254
X55.4 Y200.23 S255
X55.05 Y199.88 S257
X54.69 Y199.53 S259
X54.34 Y199.17 S260
X53.99 Y198.82 S262
X53.63 Y198.47 S264
X53.28 Y198.11 S265
X52.93 Y197.76 S267
X52.57 Y197.41 S269
X52.22 Y197.05 S270
X51.86 Y196.7 S272
X51.51 Y196.34 S274
X51.16 Y195.99 S275
X50.8 Y195.64 S277
X50.45 Y195.28 S279
X50.1 Y194.93 S280
X49.74 Y194.58 S282
X49.39 Y194.22 S284
X49.04 Y193.87 S286
X48.68 Y193.52 S287
X48.33 Y193.16 S289
X47.98 Y192.81 S291
X47.62 Y192.46 S292
X47.27 Y192.1 S294
X46.92 Y191.75 S296
X46.56 Y191.4 S297
X46.21 Y191.04 S299
X45.86 Y190.69 S301
X45.5 Y190.34 S302
X45.15 Y189.98 S304
X44.8 Y189.63 S306
X44.44 Y189.28 S307
X44.09 Y188.92 S309
X43.74 Y188.57 S311
X43.38 Y188.22 S312
X43.03 Y187.86 S314
X42.68 Y187.51 S316
M5
G0 X42.4 Y187.94
M3 S317
G1 X42.75 Y188.29 S315
X43.11 Y188.65 S314
X43.46 Y189 S312
X43.81 Y189.35 S310
X44.16 Y189.7 S309
X44.51 Y190.05 S307
X44.86 Y190.4 S305
X45.21 Y190.75 S304
X45.56 Y191.1 S302
X45.91 Y191.45 S300
X46.27 Y191.81 S299
X46.62 Y192.16 S297
X46.97 Y192.51 S295
X47.32 Y192.86 S294
X47.67 Y193.21 S292
X48.02 Y193.56 S290
X48.37 Y193.91 S289
X48.72 Y194.26 S287
X49.07 Y194.61 S285
X49.42 Y194.97 S284
X49.78 Y195.32 S282
X50.13 Y195.67 S280
X50.48 Y196.02 S279
X50.83 Y196.37 S277
X51.18 Y196.72 S275
X51.53 Y197.07 S274
X51.88 Y197.42 S272
X52.23 Y197.77 S270
X52.58 Y198.13 S269
X52.94 Y198.48 S267
X53.29 Y198.83 S265
X53.64 Y199.18 S264
X53.99 Y199.53 S262
X54.34 Y199.88 S260
X54.69 Y200.23 S259
X55.04 Y200.58 S257
X55.39 Y200.93 S255
X55.74 Y201.29 S254
X56.1 Y201.64 S252
X56.45 Y201.99 S250
X56.8 Y202.34 S249
X57.15 Y202.69 S247
X57.5 Y203.04 S245
X57.85 Y203.39 S244
X58.2 Y203.74 S242
X58.55 Y204.09 S240
X58.9 Y204.45 S239
X59.26 Y204.8 S237
X59.61 Y205.15 S235
X59.96 Y205.5 S233
X60.31 Y205.85 S232
M5
G0 X60.7 Y206.94
M3 S230
G1 X60.35 Y206.59 S232
X60 Y206.24 S233
X59.65 Y205.89 S235
X59.29 Y205.54 S237
X58.94 Y205.19 S238
X58.59 Y204.84 S240
X58.24 Y204.49 S242
X57.89 Y204.14 S243
X57.54 Y203.79 S245
X57.19 Y203.44 S247
X56.84 Y203.09 S248
X56.49 Y202.74 S250
X56.14 Y202.39 S252
X55.79 Y202.04 S253
X55.44 Y201.69 S255
X55.09 Y201.34 S257
X54.74 Y200.99 S258
X54.39 Y200.64 S260
X54.04 Y200.29 S262
X53.69 Y199.94 S263
X53.34 Y199.59 S265
X52.99 Y199.24 S267
X52.64 Y198.89 S268
X52.29 Y198.54 S270
X51.94 Y198.19 S272
X51.59 Y197.84 S273
X51.24 Y197.49 S275
X50.89 Y197.14 S277
X50.54 Y196.78 S278
X50.19 Y196.43 S280
X49.84 Y196.08 S282
X49.49 Y195.73 S283
X49.14 Y195.38 S285
X48.79 Y195.03 S287
X48.44 Y194.68 S288
X48.08 Y194.33 S290
X47.73 Y193.98 S292
X47.38 Y193.63 S293
X47.03 Y193.28 S295
X46.68 Y192.93 S297
X46.33 Y192.58 S298
X45.98 Y192.23 S300
X45.63 Y191.88 S302
X45.28 Y191.53 S303
X44.93 Y191.18 S305
X44.58 Y190.83 S307
X44.23 Y190.48 S308
X43.88 Y190.13 S310
X43.53 Y189.78 S312
X43.18 Y189.43 S313
X42.83 Y189.08 S315
X42.48 Y188.73 S317
X42.13 Y188.38 S318
M5
G0 X41.88 Y188.84
M3 S320
G1 X42.24 Y189.19 S318
X42.59 Y189.55 S316
X42.94 Y189.9 S315
X43.3 Y190.25 S313
X43.65 Y190.6 S311
X44 Y190.96 S310
X44.36 Y191.31 S308
X44.71 Y191.66 S306
X45.06 Y192.02 S304
X45.42 Y192.37 S303
X45.77 Y192.72 S301
X46.12 Y193.08 S299
X46.48 Y193.43 S298
X46.83 Y193.78 S296
X47.18 Y194.14 S294
X47.53 Y194.49 S293
X47.89 Y194.84 S291
X48.24 Y195.2 S289
X48.59 Y195.55 S288
X48.95 Y195.9 S286
X49.3 Y196.26 S284
X49.65 Y196.61 S283
X50.01 Y196.96 S281
X50.36 Y197.31 S279
X50.71 Y197.67 S278
X51.07 Y198.02 S276
X51.42 Y198.37 S274
X51.77 Y198.73 S273
X52.13 Y199.08 S271
X52.48 Y199.43 S269
X52.83 Y199.79 S267
X53.19 Y200.14 S266
X53.54 Y200.49 S264
X53.89 Y200.85 S262
X54.24 Y201.2 S261
X54.6 Y201.55 S259
X54.95 Y201.91 S257
X55.3 Y202.26 S256
X55.66 Y202.61 S254
X56.01 Y202.97 S252
X56.36 Y203.32 S251
X56.72 Y203.67 S249
X57.07 Y204.02 S247
X57.42 Y204.38 S246
X57.78 Y204.73 S244
X58.13 Y205.08 S242
X58.48 Y205.44 S241
X58.84 Y205.79 S239
X59.19 Y206.14 S237
X59.54 Y206.5 S235
X59.89 Y206.85 S234
X60.25 Y207.2 S232
X60.6 Y207.56 S230
X60.95 Y207.91 S229
X61.31 Y208.26 S227
M5
G0 X62.23 Y209.89
M3 S223
G1 X61.88 Y209.54 S224
X61.53 Y209.19 S226
X61.18 Y208.84 S228
X60.83 Y208.49 S229
X60.48 Y208.15 S231
X60.13 Y207.8 S233
X59.79 Y207.45 S234
X59.44 Y207.1 S236
X59.09 Y206.75 S238
X58.74 Y206.4 S239
X58.39 Y206.05 S241
X58.04 Y205.7 S243
X57.69 Y205.35 S244
X57.34 Y205.01 S246
X57 Y204.66 S248
X56.65 Y204.31 S249
X56.3 Y203.96 S251
X55.95 Y203.61 S253
X55.6 Y203.26 S254
X55.25 Y202.91 S256
X54.9 Y202.56 S258
X54.55 Y202.22 S259
X54.21 Y201.87 S261
X53.86 Y201.52 S263
X53.51 Y201.17 S264
X53.16 Y200.82 S266
X52.81 Y200.47 S268
X52.46 Y200.12 S269
X52.11 Y199.77 S271
X51.76 Y199.43 S273
X51.42 Y199.08 S274
X51.07 Y198.73 S276
X50.72 Y198.38 S278
X50.37 Y198.03 S279
X50.02 Y197.68 S281
X49.67 Y197.33 S283
X49.32 Y196.98 S284
X48.97 Y196.64 S286
X48.62 Y196.29 S288
X48.28 Y195.94 S289
X47.93 Y195.59 S291
X47.58 Y195.24 S292
X47.23 Y194.89 S294
X46.88 Y194.54 S296
X46.53 Y194.19 S297
X46.18 Y193.85 S299
X45.83 Y193.5 S301
X45.49 Y193.15 S302
X45.14 Y192.8 S304
X44.79 Y192.45 S306
X44.44 Y192.1 S307
X44.09 Y191.75 S309
X43.74 Y191.4 S311
X43.39 Y191.06 S312
X43.04 Y190.71 S314
X42.7 Y190.36 S316
X42.35 Y190.01 S317
X42 Y189.66 S319
X41.65 Y189.31 S321
M5
G0 X41.41 Y189.78
M3 S322
G1 X41.77 Y190.14 S320
X42.12 Y190.49 S319
X42.47 Y190.84 S317
X42.82 Y191.19 S315
X43.17 Y191.54 S313
X43.53 Y191.9 S312
X43.88 Y192.25 S310
X44.23 Y192.6 S308
X44.58 Y192.95 S307
X44.93 Y193.3 S305
X45.29 Y193.65 S303
X45.64 Y194.01 S302
X45.99 Y194.36 S300
X46.34 Y194.71 S298
X46.69 Y195.06 S297
X47.05 Y195.41 S295
X47.4 Y195.77 S293
X47.75 Y196.12 S292
X48.1 Y196.47 S290
X48.45 Y196.82 S288
X48.81 Y197.17 S287
X49.16 Y197.53 S285
X49.51 Y197.88 S283
X49.86 Y198.23 S282
X50.21 Y198.58 S280
X50.57 Y198.93 S278
X50.92 Y199.29 S277
X51.27 Y199.64 S275
X51.62 Y199.99 S273
X51.97 Y200.34 S272
X52.33 Y200.69 S270
X52.68 Y201.05 S268
X53.03 Y201.4 S267
X53.38 Y201.75 S265
X53.73 Y202.1 S263
X54.09 Y202.45 S261
X54.44 Y202.81 S260
X54.79 Y203.16 S258
X55.14 Y203.51 S256
X55.49 Y203.86 S255
X55.85 Y204.21 S253
X56.2 Y204.57 S251
X56.55 Y204.92 S250
X56.9 Y205.27 S248
X57.25 Y205.62 S246
X57.61 Y205.97 S245
X57.96 Y206.33 S243
X58.31 Y206.68 S241
X58.66 Y207.03 S240
X59.01 Y207.38 S238
X59.36 Y207.73 S236
X59.72 Y208.09 S235
X60.07 Y208.44 S233
X60.42 Y208.79 S231
X60.77 Y209.14 S230
X61.12 Y209.49 S228
X61.48 Y209.85 S226
X61.83 Y210.2 S225
X62.18 Y210.55 S223
X62.53 Y210.9 S221
X62.88 Y211.25 S220
X63.24 Y211.61 S218
X63.59 Y211.96 S216
X63.94 Y212.31 S214
X64.29 Y212.66 S213
X64.64 Y213.01 S211
X65 Y213.37 S209
X65.35 Y213.72 S208
X65.7 Y214.07 S206
X66.05 Y214.42 S204
X66.4 Y214.77 S203
X66.76 Y215.13 S201
X67.11 Y215.48 S199
X67.46 Y215.83 S198
X67.81 Y216.18 S196
X68.16 Y216.53 S194
X68.52 Y216.89 S193
X68.87 Y217.24 S191
X69.22 Y217.59 S189
X69.57 Y217.94 S188
X69.92 Y218.29 S186
X70.28 Y218.65 S184
X70.63 Y219 S183
X70.98 Y219.35 S181
X71.33 Y219.7 S179
X71.68 Y220.05 S178
X72.04 Y220.41 S176
X72.39 Y220.76 S174
X72.74 Y221.11 S173
X73.09 Y221.46 S171
X73.44 Y221.81 S169
X73.8 Y222.16 S168
X74.15 Y222.52 S166
X74.5 Y222.87 S164
X74.85 Y223.22 S162
X75.2 Y223.57 S161
X75.56 Y223.92 S159
X75.91 Y224.28 S157
X76.26 Y224.63 S156
X76.61 Y224.98 S154
X76.96 Y225.33 S152
X77.32 Y225.68 S151
X77.67 Y226.04 S149
X78.02 Y226.39 S147
X78.37 Y226.74 S146
X78.72 Y227.09 S144
X79.08 Y227.44 S142
X79.43 Y227.8 S141
X79.78 Y228.15 S139
X80.13 Y228.5 S137
X80.48 Y228.85 S136
X80.84 Y229.2 S134
X81.19 Y229.56 S132
X81.54 Y229.91 S131
X81.89 Y230.26 S129
X82.24 Y230.61 S127
X82.6 Y230.96 S126
X82.95 Y231.32 S124
X83.3 Y231.67 S122
X83.65 Y232.02 S121
X84 Y232.37 S119
X84.36 Y232.72 S117
X84.71 Y233.08 S115
X85.06 Y233.43 S114
X85.41 Y233.78 S112
X85.76 Y234.13 S110
X86.12 Y234.48 S109
X86.47 Y234.84 S107
X86.82 Y235.19 S105
X87.17 Y235.54 S104
M5
G0 X87.67 Y235.33
M3 S101
G1 X87.32 Y234.98 S103
X86.97 Y234.63 S105
X86.62 Y234.28 S106
X86.27 Y233.93 S108
X85.92 Y233.58 S110
X85.57 Y233.23 S111
X85.22 Y232.88 S113
X84.87 Y232.53 S115
X84.52 Y232.18 S116
X84.17 Y231.83 S118
X83.82 Y231.48 S120
X83.46 Y231.13 S121
X83.11 Y230.78 S123
X82.76 Y230.43 S125
X82.41 Y230.08 S126
X82.06 Y229.73 S128
X81.71 Y229.38 S130
X81.36 Y229.03 S131
X81.01 Y228.68 S133
X80.66 Y228.33 S135
X80.31 Y227.98 S136
X79.96 Y227.63 S138
X79.61 Y227.28 S140
X79.26 Y226.93 S141
X78.91 Y226.58 S143
X78.56 Y226.23 S145
X78.21 Y225.88 S146
X77.86 Y225.53 S148
X77.51 Y225.18 S150
X77.16 Y224.82 S151
X76.81 Y224.47 S153
X76.46 Y224.12 S155
X76.11 Y223.77 S156
X75.76 Y223.42 S158
X75.41 Y223.07 S160
X75.06 Y222.72 S161
X74.71 Y222.37 S163
X74.36 Y222.02 S165
X74.01 Y221.67 S166
X73.66 Y221.32 S168
X73.31 Y220.97 S170
X72.96 Y220.62 S171
X72.61 Y220.27 S173
X72.26 Y219.92 S175
X71.91 Y219.57 S176
X71.56 Y219.22 S178
X71.21 Y218.87 S180
X70.86 Y218.52 S182
X70.51 Y218.17 S183
X70.16 Y217.82 S185
X69.81 Y217.47 S187
X69.46 Y217.12 S188
X69.11 Y216.77 S190
X68.76 Y216.42 S192
X68.41 Y216.07 S193
X68.06 Y215.72 S195
X67.71 Y215.37 S197
M5
G0 X69.33 Y216.29
M3 S189
G1 X69.68 Y216.64 S187
X70.03 Y216.98 S185
X70.38 Y217.33 S184
X70.73 Y217.68 S182
X71.08 Y218.03 S180
X71.42 Y218.38 S179
X71.77 Y218.73 S177
X72.12 Y219.08 S175
X72.47 Y219.42 S174
X72.82 Y219.77 S172
X73.17 Y220.12 S171
X73.51 Y220.47 S169
X73.86 Y220.82 S167
X74.21 Y221.17 S166
X74.56 Y221.51 S164
X74.91 Y221.86 S162
X75.26 Y222.21 S161
X75.61 Y222.56 S159
X75.95 Y222.91 S157
X76.3 Y223.26 S156
X76.65 Y223.61 S154
X77 Y223.95 S152
X77.35 Y224.3 S151
X77.7 Y224.65 S149
X78.05 Y225 S147
X78.39 Y225.35 S146
X78.74 Y225.7 S144
X79.09 Y226.05 S142
X79.44 Y226.39 S141
X79.79 Y226.74 S139
X80.14 Y227.09 S137
X80.48 Y227.44 S136
X80.83 Y227.79 S134
X81.18 Y228.14 S132
X81.53 Y228.48 S131
X81.88 Y228.83 S129
X82.23 Y229.18 S127
X82.58 Y229.53 S126
X82.92 Y229.88 S124
X83.27 Y230.23 S122
X83.62 Y230.58 S121
X83.97 Y230.92 S119
X84.32 Y231.27 S117
X84.67 Y231.62 S116
X85.02 Y231.97 S114
X85.36 Y232.32 S112
X85.71 Y232.67 S111
X86.06 Y233.02 S109
X86.41 Y233.36 S107
X86.76 Y233.71 S106
X87.11 Y234.06 S104
X87.45 Y234.41 S102
X87.8 Y234.76 S101
X88.15 Y235.11 S99
M5
G0 X88.64 Y234.88
M3 S97
G1 X88.28 Y234.53 S98
X87.93 Y234.18 S100
X87.58 Y233.82 S102
X87.22 Y233.47 S103
X86.87 Y233.12 S105
X86.52 Y232.76 S107
X86.16 Y232.41 S109
X85.81 Y232.06 S110
X85.46 Y231.7 S112
X85.1 Y231.35 S114
X84.75 Y231 S115
X84.4 Y230.64 S117
X84.04 Y230.29 S119
X83.69 Y229.94 S120
X83.33 Y229.58 S122
X82.98 Y229.23 S124
X82.63 Y228.88 S125
X82.27 Y228.52 S127
X81.92 Y228.17 S129
X81.57 Y227.82 S130
X81.21 Y227.46 S132
X80.86 Y227.11 S134
X80.51 Y226.75 S136
X80.15 Y226.4 S137
X79.8 Y226.05 S139
X79.45 Y225.69 S141
X79.09 Y225.34 S142
X78.74 Y224.99 S144
X78.39 Y224.63 S146
X78.03 Y224.28 S147
X77.68 Y223.93 S149
X77.33 Y223.57 S151
X76.97 Y223.22 S152
X76.62 Y222.87 S154
X76.27 Y222.51 S156
X75.91 Y222.16 S157
X75.56 Y221.81 S159
X75.21 Y221.45 S161
X74.85 Y221.1 S162
X74.5 Y220.75 S164
X74.14 Y220.39 S166
X73.79 Y220.04 S168
X73.44 Y219.69 S169
X73.08 Y219.33 S171
X72.73 Y218.98 S173
X72.38 Y218.63 S174
X72.02 Y218.27 S176
X71.67 Y217.92 S178
X71.32 Y217.56 S179
X70.96 Y217.21 S181
X70.61 Y216.86 S183
M5
G0 X71.74 Y217.28
M3 S177
G1 X72.08 Y217.62 S176
X72.43 Y217.97 S174
X72.78 Y218.32 S172
X73.13 Y218.67 S171
X73.47 Y219.01 S169
X73.82 Y219.36 S167
X74.17 Y219.71 S166
X74.52 Y220.06 S164
X74.87 Y220.41 S162
X75.21 Y220.75 S161
X75.56 Y221.1 S159
X75.91 Y221.45 S157
X76.26 Y221.8 S156
X76.6 Y222.14 S154
X76.95 Y222.49 S152
X77.3 Y222.84 S151
X77.65 Y223.19 S149
X77.99 Y223.54 S147
X78.34 Y223.88 S146
X78.69 Y224.23 S144
X79.04 Y224.58 S143
X79.39 Y224.93 S141
X79.73 Y225.27 S139
X80.08 Y225.62 S138
X80.43 Y225.97 S136
X80.78 Y226.32 S134
X81.12 Y226.66 S133
X81.47 Y227.01 S131
X81.82 Y227.36 S129
X82.17 Y227.71 S128
X82.52 Y228.06 S126
X82.86 Y228.4 S124
X83.21 Y228.75 S123
X83.56 Y229.1 S121
X83.91 Y229.45 S119
X84.25 Y229.79 S118
X84.6 Y230.14 S116
X84.95 Y230.49 S114
X85.3 Y230.84 S113
X85.64 Y231.19 S111
X85.99 Y231.53 S109
X86.34 Y231.88 S108
X86.69 Y232.23 S106
X87.04 Y232.58 S104
X87.38 Y232.92 S103
X87.73 Y233.27 S101
X88.08 Y233.62 S99
X88.43 Y233.97 S98
X88.77 Y234.32 S96
X89.12 Y234.66 S94
M5
G0 X89.61 Y234.44
M3 S92
G1 X89.26 Y234.09 S94
X88.9 Y233.74 S95
X88.55 Y233.38 S97
X88.2 Y233.03 S99
X87.85 Y232.68 S101
X87.49 Y232.33 S102
X87.14 Y231.98 S104
X86.79 Y231.62 S106
X86.44 Y231.27 S107
X86.09 Y230.92 S109
X85.73 Y230.57 S111
X85.38 Y230.21 S112
X85.03 Y229.86 S114
X84.68 Y229.51 S116
X84.32 Y229.16 S117
X83.97 Y228.81 S119
X83.62 Y228.45 S121
X83.27 Y228.1 S122
X82.92 Y227.75 S124
X82.56 Y227.4 S126
X82.21 Y227.04 S127
X81.86 Y226.69 S129
X81.51 Y226.34 S131
X81.15 Y225.99 S132
X80.8 Y225.64 S134
X80.45 Y225.28 S136
X80.1 Y224.93 S137
X79.74 Y224.58 S139
X79.39 Y224.23 S141
X79.04 Y223.87 S143
X78.69 Y223.52 S144
X78.34 Y223.17 S146
X77.98 Y222.82 S148
X77.63 Y222.46 S149
X77.28 Y222.11 S151
X76.93 Y221.76 S153
X76.57 Y221.41 S154
X76.22 Y221.06 S156
X75.87 Y220.7 S158
X75.52 Y220.35 S159
X75.17 Y220 S161
X74.81 Y219.65 S163
X74.46 Y219.29 S164
X74.11 Y218.94 S166
X73.76 Y218.59 S168
X73.4 Y218.24 S169
X73.05 Y217.89 S171
X72.7 Y217.53 S173
M5
G0 X73.62 Y217.75
M3 S168
G1 X73.97 Y218.1 S167
X74.32 Y218.45 S165
X74.67 Y218.8 S163
X75.02 Y219.15 S162
X75.37 Y219.5 S160
X75.72 Y219.85 S158
X76.08 Y220.2 S157
X76.43 Y220.55 S155
X76.78 Y220.9 S153
X77.13 Y221.25 S152
X77.48 Y221.6 S150
X77.83 Y221.95 S148
X78.18 Y222.3 S147
X78.53 Y222.65 S145
X78.88 Y223.01 S143
X79.23 Y223.36 S142
X79.58 Y223.71 S140
X79.93 Y224.06 S138
X80.28 Y224.41 S137
X80.63 Y224.76 S135
X80.98 Y225.11 S133
X81.33 Y225.46 S132
X81.68 Y225.81 S130
X82.03 Y226.16 S128
X82.38 Y226.51 S127
X82.73 Y226.86 S125
X83.08 Y227.21 S123
X83.43 Y227.56 S122
X83.78 Y227.91 S120
X84.14 Y228.26 S118
X84.49 Y228.61 S117
X84.84 Y228.96 S115
X85.19 Y229.31 S113
X85.54 Y229.66 S112
X85.89 Y230.01 S110
X86.24 Y230.36 S108
X86.59 Y230.71 S107
X86.94 Y231.07 S105
X87.29 Y231.42 S103
X87.64 Y231.77 S102
X87.99 Y232.12 S100
X88.34 Y232.47 S98
X88.69 Y232.82 S96
X89.04 Y233.17 S95
X89.39 Y233.52 S93
X89.74 Y233.87 S91
X90.09 Y234.22 S90
M5
G0 X90.57 Y233.98
M3 S88
G1 X90.22 Y233.63 S89
X89.87 Y233.28 S91
X89.52 Y232.93 S93
X89.17 Y232.58 S94
X88.82 Y232.23 S96
X88.47 Y231.88 S98
X88.12 Y231.53 S99
X87.77 Y231.18 S101
X87.42 Y230.83 S103
X87.07 Y230.48 S104
X86.71 Y230.13 S106
X86.36 Y229.78 S108
X86.01 Y229.43 S109
X85.66 Y229.08 S111
X85.31 Y228.73 S113
X84.96 Y228.38 S114
X84.61 Y228.03 S116
X84.26 Y227.68 S118
X83.91 Y227.33 S119
X83.56 Y226.98 S121
X83.21 Y226.63 S123
X82.86 Y226.28 S124
X82.51 Y225.93 S126
X82.16 Y225.58 S128
X81.81 Y225.23 S129
X81.46 Y224.88 S131
X81.11 Y224.53 S133
X80.76 Y224.18 S134
X80.41 Y223.83 S136
X80.06 Y223.48 S138
X79.71 Y223.13 S139
X79.36 Y222.78 S141
X79.01 Y222.43 S143
X78.66 Y222.08 S144
X78.31 Y221.73 S146
X77.96 Y221.38 S148
X77.61 Y221.03 S149
X77.26 Y220.68 S151
X76.91 Y220.33 S153
X76.56 Y219.98 S154
X76.21 Y219.63 S156
X75.86 Y219.28 S158
X75.51 Y218.93 S159
X75.16 Y218.58 S161
X74.81 Y218.23 S163
X74.46 Y217.88 S164
M5
G0 X75.28 Y217.99
M3 S160
G1 X75.63 Y218.34 S159
X75.98 Y218.69 S157
X76.33 Y219.04 S155
X76.68 Y219.39 S154
X77.03 Y219.74 S152
X77.38 Y220.09 S150
X77.73 Y220.44 S149
X78.08 Y220.79 S147
X78.43 Y221.14 S145
X78.77 Y221.49 S144
X79.12 Y221.84 S142
X79.47 Y222.19 S140
X79.82 Y222.54 S139
X80.17 Y222.89 S137
X80.52 Y223.24 S135
X80.87 Y223.59 S134
X81.22 Y223.93 S132
X81.57 Y224.28 S130
X81.92 Y224.63 S129
X82.27 Y224.98 S127
X82.62 Y225.33 S125
X82.97 Y225.68 S124
X83.32 Y226.03 S122
X83.67 Y226.38 S120
X84.02 Y226.73 S119
X84.37 Y227.08 S117
X84.72 Y227.43 S115
X85.07 Y227.78 S114
X85.42 Y228.13 S112
X85.77 Y228.48 S110
X86.12 Y228.83 S109
X86.47 Y229.18 S107
X86.82 Y229.53 S105
X87.17 Y229.88 S104
X87.52 Y230.23 S102
X87.87 Y230.58 S100
X88.22 Y230.93 S99
X88.57 Y231.28 S97
X88.92 Y231.63 S95
X89.27 Y231.98 S94
X89.62 Y232.33 S92
X89.97 Y232.68 S90
X90.31 Y233.03 S89
X90.66 Y233.38 S87
X91.01 Y233.73 S85
M5
G0 X91.46 Y233.47
M3 S83
G1 X91.11 Y233.12 S85
X90.76 Y232.77 S87
X90.41 Y232.42 S88
X90.06 Y232.06 S90
X89.71 Y231.71 S92
X89.36 Y231.36 S93
X89.01 Y231.01 S95
X88.66 Y230.66 S97
X88.3 Y230.31 S98
X87.95 Y229.96 S100
X87.6 Y229.61 S102
X87.25 Y229.26 S103
X86.9 Y228.91 S105
X86.55 Y228.56 S107
X86.2 Y228.2 S108
X85.85 Y227.85 S110
X85.5 Y227.5 S112
X85.15 Y227.15 S113
X84.8 Y226.8 S115
X84.45 Y226.45 S117
X84.09 Y226.1 S118
X83.74 Y225.75 S120
X83.39 Y225.4 S122
X83.04 Y225.05 S123
X82.69 Y224.7 S125
X82.34 Y224.34 S127
X81.99 Y223.99 S128
X81.64 Y223.64 S130
X81.29 Y223.29 S132
X80.94 Y222.94 S133
X80.59 Y222.59 S135
X80.23 Y222.24 S137
X79.88 Y221.89 S138
X79.53 Y221.54 S140
X79.18 Y221.19 S142
X78.83 Y220.84 S144
X78.48 Y220.49 S145
X78.13 Y220.13 S147
X77.78 Y219.78 S149
X77.43 Y219.43 S150
X77.08 Y219.08 S152
X76.73 Y218.73 S154
X76.37 Y218.38 S155
X76.02 Y218.03 S157
M5
G0 X76.77 Y218.07
M3 S153
G1 X77.12 Y218.42 S152
X77.47 Y218.77 S150
X77.83 Y219.12 S148
X78.18 Y219.48 S147
X78.53 Y219.83 S145
X78.88 Y220.18 S143
X79.24 Y220.53 S142
X79.59 Y220.89 S140
X79.94 Y221.24 S138
X80.29 Y221.59 S137
X80.64 Y221.94 S135
X81 Y222.29 S133
X81.35 Y222.65 S132
X81.7 Y223 S130
X82.05 Y223.35 S128
X82.4 Y223.7 S126
X82.76 Y224.05 S125
X83.11 Y224.41 S123
X83.46 Y224.76 S121
X83.81 Y225.11 S120
X84.16 Y225.46 S118
X84.52 Y225.81 S116
X84.87 Y226.17 S115
X85.22 Y226.52 S113
X85.57 Y226.87 S111
X85.93 Y227.22 S110
X86.28 Y227.58 S108
X86.63 Y227.93 S106
X86.98 Y228.28 S105
X87.33 Y228.63 S103
X87.69 Y228.98 S101
X88.04 Y229.34 S100
X88.39 Y229.69 S98
X88.74 Y230.04 S96
X89.09 Y230.39 S95
X89.45 Y230.74 S93
X89.8 Y231.1 S91
X90.15 Y231.45 S90
X90.5 Y231.8 S88
X90.86 Y232.15 S86
X91.21 Y232.51 S85
X91.56 Y232.86 S83
X91.91 Y233.21 S81
M5
G0 X92.36 Y232.95
M3 S79
G1 X92.01 Y232.6 S81
X91.67 Y232.26 S82
X91.32 Y231.91 S84
X90.97 Y231.56 S86
X90.63 Y231.22 S87
X90.28 Y230.87 S89
X89.93 Y230.52 S91
X89.59 Y230.18 S92
X89.24 Y229.83 S94
X88.89 Y229.48 S96
X88.55 Y229.14 S97
X88.2 Y228.79 S99
X87.85 Y228.44 S100
X87.51 Y228.1 S102
X87.16 Y227.75 S104
X86.81 Y227.4 S105
X86.47 Y227.06 S107
X86.12 Y226.71 S109
X85.77 Y226.36 S110
X85.43 Y226.02 S112
X85.08 Y225.67 S114
X84.73 Y225.32 S115
X84.39 Y224.98 S117
X84.04 Y224.63 S119
X83.69 Y224.28 S120
X83.35 Y223.94 S122
X83 Y223.59 S124
X82.65 Y223.24 S125
X82.31 Y222.9 S127
X81.96 Y222.55 S129
X81.61 Y222.2 S130
X81.27 Y221.86 S132
X80.92 Y221.51 S134
X80.57 Y221.16 S135
X80.23 Y220.82 S137
X79.88 Y220.47 S139
X79.53 Y220.12 S140
X79.19 Y219.78 S142
X78.84 Y219.43 S143
X78.49 Y219.08 S145
X78.15 Y218.74 S147
X77.8 Y218.39 S148
X77.45 Y218.04 S150
M5
G0 X78.12 Y218.01
M3 S147
G1 X78.47 Y218.36 S145
X78.82 Y218.71 S144
X79.17 Y219.06 S142
X79.52 Y219.41 S140
X79.87 Y219.76 S139
X80.22 Y220.11 S137
X80.57 Y220.46 S135
X80.92 Y220.8 S134
X81.27 Y221.15 S132
X81.62 Y221.5 S130
X81.97 Y221.85 S129
X82.32 Y222.2 S127
X82.67 Y222.55 S125
X83.02 Y222.9 S124
X83.37 Y223.25 S122
X83.72 Y223.6 S120
X84.07 Y223.95 S119
X84.42 Y224.3 S117
X84.77 Y224.65 S115
X85.12 Y225 S114
X85.47 Y225.35 S112
X85.82 Y225.7 S110
X86.17 Y226.05 S109
X86.52 Y226.4 S107
X86.86 Y226.75 S105
X87.21 Y227.1 S104
X87.56 Y227.45 S102
X87.91 Y227.8 S100
X88.26 Y228.15 S99
X88.61 Y228.5 S97
X88.96 Y228.85 S95
X89.31 Y229.2 S94
X89.66 Y229.55 S92
X90.01 Y229.9 S90
X90.36 Y230.24 S89
X90.71 Y230.59 S87
X91.06 Y230.94 S85
X91.41 Y231.29 S84
X91.76 Y231.64 S82
X92.11 Y231.99 S80
X92.46 Y232.34 S79
X92.81 Y232.69 S77
M5
G0 X93.26 Y232.43
M3 S75
G1 X92.9 Y232.08 S76
X92.55 Y231.73 S78
X92.2 Y231.37 S80
X91.85 Y231.02 S81
X91.49 Y230.67 S83
X91.14 Y230.32 S85
X90.79 Y229.96 S87
X90.43 Y229.61 S88
X90.08 Y229.26 S90
X89.73 Y228.9 S92
X89.37 Y228.55 S93
X89.02 Y228.2 S95
X88.67 Y227.84 S97
X88.32 Y227.49 S98
X87.96 Y227.14 S100
X87.61 Y226.79 S102
X87.26 Y226.43 S103
X86.9 Y226.08 S105
X86.55 Y225.73 S107
X86.2 Y225.37 S108
X85.84 Y225.02 S110
X85.49 Y224.67 S112
X85.14 Y224.31 S113
X84.79 Y223.96 S115
X84.43 Y223.61 S117
X84.08 Y223.26 S118
X83.73 Y222.9 S120
X83.37 Y222.55 S122
X83.02 Y222.2 S124
X82.67 Y221.84 S125
X82.31 Y221.49 S127
X81.96 Y221.14 S129
X81.61 Y220.78 S130
X81.26 Y220.43 S132
X80.9 Y220.08 S134
X80.55 Y219.73 S135
X80.2 Y219.37 S137
X79.84 Y219.02 S139
X79.49 Y218.67 S140
X79.14 Y218.31 S142
X78.78 Y217.96 S144
M5
G0 X79.39 Y217.86
M3 S141
G1 X79.74 Y218.21 S139
X80.09 Y218.56 S137
X80.44 Y218.91 S136
X80.79 Y219.26 S134
X81.14 Y219.61 S133
X81.48 Y219.95 S131
X81.83 Y220.3 S129
X82.18 Y220.65 S128
X82.53 Y221 S126
X82.88 Y221.35 S124
X83.23 Y221.7 S123
X83.58 Y222.04 S121
X83.92 Y222.39 S119
X84.27 Y222.74 S118
X84.62 Y223.09 S116
X84.97 Y223.44 S114
X85.32 Y223.79 S113
X85.67 Y224.13 S111
X86.01 Y224.48 S109
X86.36 Y224.83 S108
X86.71 Y225.18 S106
X87.06 Y225.53 S104
X87.41 Y225.88 S103
X87.76 Y226.23 S101
X88.1 Y226.57 S99
X88.45 Y226.92 S98
X88.8 Y227.27 S96
X89.15 Y227.62 S94
X89.5 Y227.97 S93
X89.85 Y228.32 S91
X90.19 Y228.66 S89
X90.54 Y229.01 S88
X90.89 Y229.36 S86
X91.24 Y229.71 S84
X91.59 Y230.06 S83
X91.94 Y230.41 S81
X92.28 Y230.75 S79
X92.63 Y231.1 S78
X92.98 Y231.45 S76
X93.33 Y231.8 S74
X93.68 Y232.15 S73
M5
G0 X94.09 Y231.85
M3 S71
G1 X93.74 Y231.5 S72
X93.39 Y231.15 S74
X93.03 Y230.8 S76
X92.68 Y230.45 S77
X92.33 Y230.09 S79
X91.98 Y229.74 S81
X91.63 Y229.39 S83
X91.27 Y229.04 S84
X90.92 Y228.68 S86
X90.57 Y228.33 S88
X90.22 Y227.98 S89
X89.87 Y227.63 S91
X89.51 Y227.28 S93
X89.16 Y226.92 S94
X88.81 Y226.57 S96
X88.46 Y226.22 S98
X88.1 Y225.87 S99
X87.75 Y225.51 S101
X87.4 Y225.16 S103
X87.05 Y224.81 S104
X86.7 Y224.46 S106
X86.34 Y224.11 S108
X85.99 Y223.75 S109
X85.64 Y223.4 S111
X85.29 Y223.05 S113
X84.94 Y222.7 S114
X84.58 Y222.35 S116
X84.23 Y221.99 S118
X83.88 Y221.64 S119
X83.53 Y221.29 S121
X83.17 Y220.94 S123
X82.82 Y220.58 S124
X82.47 Y220.23 S126
X82.12 Y219.88 S128
X81.77 Y219.53 S130
X81.41 Y219.18 S131
X81.06 Y218.82 S133
X80.71 Y218.47 S135
X80.36 Y218.12 S136
X80.01 Y217.77 S138
M5
G0 X80.6 Y217.65
M3 S135
G1 X80.95 Y218 S133
X81.29 Y218.35 S132
X81.64 Y218.7 S130
X81.99 Y219.04 S128
X82.34 Y219.39 S127
X82.68 Y219.74 S125
X83.03 Y220.09 S123
X83.38 Y220.43 S122
X83.73 Y220.78 S120
X84.07 Y221.13 S119
X84.42 Y221.48 S117
X84.77 Y221.83 S115
X85.12 Y222.17 S114
X85.47 Y222.52 S112
X85.81 Y222.87 S110
X86.16 Y223.22 S109
X86.51 Y223.56 S107
X86.86 Y223.91 S105
X87.2 Y224.26 S104
X87.55 Y224.61 S102
X87.9 Y224.95 S100
X88.25 Y225.3 S99
X88.59 Y225.65 S97
X88.94 Y226 S95
X89.29 Y226.35 S94
X89.64 Y226.69 S92
X89.99 Y227.04 S90
X90.33 Y227.39 S89
X90.68 Y227.74 S87
X91.03 Y228.08 S85
X91.38 Y228.43 S84
X91.72 Y228.78 S82
X92.07 Y229.13 S80
X92.42 Y229.47 S79
X92.77 Y229.82 S77
X93.11 Y230.17 S75
X93.46 Y230.52 S74
X93.81 Y230.86 S72
X94.16 Y231.21 S70
X94.51 Y231.56 S69
M5
G0 X94.92 Y231.27
M3 S67
G1 X94.57 Y230.91 S68
X94.21 Y230.56 S70
X93.86 Y230.21 S72
X93.51 Y229.86 S74
X93.15 Y229.5 S75
X92.8 Y229.15 S77
X92.45 Y228.8 S79
X92.1 Y228.44 S80
X91.74 Y228.09 S82
X91.39 Y227.74 S84
X91.04 Y227.39 S85
X90.68 Y227.03 S87
X90.33 Y226.68 S89
X89.98 Y226.33 S90
X89.63 Y225.97 S92
X89.27 Y225.62 S94
X88.92 Y225.27 S95
X88.57 Y224.91 S97
X88.21 Y224.56 S99
X87.86 Y224.21 S100
X87.51 Y223.86 S102
X87.16 Y223.5 S104
X86.8 Y223.15 S106
X86.45 Y222.8 S107
X86.1 Y222.44 S109
X85.74 Y222.09 S111
X85.39 Y221.74 S112
X85.04 Y221.39 S114
X84.68 Y221.03 S116
X84.33 Y220.68 S117
X83.98 Y220.33 S119
X83.63 Y219.97 S121
X83.27 Y219.62 S122
X82.92 Y219.27 S124
X82.57 Y218.92 S126
X82.21 Y218.56 S127
X81.86 Y218.21 S129
X81.51 Y217.86 S131
X81.16 Y217.5 S132
M5
G0 X81.71 Y217.36
M3 S130
G1 X82.06 Y217.7 S128
X82.41 Y218.05 S126
X82.76 Y218.4 S125
X83.11 Y218.75 S123
X83.46 Y219.1 S121
X83.81 Y219.45 S120
X84.16 Y219.8 S118
X84.51 Y220.15 S116
X84.86 Y220.5 S115
X85.21 Y220.85 S113
X85.56 Y221.2 S111
X85.9 Y221.55 S110
X86.25 Y221.89 S108
X86.6 Y222.24 S106
X86.95 Y222.59 S105
X87.3 Y222.94 S103
X87.65 Y223.29 S101
X88 Y223.64 S100
X88.35 Y223.99 S98
X88.7 Y224.34 S96
X89.05 Y224.69 S95
X89.4 Y225.04 S93
X89.75 Y225.39 S91
X90.09 Y225.74 S90
X90.44 Y226.08 S88
X90.79 Y226.43 S86
X91.14 Y226.78 S85
X91.49 Y227.13 S83
X91.84 Y227.48 S81
X92.19 Y227.83 S80
X92.54 Y228.18 S78
X92.89 Y228.53 S76
X93.24 Y228.88 S75
X93.59 Y229.23 S73
X93.94 Y229.58 S71
X94.28 Y229.93 S70
X94.63 Y230.28 S68
X94.98 Y230.62 S66
X95.33 Y230.97 S65
M5
G0 X95.75 Y230.68
M3 S63
G1 X95.4 Y230.33 S65
X95.05 Y229.99 S66
X94.71 Y229.64 S68
X94.36 Y229.3 S69
X94.02 Y228.95 S71
X93.67 Y228.6 S73
X93.33 Y228.26 S74
X92.98 Y227.91 S76
X92.63 Y227.57 S78
X92.29 Y227.22 S79
X91.94 Y226.88 S81
X91.6 Y226.53 S83
X91.25 Y226.18 S84
X90.9 Y225.84 S86
X90.56 Y225.49 S88
X90.21 Y225.15 S89
X89.87 Y224.8 S91
X89.52 Y224.45 S93
X89.17 Y224.11 S94
X88.83 Y223.76 S96
X88.48 Y223.42 S97
X88.14 Y223.07 S99
X87.79 Y222.73 S101
X87.45 Y222.38 S102
X87.1 Y222.03 S104
X86.75 Y221.69 S106
X86.41 Y221.34 S107
X86.06 Y221 S109
X85.72 Y220.65 S111
X85.37 Y220.3 S112
X85.02 Y219.96 S114
X84.68 Y219.61 S116
X84.33 Y219.27 S117
X83.99 Y218.92 S119
X83.64 Y218.58 S121
X83.3 Y218.23 S122
X82.95 Y217.88 S124
X82.6 Y217.54 S126
X82.26 Y217.19 S127
M5
G0 X82.77 Y217
M3 S125
G1 X83.12 Y217.35 S123
X83.47 Y217.7 S121
X83.83 Y218.05 S120
X84.18 Y218.41 S118
X84.53 Y218.76 S116
X84.88 Y219.11 S115
X85.24 Y219.46 S113
X85.59 Y219.81 S111
X85.94 Y220.17 S110
X86.29 Y220.52 S108
X86.64 Y220.87 S106
X87 Y221.22 S105
X87.35 Y221.58 S103
X87.7 Y221.93 S101
X88.05 Y222.28 S100
X88.41 Y222.63 S98
X88.76 Y222.98 S96
X89.11 Y223.34 S95
X89.46 Y223.69 S93
X89.81 Y224.04 S91
X90.17 Y224.39 S89
X90.52 Y224.75 S88
X90.87 Y225.1 S86
X91.22 Y225.45 S84
X91.58 Y225.8 S83
X91.93 Y226.15 S81
X92.28 Y226.51 S79
X92.63 Y226.86 S78
X92.98 Y227.21 S76
X93.34 Y227.56 S74
X93.69 Y227.92 S73
X94.04 Y228.27 S71
X94.39 Y228.62 S69
X94.74 Y228.97 S68
X95.1 Y229.32 S66
X95.45 Y229.68 S64
X95.8 Y230.03 S63
X96.15 Y230.38 S61
M5
G0 X96.53 Y230.05
M3 S59
G1 X96.18 Y229.7 S61
X95.84 Y229.36 S62
X95.49 Y229.01 S64
X95.14 Y228.66 S66
X94.79 Y228.31 S67
X94.44 Y227.96 S69
X94.09 Y227.61 S71
X93.74 Y227.26 S72
X93.4 Y226.91 S74
X93.05 Y226.57 S76
X92.7 Y226.22 S77
X92.35 Y225.87 S79
X92 Y225.52 S81
X91.65 Y225.17 S82
X91.3 Y224.82 S84
X90.95 Y224.47 S86
X90.61 Y224.13 S87
X90.26 Y223.78 S89
X89.91 Y223.43 S91
X89.56 Y223.08 S92
X89.21 Y222.73 S94
X88.86 Y222.38 S96
X88.51 Y222.03 S97
X88.16 Y221.68 S99
X87.82 Y221.34 S101
X87.47 Y220.99 S102
X87.12 Y220.64 S104
X86.77 Y220.29 S106
X86.42 Y219.94 S107
X86.07 Y219.59 S109
X85.72 Y219.24 S111
X85.37 Y218.89 S112
X85.03 Y218.55 S114
X84.68 Y218.2 S116
X84.33 Y217.85 S117
X83.98 Y217.5 S119
X83.63 Y217.15 S121
X83.28 Y216.8 S122
M5
G0 X83.79 Y216.6
M3 S120
G1 X84.13 Y216.95 S118
X84.48 Y217.29 S117
X84.82 Y217.64 S115
X85.17 Y217.98 S113
X85.51 Y218.33 S112
X85.86 Y218.67 S110
X86.21 Y219.02 S108
X86.55 Y219.36 S107
X86.9 Y219.71 S105
X87.24 Y220.05 S103
X87.59 Y220.4 S102
X87.93 Y220.75 S100
X88.28 Y221.09 S98
X88.62 Y221.44 S97
X88.97 Y221.78 S95
X89.31 Y222.13 S94
X89.66 Y222.47 S92
X90.01 Y222.82 S90
X90.35 Y223.16 S89
X90.7 Y223.51 S87
X91.04 Y223.85 S85
X91.39 Y224.2 S84
X91.73 Y224.54 S82
X92.08 Y224.89 S80
X92.42 Y225.24 S79
X92.77 Y225.58 S77
X93.11 Y225.93 S75
X93.46 Y226.27 S74
X93.8 Y226.62 S72
X94.15 Y226.96 S70
X94.5 Y227.31 S69
X94.84 Y227.65 S67
X95.19 Y228 S66
X95.53 Y228.34 S64
X95.88 Y228.69 S62
X96.22 Y229.03 S61
X96.57 Y229.38 S59
X96.91 Y229.73 S57
M5
G0 X97.29 Y229.4
M3 S55
G1 X96.94 Y229.05 S57
X96.59 Y228.69 S59
X96.24 Y228.34 S61
X95.88 Y227.99 S62
X95.53 Y227.64 S64
X95.18 Y227.28 S66
X94.83 Y226.93 S67
X94.47 Y226.58 S69
X94.12 Y226.23 S71
X93.77 Y225.88 S72
X93.42 Y225.52 S74
X93.07 Y225.17 S76
X92.71 Y224.82 S77
X92.36 Y224.47 S79
X92.01 Y224.11 S81
X91.66 Y223.76 S82
X91.3 Y223.41 S84
X90.95 Y223.06 S86
X90.6 Y222.71 S87
X90.25 Y222.35 S89
X89.9 Y222 S91
X89.54 Y221.65 S92
X89.19 Y221.3 S94
X88.84 Y220.94 S96
X88.49 Y220.59 S97
X88.13 Y220.24 S99
X87.78 Y219.89 S101
X87.43 Y219.54 S103
X87.08 Y219.18 S104
X86.72 Y218.83 S106
X86.37 Y218.48 S108
X86.02 Y218.13 S109
X85.67 Y217.77 S111
X85.32 Y217.42 S113
X84.96 Y217.07 S114
X84.61 Y216.72 S116
X84.26 Y216.36 S118
M5
G0 X84.73 Y216.13
M3 S115
G1 X85.08 Y216.48 S114
X85.43 Y216.83 S112
X85.78 Y217.18 S110
X86.13 Y217.53 S109
X86.48 Y217.88 S107
X86.83 Y218.23 S105
X87.18 Y218.58 S104
X87.53 Y218.93 S102
X87.88 Y219.28 S100
X88.23 Y219.63 S99
X88.58 Y219.98 S97
X88.93 Y220.33 S95
X89.28 Y220.68 S94
X89.63 Y221.03 S92
X89.98 Y221.38 S90
X90.33 Y221.73 S89
X90.68 Y222.08 S87
X91.03 Y222.42 S85
X91.38 Y222.77 S84
X91.73 Y223.12 S82
X92.08 Y223.47 S80
X92.43 Y223.82 S79
X92.78 Y224.17 S77
X93.13 Y224.52 S75
X93.48 Y224.87 S74
X93.82 Y225.22 S72
X94.17 Y225.57 S70
X94.52 Y225.92 S69
X94.87 Y226.27 S67
X95.22 Y226.62 S65
X95.57 Y226.97 S64
X95.92 Y227.32 S62
X96.27 Y227.67 S60
X96.62 Y228.02 S59
X96.97 Y228.37 S57
X97.32 Y228.72 S55
X97.67 Y229.07 S54
M5
G0 X98.05 Y228.74
M3 S52
G1 X97.7 Y228.4 S54
X97.36 Y228.05 S55
X97.01 Y227.7 S57
X96.66 Y227.35 S58
X96.32 Y227.01 S60
X95.97 Y226.66 S62
X95.62 Y226.31 S63
X95.27 Y225.97 S65
X94.93 Y225.62 S67
X94.58 Y225.27 S68
X94.23 Y224.92 S70
X93.88 Y224.58 S72
X93.54 Y224.23 S73
X93.19 Y223.88 S75
X92.84 Y223.53 S77
X92.5 Y223.19 S78
X92.15 Y222.84 S80
X91.8 Y222.49 S82
X91.45 Y222.14 S83
X91.11 Y221.8 S85
X90.76 Y221.45 S87
X90.41 Y221.1 S88
X90.06 Y220.76 S90
X89.72 Y220.41 S92
X89.37 Y220.06 S93
X89.02 Y219.71 S95
X88.67 Y219.37 S97
X88.33 Y219.02 S98
X87.98 Y218.67 S100
X87.63 Y218.32 S102
X87.29 Y217.98 S103
X86.94 Y217.63 S105
X86.59 Y217.28 S107
X86.24 Y216.93 S108
X85.9 Y216.59 S110
X85.55 Y216.24 S111
X85.2 Y215.89 S113
M5
G0 X85.64 Y215.62
M3 S111
G1 X85.98 Y215.97 S109
X86.33 Y216.31 S108
X86.68 Y216.66 S106
X87.02 Y217.01 S104
X87.37 Y217.35 S103
X87.71 Y217.7 S101
X88.06 Y218.04 S100
X88.4 Y218.39 S98
X88.75 Y218.73 S96
X89.1 Y219.08 S95
X89.44 Y219.43 S93
X89.79 Y219.77 S91
X90.13 Y220.12 S90
X90.48 Y220.46 S88
X90.83 Y220.81 S86
X91.17 Y221.16 S85
X91.52 Y221.5 S83
X91.86 Y221.85 S81
X92.21 Y222.19 S80
X92.55 Y222.54 S78
X92.9 Y222.88 S76
X93.25 Y223.23 S75
X93.59 Y223.58 S73
X93.94 Y223.92 S71
X94.28 Y224.27 S70
X94.63 Y224.61 S68
X94.97 Y224.96 S67
X95.32 Y225.3 S65
X95.67 Y225.65 S63
X96.01 Y226 S62
X96.36 Y226.34 S60
X96.7 Y226.69 S58
X97.05 Y227.03 S57
X97.39 Y227.38 S55
X97.74 Y227.72 S53
X98.09 Y228.07 S52
X98.43 Y228.42 S50
M5
G0 X98.79 Y228.07
M3 S48
G1 X98.44 Y227.72 S50
X98.09 Y227.36 S52
X97.73 Y227.01 S53
X97.38 Y226.66 S55
X97.03 Y226.3 S57
X96.67 Y225.95 S58
X96.32 Y225.6 S60
X95.97 Y225.24 S62
X95.61 Y224.89 S63
X95.26 Y224.54 S65
X94.91 Y224.18 S67
X94.55 Y223.83 S69
X94.2 Y223.48 S70
X93.85 Y223.12 S72
X93.49 Y222.77 S74
X93.14 Y222.42 S75
X92.79 Y222.06 S77
X92.43 Y221.71 S79
X92.08 Y221.36 S80
X91.73 Y221 S82
X91.37 Y220.65 S84
X91.02 Y220.3 S85
X90.67 Y219.94 S87
X90.31 Y219.59 S89
X89.96 Y219.24 S90
X89.61 Y218.88 S92
X89.25 Y218.53 S94
X88.9 Y218.18 S96
X88.55 Y217.82 S97
X88.19 Y217.47 S99
X87.84 Y217.12 S101
X87.49 Y216.76 S102
X87.13 Y216.41 S104
X86.78 Y216.06 S106
X86.43 Y215.7 S107
X86.07 Y215.35 S109
M5
G0 X86.51 Y215.08
M3 S107
G1 X86.86 Y215.43 S105
X87.21 Y215.78 S104
X87.56 Y216.13 S102
X87.91 Y216.48 S100
X88.26 Y216.83 S99
X88.61 Y217.18 S97
X88.96 Y217.53 S95
X89.31 Y217.88 S94
X89.66 Y218.23 S92
X90.02 Y218.59 S90
X90.37 Y218.94 S89
X90.72 Y219.29 S87
X91.07 Y219.64 S85
X91.42 Y219.99 S83
X91.77 Y220.34 S82
X92.12 Y220.69 S80
X92.47 Y221.04 S78
X92.82 Y221.39 S77
X93.17 Y221.74 S75
X93.52 Y222.09 S73
X93.88 Y222.45 S72
X94.23 Y222.8 S70
X94.58 Y223.15 S68
X94.93 Y223.5 S67
X95.28 Y223.85 S65
X95.63 Y224.2 S63
X95.98 Y224.55 S62
X96.33 Y224.9 S60
X96.68 Y225.25 S58
X97.03 Y225.6 S57
X97.39 Y225.96 S55
X97.74 Y226.31 S53
X98.09 Y226.66 S52
X98.44 Y227.01 S50
X98.79 Y227.36 S48
X99.14 Y227.71 S47
M5
G0 X99.49 Y227.35
M3 S45
G1 X99.14 Y227 S47
X98.79 Y226.65 S48
X98.44 Y226.3 S50
X98.09 Y225.95 S52
X97.74 Y225.6 S53
X97.39 Y225.25 S55
X97.04 Y224.91 S57
X96.69 Y224.56 S58
X96.34 Y224.21 S60
X96 Y223.86 S62
X95.65 Y223.51 S63
X95.3 Y223.16 S65
X94.95 Y222.81 S67
X94.6 Y222.46 S68
X94.25 Y222.11 S70
X93.9 Y221.76 S72
X93.55 Y221.41 S73
X93.2 Y221.07 S75
X92.85 Y220.72 S77
X92.5 Y220.37 S78
X92.16 Y220.02 S80
X91.81 Y219.67 S82
X91.46 Y219.32 S83
X91.11 Y218.97 S85
X90.76 Y218.62 S87
X90.41 Y218.27 S88
X90.06 Y217.92 S90
X89.71 Y217.57 S92
X89.36 Y217.23 S93
X89.01 Y216.88 S95
X88.66 Y216.53 S97
X88.32 Y216.18 S98
X87.97 Y215.83 S100
X87.62 Y215.48 S102
X87.27 Y215.13 S103
X86.92 Y214.78 S105
M5
G0 X87.32 Y214.47
M3 S103
G1 X87.66 Y214.82 S101
X88.01 Y215.17 S100
X88.36 Y215.52 S98
X88.71 Y215.86 S96
X89.06 Y216.21 S95
X89.4 Y216.56 S93
X89.75 Y216.91 S91
X90.1 Y217.25 S90
X90.45 Y217.6 S88
X90.79 Y217.95 S86
X91.14 Y218.3 S85
X91.49 Y218.64 S83
X91.84 Y218.99 S82
X92.18 Y219.34 S80
X92.53 Y219.69 S78
X92.88 Y220.03 S77
X93.23 Y220.38 S75
X93.57 Y220.73 S73
X93.92 Y221.08 S72
X94.27 Y221.43 S70
X94.62 Y221.77 S68
X94.97 Y222.12 S67
X95.31 Y222.47 S65
X95.66 Y222.82 S63
X96.01 Y223.16 S62
X96.36 Y223.51 S60
X96.7 Y223.86 S58
X97.05 Y224.21 S57
X97.4 Y224.55 S55
X97.75 Y224.9 S53
X98.09 Y225.25 S52
X98.44 Y225.6 S50
X98.79 Y225.94 S48
X99.14 Y226.29 S47
X99.48 Y226.64 S45
X99.83 Y226.99 S43
M5
G0 X100.18 Y226.63
M3 S42
G1 X99.83 Y226.28 S43
X99.49 Y225.93 S45
X99.14 Y225.59 S47
X98.79 Y225.24 S48
X98.45 Y224.9 S50
X98.1 Y224.55 S52
X97.75 Y224.2 S53
X97.41 Y223.86 S55
X97.06 Y223.51 S57
X96.72 Y223.16 S58
X96.37 Y222.82 S60
X96.02 Y222.47 S62
X95.68 Y222.13 S63
X95.33 Y221.78 S65
X94.98 Y221.43 S66
X94.64 Y221.09 S68
X94.29 Y220.74 S70
X93.95 Y220.4 S71
X93.6 Y220.05 S73
X93.25 Y219.7 S75
X92.91 Y219.36 S76
X92.56 Y219.01 S78
X92.22 Y218.66 S80
X91.87 Y218.32 S81
X91.52 Y217.97 S83
X91.18 Y217.63 S85
X90.83 Y217.28 S86
X90.48 Y216.93 S88
X90.14 Y216.59 S90
X89.79 Y216.24 S91
X89.45 Y215.89 S93
X89.1 Y215.55 S95
X88.75 Y215.2 S96
X88.41 Y214.86 S98
X88.06 Y214.51 S100
X87.71 Y214.16 S101
M5
G0 X88.11 Y213.85
M3 S99
G1 X88.45 Y214.19 S98
X88.8 Y214.54 S96
X89.14 Y214.88 S94
X89.49 Y215.23 S93
X89.83 Y215.57 S91
X90.18 Y215.92 S89
X90.52 Y216.26 S88
X90.87 Y216.61 S86
X91.21 Y216.95 S84
X91.56 Y217.3 S83
X91.9 Y217.64 S81
X92.25 Y217.99 S80
X92.59 Y218.33 S78
X92.94 Y218.68 S76
X93.28 Y219.02 S75
X93.63 Y219.37 S73
X93.97 Y219.71 S71
X94.32 Y220.06 S70
X94.66 Y220.4 S68
X95.01 Y220.75 S66
X95.35 Y221.09 S65
X95.7 Y221.44 S63
X96.04 Y221.78 S61
X96.38 Y222.13 S60
X96.73 Y222.47 S58
X97.07 Y222.82 S57
X97.42 Y223.16 S55
X97.76 Y223.51 S53
X98.11 Y223.85 S52
X98.45 Y224.2 S50
X98.8 Y224.54 S48
X99.14 Y224.89 S47
X99.49 Y225.23 S45
X99.83 Y225.58 S43
X100.18 Y225.92 S42
X100.52 Y226.27 S40
M5
G0 X100.87 Y225.9
M3 S38
G1 X100.53 Y225.56 S40
X100.18 Y225.22 S42
X99.84 Y224.87 S43
X99.49 Y224.53 S45
X99.15 Y224.18 S47
X98.8 Y223.84 S48
X98.46 Y223.49 S50
X98.11 Y223.15 S52
X97.77 Y222.8 S53
X97.43 Y222.46 S55
X97.08 Y222.12 S56
X96.74 Y221.77 S58
X96.39 Y221.43 S60
X96.05 Y221.08 S61
X95.7 Y220.74 S63
X95.36 Y220.39 S65
X95.01 Y220.05 S66
X94.67 Y219.7 S68
X94.33 Y219.36 S70
X93.98 Y219.02 S71
X93.64 Y218.67 S73
X93.29 Y218.33 S75
X92.95 Y217.98 S76
X92.6 Y217.64 S78
X92.26 Y217.29 S79
X91.91 Y216.95 S81
X91.57 Y216.6 S83
X91.23 Y216.26 S84
X90.88 Y215.92 S86
X90.54 Y215.57 S88
X90.19 Y215.23 S89
X89.85 Y214.88 S91
X89.5 Y214.54 S93
X89.16 Y214.19 S94
X88.82 Y213.85 S96
X88.47 Y213.51 S98
M5
G0 X88.83 Y213.16
M3 S96
G1 X89.19 Y213.51 S94
X89.54 Y213.87 S92
X89.89 Y214.22 S91
X90.25 Y214.57 S89
X90.6 Y214.93 S87
X90.95 Y215.28 S86
X91.3 Y215.63 S84
X91.66 Y215.98 S82
X92.01 Y216.34 S81
X92.36 Y216.69 S79
X92.72 Y217.04 S77
X93.07 Y217.4 S76
X93.42 Y217.75 S74
X93.77 Y218.1 S72
X94.13 Y218.46 S71
X94.48 Y218.81 S69
X94.83 Y219.16 S67
X95.19 Y219.51 S66
X95.54 Y219.87 S64
X95.89 Y220.22 S62
X96.25 Y220.57 S60
X96.6 Y220.93 S59
X96.95 Y221.28 S57
X97.3 Y221.63 S55
X97.66 Y221.98 S54
X98.01 Y222.34 S52
X98.36 Y222.69 S50
X98.72 Y223.04 S49
X99.07 Y223.4 S47
X99.42 Y223.75 S45
X99.77 Y224.1 S44
X100.13 Y224.45 S42
X100.48 Y224.81 S40
X100.83 Y225.16 S39
X101.19 Y225.51 S37
M5
G0 X101.5 Y225.12
M3 S35
G1 X101.15 Y224.77 S37
X100.79 Y224.41 S39
X100.44 Y224.06 S40
X100.09 Y223.71 S42
X99.74 Y223.36 S44
X99.39 Y223.01 S45
X99.04 Y222.66 S47
X98.69 Y222.31 S49
X98.33 Y221.95 S51
X97.98 Y221.6 S52
X97.63 Y221.25 S54
X97.28 Y220.9 S56
X96.93 Y220.55 S57
X96.58 Y220.2 S59
X96.23 Y219.85 S61
X95.87 Y219.5 S62
X95.52 Y219.14 S64
X95.17 Y218.79 S66
X94.82 Y218.44 S67
X94.47 Y218.09 S69
X94.12 Y217.74 S71
X93.77 Y217.39 S72
X93.41 Y217.04 S74
X93.06 Y216.68 S76
X92.71 Y216.33 S77
X92.36 Y215.98 S79
X92.01 Y215.63 S81
X91.66 Y215.28 S82
X91.31 Y214.93 S84
X90.96 Y214.58 S86
X90.6 Y214.22 S87
X90.25 Y213.87 S89
X89.9 Y213.52 S91
X89.55 Y213.17 S92
X89.2 Y212.82 S94
M5
G0 X89.54 Y212.45
M3 S92
G1 X89.89 Y212.8 S91
X90.24 Y213.15 S89
X90.59 Y213.5 S87
X90.94 Y213.85 S86
X91.29 Y214.2 S84
X91.64 Y214.55 S82
X91.99 Y214.9 S81
X92.34 Y215.26 S79
X92.69 Y215.61 S77
X93.04 Y215.96 S76
X93.39 Y216.31 S74
X93.74 Y216.66 S72
X94.1 Y217.01 S71
X94.45 Y217.36 S69
X94.8 Y217.71 S67
X95.15 Y218.06 S66
X95.5 Y218.41 S64
X95.85 Y218.76 S62
X96.2 Y219.11 S61
X96.55 Y219.46 S59
X96.9 Y219.81 S57
X97.25 Y220.16 S56
X97.6 Y220.51 S54
X97.95 Y220.87 S52
X98.3 Y221.22 S51
X98.65 Y221.57 S49
X99 Y221.92 S47
X99.35 Y222.27 S46
X99.71 Y222.62 S44
X100.06 Y222.97 S42
X100.41 Y223.32 S41
X100.76 Y223.67 S39
X101.11 Y224.02 S37
X101.46 Y224.37 S36
X101.81 Y224.72 S34
M5
G0 X102.12 Y224.33
M3 S32
G1 X101.77 Y223.98 S34
X101.42 Y223.63 S36
X101.07 Y223.28 S37
X100.72 Y222.93 S39
X100.37 Y222.58 S41
X100.02 Y222.23 S42
X99.67 Y221.88 S44
X99.32 Y221.53 S46
X98.97 Y221.18 S47
X98.62 Y220.83 S49
X98.27 Y220.48 S51
X97.92 Y220.13 S53
X97.57 Y219.78 S54
X97.22 Y219.43 S56
X96.87 Y219.08 S58
X96.52 Y218.72 S59
X96.17 Y218.37 S61
X95.82 Y218.02 S63
X95.47 Y217.67 S64
X95.12 Y217.32 S66
X94.77 Y216.97 S68
X94.42 Y216.62 S69
X94.07 Y216.27 S71
X93.72 Y215.92 S73
X93.37 Y215.57 S74
X93.02 Y215.22 S76
X92.67 Y214.87 S78
X92.32 Y214.52 S79
X91.97 Y214.17 S81
X91.62 Y213.82 S83
X91.27 Y213.47 S84
X90.92 Y213.12 S86
X90.57 Y212.77 S88
X90.22 Y212.42 S89
X89.87 Y212.07 S91
M5
G0 X90.2 Y211.7
M3 S89
G1 X90.55 Y212.05 S88
X90.9 Y212.39 S86
X91.25 Y212.74 S84
X91.6 Y213.09 S83
X91.94 Y213.44 S81
X92.29 Y213.79 S79
X92.64 Y214.14 S78
X92.99 Y214.49 S76
X93.34 Y214.84 S74
X93.69 Y215.19 S73
X94.04 Y215.54 S71
X94.39 Y215.89 S69
X94.74 Y216.24 S68
X95.09 Y216.59 S66
X95.44 Y216.94 S64
X95.79 Y217.29 S63
X96.14 Y217.64 S61
X96.49 Y217.99 S59
X96.84 Y218.34 S58
X97.19 Y218.69 S56
X97.54 Y219.04 S54
X97.89 Y219.39 S53
X98.24 Y219.74 S51
X98.59 Y220.09 S49
X98.94 Y220.44 S48
X99.29 Y220.78 S46
X99.64 Y221.13 S44
X99.99 Y221.48 S43
X100.33 Y221.83 S41
X100.68 Y222.18 S39
X101.03 Y222.53 S38
X101.38 Y222.88 S36
X101.73 Y223.23 S34
X102.08 Y223.58 S33
X102.43 Y223.93 S31
M5
G0 X102.74 Y223.54
M3 S30
G1 X102.39 Y223.19 S31
X102.05 Y222.84 S33
X101.7 Y222.49 S34
X101.35 Y222.14 S36
X101 Y221.79 S38
X100.65 Y221.44 S39
X100.3 Y221.09 S41
X99.95 Y220.74 S43
X99.6 Y220.39 S44
X99.25 Y220.04 S46
X98.9 Y219.69 S48
X98.55 Y219.34 S49
X98.2 Y218.99 S51
X97.85 Y218.64 S53
X97.5 Y218.3 S54
X97.15 Y217.95 S56
X96.8 Y217.6 S58
X96.46 Y217.25 S59
X96.11 Y216.9 S61
X95.76 Y216.55 S63
X95.41 Y216.2 S64
X95.06 Y215.85 S66
X94.71 Y215.5 S68
X94.36 Y215.15 S69
X94.01 Y214.8 S71
X93.66 Y214.45 S73
X93.31 Y214.1 S74
X92.96 Y213.75 S76
X92.61 Y213.4 S78
X92.26 Y213.05 S79
X91.91 Y212.71 S81
X91.56 Y212.36 S83
X91.22 Y212.01 S84
X90.87 Y211.66 S86
X90.52 Y211.31 S88
M5
G0 X90.81 Y210.9
M3 S86
G1 X91.16 Y211.25 S85
X91.51 Y211.6 S83
X91.86 Y211.95 S81
X92.21 Y212.29 S80
X92.56 Y212.64 S78
X92.91 Y212.99 S76
X93.26 Y213.34 S75
X93.61 Y213.69 S73
X93.96 Y214.04 S71
X94.31 Y214.39 S70
X94.66 Y214.74 S68
X95.01 Y215.09 S66
X95.36 Y215.44 S65
X95.71 Y215.79 S63
X96.05 Y216.14 S61
X96.4 Y216.49 S60
X96.75 Y216.84 S58
X97.1 Y217.19 S56
X97.45 Y217.54 S55
X97.8 Y217.89 S53
X98.15 Y218.24 S51
X98.5 Y218.59 S50
X98.85 Y218.94 S48
X99.2 Y219.28 S46
X99.55 Y219.63 S45
X99.9 Y219.98 S43
X100.25 Y220.33 S41
X100.6 Y220.68 S40
X100.95 Y221.03 S38
X101.3 Y221.38 S36
X101.65 Y221.73 S35
X102 Y222.08 S33
X102.35 Y222.43 S31
X102.7 Y222.78 S30
X103.04 Y223.13 S28
M5
G0 X103.32 Y222.7
M3 S27
G1 X102.97 Y222.35 S28
X102.62 Y222 S30
X102.27 Y221.65 S32
X101.93 Y221.3 S33
X101.58 Y220.95 S35
X101.23 Y220.6 S37
X100.88 Y220.26 S38
X100.53 Y219.91 S40
X100.18 Y219.56 S42
X99.83 Y219.21 S43
X99.48 Y218.86 S45
X99.13 Y218.51 S47
X98.78 Y218.16 S48
X98.44 Y217.81 S50
X98.09 Y217.46 S52
X97.74 Y217.12 S53
X97.39 Y216.77 S55
X97.04 Y216.42 S57
X96.69 Y216.07 S58
X96.34 Y215.72 S60
X95.99 Y215.37 S62
X95.64 Y215.02 S63
X95.3 Y214.67 S65
X94.95 Y214.32 S67
X94.6 Y213.98 S68
X94.25 Y213.63 S70
X93.9 Y213.28 S72
X93.55 Y212.93 S73
X93.2 Y212.58 S75
X92.85 Y212.23 S77
X92.5 Y211.88 S78
X92.16 Y211.53 S80
X91.81 Y211.18 S82
X91.46 Y210.83 S83
X91.11 Y210.49 S85
M5
G0 X91.4 Y210.07
M3 S84
G1 X91.75 Y210.42 S82
X92.1 Y210.77 S80
X92.45 Y211.12 S79
X92.8 Y211.47 S77
X93.15 Y211.82 S75
X93.49 Y212.16 S74
X93.84 Y212.51 S72
X94.19 Y212.86 S70
X94.54 Y213.21 S69
X94.89 Y213.56 S67
X95.24 Y213.91 S65
X95.58 Y214.25 S64
X95.93 Y214.6 S62
X96.28 Y214.95 S60
X96.63 Y215.3 S59
X96.98 Y215.65 S57
X97.33 Y216 S55
X97.67 Y216.35 S54
X98.02 Y216.69 S52
X98.37 Y217.04 S50
X98.72 Y217.39 S49
X99.07 Y217.74 S47
X99.42 Y218.09 S45
X99.76 Y218.44 S44
X100.11 Y218.78 S42
X100.46 Y219.13 S40
X100.81 Y219.48 S39
X101.16 Y219.83 S37
X101.51 Y220.18 S35
X101.85 Y220.53 S34
X102.2 Y220.87 S32
X102.55 Y221.22 S30
X102.9 Y221.57 S29
X103.25 Y221.92 S27
X103.6 Y222.27 S25
M5
G0 X103.87 Y221.84
M3 S24
G1 X103.52 Y221.49 S26
X103.18 Y221.14 S27
X102.83 Y220.79 S29
X102.48 Y220.44 S31
X102.13 Y220.09 S32
X101.78 Y219.74 S34
X101.43 Y219.4 S36
X101.08 Y219.05 S37
X100.73 Y218.7 S39
X100.39 Y218.35 S41
X100.04 Y218 S42
X99.69 Y217.65 S44
X99.34 Y217.3 S46
X98.99 Y216.95 S47
X98.64 Y216.61 S49
X98.29 Y216.26 S51
X97.95 Y215.91 S52
X97.6 Y215.56 S54
X97.25 Y215.21 S56
X96.9 Y214.86 S57
X96.55 Y214.51 S59
X96.2 Y214.17 S61
X95.85 Y213.82 S62
X95.5 Y213.47 S64
X95.16 Y213.12 S66
X94.81 Y212.77 S67
X94.46 Y212.42 S69
X94.11 Y212.07 S71
X93.76 Y211.72 S72
X93.41 Y211.38 S74
X93.06 Y211.03 S76
X92.72 Y210.68 S77
X92.37 Y210.33 S79
X92.02 Y209.98 S81
X91.67 Y209.63 S82
M5
G0 X91.93 Y209.19
M3 S81
G1 X92.28 Y209.54 S79
X92.63 Y209.88 S78
X92.98 Y210.23 S76
X93.33 Y210.58 S74
X93.68 Y210.93 S73
X94.02 Y211.28 S71
X94.37 Y211.63 S69
X94.72 Y211.98 S68
X95.07 Y212.33 S66
X95.42 Y212.68 S64
X95.77 Y213.03 S63
X96.12 Y213.38 S61
X96.47 Y213.72 S59
X96.82 Y214.07 S58
X97.17 Y214.42 S56
X97.52 Y214.77 S54
X97.86 Y215.12 S53
X98.21 Y215.47 S51
X98.56 Y215.82 S49
X98.91 Y216.17 S48
X99.26 Y216.52 S46
X99.61 Y216.87 S44
X99.96 Y217.22 S43
X100.31 Y217.56 S41
X100.66 Y217.91 S39
X101.01 Y218.26 S38
X101.36 Y218.61 S36
X101.71 Y218.96 S34
X102.05 Y219.31 S33
X102.4 Y219.66 S31
X102.75 Y220.01 S29
X103.1 Y220.36 S28
X103.45 Y220.71 S26
X103.8 Y221.06 S24
X104.15 Y221.41 S23
M5
G0 X104.42 Y220.97
M3 S21
G1 X104.08 Y220.62 S23
X103.73 Y220.27 S25
X103.38 Y219.93 S26
X103.03 Y219.58 S28
X102.68 Y219.23 S30
X102.33 Y218.88 S31
X101.98 Y218.53 S33
X101.63 Y218.18 S35
X101.28 Y217.83 S36
X100.93 Y217.48 S38
X100.58 Y217.13 S40
X100.23 Y216.78 S41
X99.88 Y216.43 S43
X99.53 Y216.08 S45
X99.18 Y215.73 S46
X98.83 Y215.38 S48
X98.48 Y215.03 S50
X98.13 Y214.68 S51
X97.78 Y214.33 S53
X97.43 Y213.98 S55
X97.08 Y213.63 S56
X96.73 Y213.28 S58
X96.39 Y212.93 S60
X96.04 Y212.59 S61
X95.69 Y212.24 S63
X95.34 Y211.89 S65
X94.99 Y211.54 S66
X94.64 Y211.19 S68
X94.29 Y210.84 S70
X93.94 Y210.49 S71
X93.59 Y210.14 S73
X93.24 Y209.79 S75
X92.89 Y209.44 S76
X92.54 Y209.09 S78
X92.19 Y208.74 S80
M5
G0 X92.43 Y208.27
M3 S79
G1 X92.78 Y208.63 S77
X93.13 Y208.98 S75
X93.48 Y209.33 S74
X93.83 Y209.68 S72
X94.19 Y210.03 S70
X94.54 Y210.38 S69
X94.89 Y210.73 S67
X95.24 Y211.08 S65
X95.59 Y211.43 S64
X95.94 Y211.78 S62
X96.29 Y212.13 S60
X96.64 Y212.48 S59
X96.99 Y212.83 S57
X97.34 Y213.18 S55
X97.69 Y213.53 S54
X98.04 Y213.88 S52
X98.39 Y214.23 S50
X98.74 Y214.58 S49
X99.09 Y214.93 S47
X99.44 Y215.29 S45
X99.79 Y215.64 S44
X100.14 Y215.99 S42
X100.49 Y216.34 S40
X100.85 Y216.69 S39
X101.2 Y217.04 S37
X101.55 Y217.39 S35
X101.9 Y217.74 S34
X102.25 Y218.09 S32
X102.6 Y218.44 S30
X102.95 Y218.79 S29
X103.3 Y219.14 S27
X103.65 Y219.49 S25
X104 Y219.84 S24
X104.35 Y220.19 S22
X104.7 Y220.54 S20
M5
G0 X104.94 Y220.08
M3 S19
G1 X104.59 Y219.73 S21
X104.24 Y219.38 S22
X103.89 Y219.03 S24
X103.54 Y218.68 S26
X103.19 Y218.32 S27
X102.84 Y217.97 S29
X102.49 Y217.62 S31
X102.14 Y217.27 S32
X101.78 Y216.92 S34
X101.43 Y216.57 S36
X101.08 Y216.22 S37
X100.73 Y215.87 S39
X100.38 Y215.52 S41
X100.03 Y215.16 S42
X99.68 Y214.81 S44
X99.33 Y214.46 S46
X98.98 Y214.11 S47
X98.63 Y213.76 S49
X98.27 Y213.41 S51
X97.92 Y213.06 S52
X97.57 Y212.71 S54
X97.22 Y212.36 S56
X96.87 Y212 S58
X96.52 Y211.65 S59
X96.17 Y211.3 S61
X95.82 Y210.95 S63
X95.47 Y210.6 S64
X95.11 Y210.25 S66
X94.76 Y209.9 S68
X94.41 Y209.55 S69
X94.06 Y209.2 S71
X93.71 Y208.85 S73
X93.36 Y208.49 S74
X93.01 Y208.14 S76
X92.66 Y207.79 S78
M5
G0 X92.88 Y207.31
M3 S77
G1 X93.23 Y207.66 S75
X93.58 Y208.01 S73
X93.94 Y208.36 S71
X94.29 Y208.71 S70
X94.64 Y209.07 S68
X94.99 Y209.42 S66
X95.34 Y209.77 S65
X95.69 Y210.12 S63
X96.04 Y210.47 S61
X96.4 Y210.82 S60
X96.75 Y211.18 S58
X97.1 Y211.53 S56
X97.45 Y211.88 S55
X97.8 Y212.23 S53
X98.15 Y212.58 S51
X98.5 Y212.93 S50
X98.86 Y213.28 S48
X99.21 Y213.64 S46
X99.56 Y213.99 S45
X99.91 Y214.34 S43
X100.26 Y214.69 S41
X100.61 Y215.04 S40
X100.96 Y215.39 S38
X101.32 Y215.74 S36
X101.67 Y216.1 S35
X102.02 Y216.45 S33
X102.37 Y216.8 S31
X102.72 Y217.15 S30
X103.07 Y217.5 S28
X103.43 Y217.85 S26
X103.78 Y218.2 S25
X104.13 Y218.56 S23
X104.48 Y218.91 S21
X104.83 Y219.26 S20
X105.18 Y219.61 S18
M5
G0 X105.42 Y219.14
M3 S17
G1 X105.07 Y218.79 S18
X104.72 Y218.44 S20
X104.36 Y218.09 S22
X104.01 Y217.73 S23
X103.66 Y217.38 S25
X103.31 Y217.03 S27
X102.96 Y216.68 S28
X102.6 Y216.32 S30
X102.25 Y215.97 S32
X101.9 Y215.62 S34
X101.55 Y215.27 S35
X101.2 Y214.92 S37
X100.84 Y214.56 S39
X100.49 Y214.21 S40
X100.14 Y213.86 S42
X99.79 Y213.51 S44
X99.43 Y213.16 S45
X99.08 Y212.8 S47
X98.73 Y212.45 S49
X98.38 Y212.1 S50
X98.03 Y211.75 S52
X97.67 Y211.39 S54
X97.32 Y211.04 S55
X96.97 Y210.69 S57
X96.62 Y210.34 S59
X96.27 Y209.99 S60
X95.91 Y209.63 S62
X95.56 Y209.28 S64
X95.21 Y208.93 S65
X94.86 Y208.58 S67
X94.5 Y208.23 S69
X94.15 Y207.87 S70
X93.8 Y207.52 S72
X93.45 Y207.17 S74
X93.1 Y206.82 S75
M5
G0 X93.28 Y206.29
M3 S75
G1 X93.62 Y206.64 S73
X93.97 Y206.98 S71
X94.31 Y207.33 S70
X94.66 Y207.67 S68
X95 Y208.01 S66
X95.34 Y208.36 S65
X95.69 Y208.7 S63
X96.03 Y209.04 S62
X96.38 Y209.39 S60
X96.72 Y209.73 S58
X97.06 Y210.08 S57
X97.41 Y210.42 S55
X97.75 Y210.76 S53
X98.09 Y211.11 S52
X98.44 Y211.45 S50
X98.78 Y211.8 S48
X99.13 Y212.14 S47
X99.47 Y212.48 S45
X99.81 Y212.83 S43
X100.16 Y213.17 S42
X100.5 Y213.51 S40
X100.85 Y213.86 S39
X101.19 Y214.2 S37
X101.53 Y214.55 S35
X101.88 Y214.89 S34
X102.22 Y215.23 S32
X102.56 Y215.58 S30
X102.91 Y215.92 S29
X103.25 Y216.27 S27
X103.6 Y216.61 S25
X103.94 Y216.95 S24
X104.28 Y217.3 S22
X104.63 Y217.64 S21
X104.97 Y217.98 S19
X105.32 Y218.33 S17
X105.66 Y218.67 S16
M5
G0 X105.9 Y218.2
M3 S14
G1 X105.55 Y217.86 S16
X105.21 Y217.51 S18
X104.86 Y217.17 S19
X104.52 Y216.82 S21
X104.17 Y216.48 S23
X103.83 Y216.13 S24
X103.48 Y215.79 S26
X103.13 Y215.44 S28
X102.79 Y215.1 S29
X102.44 Y214.75 S31
X102.1 Y214.4 S33
X101.75 Y214.06 S34
X101.41 Y213.71 S36
X101.06 Y213.37 S38
X100.72 Y213.02 S39
X100.37 Y212.68 S41
X100.03 Y212.33 S42
X99.68 Y211.99 S44
X99.34 Y211.64 S46
X98.99 Y211.3 S47
X98.64 Y210.95 S49
X98.3 Y210.61 S51
X97.95 Y210.26 S52
X97.61 Y209.92 S54
X97.26 Y209.57 S56
X96.92 Y209.22 S57
X96.57 Y208.88 S59
X96.23 Y208.53 S61
X95.88 Y208.19 S62
X95.54 Y207.84 S64
X95.19 Y207.5 S66
X94.85 Y207.15 S67
X94.5 Y206.81 S69
X94.16 Y206.46 S70
X93.81 Y206.12 S72
X93.46 Y205.77 S74
M5
G0 X93.65 Y205.25
M3 S73
G1 X94 Y205.6 S71
X94.34 Y205.94 S70
X94.69 Y206.29 S68
X95.04 Y206.64 S66
X95.38 Y206.98 S65
X95.73 Y207.33 S63
X96.08 Y207.68 S61
X96.42 Y208.02 S60
X96.77 Y208.37 S58
X97.12 Y208.72 S56
X97.46 Y209.06 S55
X97.81 Y209.41 S53
X98.16 Y209.76 S51
X98.5 Y210.1 S50
X98.85 Y210.45 S48
X99.2 Y210.8 S46
X99.55 Y211.14 S45
X99.89 Y211.49 S43
X100.24 Y211.84 S41
X100.59 Y212.19 S40
X100.93 Y212.53 S38
X101.28 Y212.88 S36
X101.63 Y213.23 S35
X101.97 Y213.57 S33
X102.32 Y213.92 S32
X102.67 Y214.27 S30
X103.01 Y214.61 S28
X103.36 Y214.96 S27
X103.71 Y215.31 S25
X104.05 Y215.65 S23
X104.4 Y216 S22
X104.75 Y216.35 S20
X105.09 Y216.69 S18
X105.44 Y217.04 S17
X105.79 Y217.39 S15
X106.14 Y217.73 S13
M5
G0 X106.35 Y217.24
M3 S12
G1 X106 Y216.89 S14
X105.65 Y216.54 S16
X105.3 Y216.2 S17
X104.95 Y215.85 S19
X104.61 Y215.5 S21
X104.26 Y215.15 S22
X103.91 Y214.8 S24
X103.56 Y214.45 S26
X103.21 Y214.1 S27
X102.86 Y213.75 S29
X102.51 Y213.4 S31
X102.16 Y213.06 S32
X101.81 Y212.71 S34
X101.47 Y212.36 S36
X101.12 Y212.01 S37
X100.77 Y211.66 S39
X100.42 Y211.31 S41
X100.07 Y210.96 S42
X99.72 Y210.61 S44
X99.37 Y210.26 S46
X99.02 Y209.92 S47
X98.67 Y209.57 S49
X98.33 Y209.22 S51
X97.98 Y208.87 S52
X97.63 Y208.52 S54
X97.28 Y208.17 S56
X96.93 Y207.82 S57
X96.58 Y207.47 S59
X96.23 Y207.12 S61
X95.88 Y206.77 S62
X95.53 Y206.43 S64
X95.18 Y206.08 S66
X94.84 Y205.73 S67
X94.49 Y205.38 S69
X94.14 Y205.03 S71
X93.79 Y204.68 S72
M5
G0 X93.93 Y204.11
M3 S72
G1 X94.28 Y204.47 S70
X94.63 Y204.82 S68
X94.98 Y205.17 S67
X95.33 Y205.52 S65
X95.68 Y205.87 S63
X96.03 Y206.22 S61
X96.38 Y206.57 S60
X96.73 Y206.92 S58
X97.08 Y207.27 S56
X97.43 Y207.62 S55
X97.78 Y207.97 S53
X98.14 Y208.32 S51
X98.49 Y208.67 S50
X98.84 Y209.02 S48
X99.19 Y209.37 S46
X99.54 Y209.72 S45
X99.89 Y210.07 S43
X100.24 Y210.42 S41
X100.59 Y210.77 S40
X100.94 Y211.12 S38
X101.29 Y211.47 S36
X101.64 Y211.83 S35
X101.99 Y212.18 S33
X102.34 Y212.53 S31
X102.69 Y212.88 S30
X103.04 Y213.23 S28
X103.39 Y213.58 S26
X103.74 Y213.93 S25
X104.09 Y214.28 S23
X104.44 Y214.63 S21
X104.79 Y214.98 S20
X105.15 Y215.33 S18
X105.5 Y215.68 S16
X105.85 Y216.03 S15
X106.2 Y216.38 S13
X106.55 Y216.73 S11
M5
G0 X106.74 Y216.22
M3 S10
G1 X106.39 Y215.87 S12
X106.04 Y215.52 S14
X105.69 Y215.17 S15
X105.34 Y214.81 S17
X104.98 Y214.46 S19
X104.63 Y214.11 S21
X104.28 Y213.76 S22
X103.93 Y213.41 S24
X103.58 Y213.05 S26
X103.22 Y212.7 S27
X102.87 Y212.35 S29
X102.52 Y212 S31
X102.17 Y211.65 S32
X101.82 Y211.29 S34
X101.46 Y210.94 S36
X101.11 Y210.59 S37
X100.76 Y210.24 S39
X100.41 Y209.88 S41
X100.05 Y209.53 S42
X99.7 Y209.18 S44
X99.35 Y208.83 S46
X99 Y208.48 S47
X98.65 Y208.12 S49
X98.29 Y207.77 S51
X97.94 Y207.42 S52
X97.59 Y207.07 S54
X97.24 Y206.72 S56
X96.89 Y206.36 S57
X96.53 Y206.01 S59
X96.18 Y205.66 S61
X95.83 Y205.31 S62
X95.48 Y204.96 S64
X95.13 Y204.6 S66
X94.77 Y204.25 S67
X94.42 Y203.9 S69
X94.07 Y203.55 S71
M5
G0 X94.16 Y202.94
M3 S70
G1 X94.51 Y203.28 S69
X94.85 Y203.63 S67
X95.2 Y203.97 S65
X95.55 Y204.32 S64
X95.89 Y204.66 S62
X96.24 Y205.01 S61
X96.58 Y205.35 S59
X96.93 Y205.7 S57
X97.27 Y206.04 S56
X97.62 Y206.39 S54
X97.96 Y206.73 S52
X98.31 Y207.08 S51
X98.65 Y207.42 S49
X99 Y207.77 S47
X99.34 Y208.11 S46
X99.69 Y208.46 S44
X100.03 Y208.81 S42
X100.38 Y209.15 S41
X100.73 Y209.5 S39
X101.07 Y209.84 S37
X101.42 Y210.19 S36
X101.76 Y210.53 S34
X102.11 Y210.88 S33
X102.45 Y211.22 S31
X102.8 Y211.57 S29
X103.14 Y211.91 S28
X103.49 Y212.26 S26
X103.83 Y212.6 S24
X104.18 Y212.95 S23
X104.52 Y213.29 S21
X104.87 Y213.64 S19
X105.21 Y213.99 S18
X105.56 Y214.33 S16
X105.9 Y214.68 S14
X106.25 Y215.02 S13
X106.6 Y215.37 S11
X106.94 Y215.71 S9
M5
G0 X107.14 Y215.2
M3 S9
G1 X106.79 Y214.85 S10
X106.44 Y214.51 S12
X106.09 Y214.16 S14
X105.74 Y213.81 S15
X105.4 Y213.46 S17
X105.05 Y213.11 S19
X104.7 Y212.76 S20
X104.35 Y212.42 S22
X104 Y212.07 S23
X103.66 Y211.72 S25
X103.31 Y211.37 S27
X102.96 Y211.02 S28
X102.61 Y210.68 S30
X102.26 Y210.33 S32
X101.91 Y209.98 S33
X101.57 Y209.63 S35
X101.22 Y209.28 S37
X100.87 Y208.93 S38
X100.52 Y208.59 S40
X100.17 Y208.24 S42
X99.83 Y207.89 S43
X99.48 Y207.54 S45
X99.13 Y207.19 S47
X98.78 Y206.85 S48
X98.43 Y206.5 S50
X98.08 Y206.15 S52
X97.74 Y205.8 S53
X97.39 Y205.45 S55
X97.04 Y205.1 S57
X96.69 Y204.76 S58
X96.34 Y204.41 S60
X96 Y204.06 S62
X95.65 Y203.71 S63
X95.3 Y203.36 S65
X94.95 Y203.01 S67
X94.6 Y202.67 S68
X94.25 Y202.32 S70
M5
G0 X94.35 Y201.7
M3 S70
G1 X94.7 Y202.05 S68
X95.05 Y202.4 S66
X95.4 Y202.76 S65
X95.75 Y203.11 S63
X96.1 Y203.46 S61
X96.45 Y203.81 S59
X96.8 Y204.16 S58
X97.15 Y204.51 S56
X97.5 Y204.86 S54
X97.86 Y205.21 S53
X98.21 Y205.56 S51
X98.56 Y205.91 S49
X98.91 Y206.27 S48
X99.26 Y206.62 S46
X99.61 Y206.97 S44
X99.96 Y207.32 S43
X100.31 Y207.67 S41
X100.66 Y208.02 S39
X101.02 Y208.37 S38
X101.37 Y208.72 S36
X101.72 Y209.07 S34
X102.07 Y209.43 S33
X102.42 Y209.78 S31
X102.77 Y210.13 S29
X103.12 Y210.48 S28
X103.47 Y210.83 S26
X103.82 Y211.18 S24
X104.18 Y211.53 S23
X104.53 Y211.88 S21
X104.88 Y212.23 S19
X105.23 Y212.59 S18
X105.58 Y212.94 S16
X105.93 Y213.29 S14
X106.28 Y213.64 S13
X106.63 Y213.99 S11
X106.98 Y214.34 S9
X107.33 Y214.69 S8
M5
G0 X107.51 Y214.16
M3 S7
G1 X107.16 Y213.81 S8
X106.82 Y213.47 S10
X106.47 Y213.12 S12
X106.13 Y212.78 S13
X105.78 Y212.43 S15
X105.44 Y212.09 S17
X105.09 Y211.74 S18
X104.75 Y211.39 S20
X104.4 Y211.05 S22
X104.05 Y210.7 S23
X103.71 Y210.36 S25
X103.36 Y210.01 S27
X103.02 Y209.67 S28
X102.67 Y209.32 S30
X102.33 Y208.98 S31
X101.98 Y208.63 S33
X101.64 Y208.28 S35
X101.29 Y207.94 S36
X100.94 Y207.59 S38
X100.6 Y207.25 S40
X100.25 Y206.9 S41
X99.91 Y206.56 S43
X99.56 Y206.21 S45
X99.22 Y205.87 S46
X98.87 Y205.52 S48
X98.53 Y205.18 S50
X98.18 Y204.83 S51
X97.83 Y204.48 S53
X97.49 Y204.14 S55
X97.14 Y203.79 S56
X96.8 Y203.45 S58
X96.45 Y203.1 S59
X96.11 Y202.76 S61
X95.76 Y202.41 S63
X95.42 Y202.07 S64
X95.07 Y201.72 S66
X94.72 Y201.37 S68
X94.38 Y201.03 S69
M5
G0 X94.41 Y200.35
M3 S69
G1 X94.76 Y200.7 S68
X95.11 Y201.05 S66
X95.46 Y201.4 S64
X95.81 Y201.75 S63
X96.16 Y202.1 S61
X96.5 Y202.45 S59
X96.85 Y202.79 S58
X97.2 Y203.14 S56
X97.55 Y203.49 S54
X97.9 Y203.84 S53
X98.25 Y204.19 S51
X98.6 Y204.54 S49
X98.94 Y204.89 S48
X99.29 Y205.24 S46
X99.64 Y205.58 S44
X99.99 Y205.93 S43
X100.34 Y206.28 S41
X100.69 Y206.63 S39
X101.04 Y206.98 S38
X101.38 Y207.33 S36
X101.73 Y207.68 S34
X102.08 Y208.02 S33
X102.43 Y208.37 S31
X102.78 Y208.72 S29
X103.13 Y209.07 S28
X103.48 Y209.42 S26
X103.83 Y209.77 S24
X104.17 Y210.12 S23
X104.52 Y210.46 S21
X104.87 Y210.81 S19
X105.22 Y211.16 S18
X105.57 Y211.51 S16
X105.92 Y211.86 S14
X106.27 Y212.21 S13
X106.61 Y212.56 S11
X106.96 Y212.91 S9
X107.31 Y213.25 S8
X107.66 Y213.6 S6
M5
G0 X107.81 Y213.05
M3 S5
G1 X107.46 Y212.69 S7
X107.11 Y212.34 S9
X106.75 Y211.99 S10
X106.4 Y211.64 S12
X106.05 Y211.29 S14
X105.7 Y210.93 S15
X105.35 Y210.58 S17
X104.99 Y210.23 S19
X104.64 Y209.88 S20
X104.29 Y209.53 S22
X103.94 Y209.17 S24
X103.59 Y208.82 S25
X103.23 Y208.47 S27
X102.88 Y208.12 S29
X102.53 Y207.76 S31
X102.18 Y207.41 S32
X101.82 Y207.06 S34
X101.47 Y206.71 S36
X101.12 Y206.36 S37
X100.77 Y206 S39
X100.42 Y205.65 S41
X100.06 Y205.3 S42
X99.71 Y204.95 S44
X99.36 Y204.6 S46
X99.01 Y204.24 S47
X98.66 Y203.89 S49
X98.3 Y203.54 S51
X97.95 Y203.19 S52
X97.6 Y202.83 S54
X97.25 Y202.48 S56
X96.89 Y202.13 S57
X96.54 Y201.78 S59
X96.19 Y201.43 S61
X95.84 Y201.07 S62
X95.49 Y200.72 S64
X95.13 Y200.37 S66
X94.78 Y200.02 S67
X94.43 Y199.67 S69
M5
G0 X94.39 Y198.92
M3 S69
G1 X94.74 Y199.27 S68
X95.09 Y199.62 S66
X95.44 Y199.97 S64
X95.79 Y200.31 S63
X96.13 Y200.66 S61
X96.48 Y201.01 S59
X96.83 Y201.36 S58
X97.18 Y201.71 S56
X97.52 Y202.05 S54
X97.87 Y202.4 S53
X98.22 Y202.75 S51
X98.57 Y203.1 S49
X98.92 Y203.44 S48
X99.26 Y203.79 S46
X99.61 Y204.14 S44
X99.96 Y204.49 S43
X100.31 Y204.84 S41
X100.66 Y205.18 S39
X101 Y205.53 S38
X101.35 Y205.88 S36
X101.7 Y206.23 S34
X102.05 Y206.58 S33
X102.4 Y206.92 S31
X102.74 Y207.27 S30
X103.09 Y207.62 S28
X103.44 Y207.97 S26
X103.79 Y208.32 S25
X104.13 Y208.66 S23
X104.48 Y209.01 S21
X104.83 Y209.36 S20
X105.18 Y209.71 S18
X105.53 Y210.05 S16
X105.87 Y210.4 S15
X106.22 Y210.75 S13
X106.57 Y211.1 S11
X106.92 Y211.45 S10
X107.27 Y211.79 S8
X107.61 Y212.14 S6
X107.96 Y212.49 S5
M5
G0 X108.11 Y211.93
M3 S4
G1 X107.76 Y211.58 S6
X107.41 Y211.23 S7
X107.05 Y210.88 S9
X106.7 Y210.52 S11
X106.35 Y210.17 S12
X106 Y209.82 S14
X105.64 Y209.46 S16
X105.29 Y209.11 S17
X104.94 Y208.76 S19
X104.59 Y208.41 S21
X104.23 Y208.05 S22
X103.88 Y207.7 S24
X103.53 Y207.35 S26
X103.17 Y207 S27
X102.82 Y206.64 S29
X102.47 Y206.29 S31
X102.12 Y205.94 S32
X101.76 Y205.59 S34
X101.41 Y205.23 S36
X101.06 Y204.88 S38
X100.71 Y204.53 S39
X100.35 Y204.17 S41
X100 Y203.82 S43
X99.65 Y203.47 S44
X99.3 Y203.12 S46
X98.94 Y202.76 S48
X98.59 Y202.41 S49
X98.24 Y202.06 S51
X97.88 Y201.71 S53
X97.53 Y201.35 S54
X97.18 Y201 S56
X96.83 Y200.65 S58
X96.47 Y200.3 S59
X96.12 Y199.94 S61
X95.77 Y199.59 S63
X95.42 Y199.24 S64
X95.06 Y198.88 S66
X94.71 Y198.53 S68
X94.36 Y198.18 S69
M5
G0 X94.26 Y197.38
M3 S70
G1 X94.61 Y197.73 S68
X94.96 Y198.08 S67
X95.31 Y198.43 S65
X95.66 Y198.78 S63
X96.01 Y199.13 S62
X96.36 Y199.48 S60
X96.71 Y199.83 S58
X97.06 Y200.18 S57
X97.41 Y200.53 S55
X97.76 Y200.88 S53
X98.11 Y201.23 S52
X98.46 Y201.58 S50
X98.81 Y201.93 S48
X99.16 Y202.28 S47
X99.51 Y202.63 S45
X99.86 Y202.98 S43
X100.21 Y203.33 S42
X100.56 Y203.68 S40
X100.91 Y204.03 S38
X101.26 Y204.38 S37
X101.61 Y204.73 S35
X101.96 Y205.08 S33
X102.31 Y205.43 S32
X102.66 Y205.78 S30
X103.01 Y206.13 S28
X103.36 Y206.48 S27
X103.71 Y206.83 S25
X104.06 Y207.18 S23
X104.41 Y207.53 S22
X104.76 Y207.88 S20
X105.11 Y208.23 S18
X105.46 Y208.58 S17
X105.81 Y208.93 S15
X106.16 Y209.28 S13
X106.51 Y209.63 S12
X106.86 Y209.98 S10
X107.21 Y210.33 S8
X107.56 Y210.68 S7
X107.91 Y211.03 S5
X108.26 Y211.38 S3
M5
G0 X108.38 Y210.79
M3 S3
G1 X108.03 Y210.44 S4
X107.68 Y210.09 S6
X107.34 Y209.74 S8
X106.99 Y209.4 S9
X106.64 Y209.05 S11
X106.3 Y208.7 S13
X105.95 Y208.35 S14
X105.6 Y208.01 S16
X105.25 Y207.66 S18
X104.91 Y207.31 S19
X104.56 Y206.97 S21
X104.21 Y206.62 S23
X103.86 Y206.27 S24
X103.52 Y205.92 S26
X103.17 Y205.58 S27
X102.82 Y205.23 S29
X102.47 Y204.88 S31
X102.13 Y204.53 S32
X101.78 Y204.19 S34
X101.43 Y203.84 S36
X101.09 Y203.49 S37
X100.74 Y203.15 S39
X100.39 Y202.8 S41
X100.04 Y202.45 S42
X99.7 Y202.1 S44
X99.35 Y201.76 S46
X99 Y201.41 S47
X98.65 Y201.06 S49
X98.31 Y200.71 S51
X97.96 Y200.37 S52
X97.61 Y200.02 S54
X97.27 Y199.67 S56
X96.92 Y199.32 S57
X96.57 Y198.98 S59
X96.22 Y198.63 S61
X95.88 Y198.28 S62
X95.53 Y197.94 S64
X95.18 Y197.59 S66
X94.83 Y197.24 S67
X94.49 Y196.89 S69
X94.14 Y196.55 S71
M5
G0 X93.96 Y195.66
M3 S71
G1 X94.31 Y196.01 S70
X94.65 Y196.35 S68
X95 Y196.7 S66
X95.34 Y197.04 S65
X95.69 Y197.39 S63
X96.03 Y197.73 S61
X96.38 Y198.08 S60
X96.73 Y198.43 S58
X97.07 Y198.77 S57
X97.42 Y199.12 S55
X97.76 Y199.46 S53
X98.11 Y199.81 S52
X98.45 Y200.15 S50
X98.8 Y200.5 S48
X99.14 Y200.84 S47
X99.49 Y201.19 S45
X99.84 Y201.54 S43
X100.18 Y201.88 S42
X100.53 Y202.23 S40
X100.87 Y202.57 S38
X101.22 Y202.92 S37
X101.56 Y203.26 S35
X101.91 Y203.61 S33
X102.26 Y203.96 S32
X102.6 Y204.3 S30
X102.95 Y204.65 S29
X103.29 Y204.99 S27
X103.64 Y205.34 S25
X103.98 Y205.68 S24
X104.33 Y206.03 S22
X104.67 Y206.37 S20
X105.02 Y206.72 S19
X105.37 Y207.07 S17
X105.71 Y207.41 S15
X106.06 Y207.76 S14
X106.4 Y208.1 S12
X106.75 Y208.45 S10
X107.09 Y208.79 S9
X107.44 Y209.14 S7
X107.79 Y209.49 S5
X108.13 Y209.83 S4
X108.48 Y210.18 S2
M5
G0 X108.57 Y209.57
M3 S2
G1 X108.22 Y209.21 S3
X107.87 Y208.86 S5
X107.51 Y208.51 S7
X107.16 Y208.15 S8
X106.81 Y207.8 S10
X106.45 Y207.45 S12
X106.1 Y207.09 S13
X105.75 Y206.74 S15
X105.39 Y206.39 S17
X105.04 Y206.03 S19
X104.69 Y205.68 S20
X104.33 Y205.33 S22
X103.98 Y204.97 S24
X103.63 Y204.62 S25
X103.27 Y204.27 S27
X102.92 Y203.91 S29
X102.57 Y203.56 S30
X102.21 Y203.2 S32
X101.86 Y202.85 S34
X101.5 Y202.5 S35
X101.15 Y202.14 S37
X100.8 Y201.79 S39
X100.44 Y201.44 S40
X100.09 Y201.08 S42
X99.74 Y200.73 S44
X99.38 Y200.38 S46
X99.03 Y200.02 S47
X98.68 Y199.67 S49
X98.32 Y199.32 S51
X97.97 Y198.96 S52
X97.62 Y198.61 S54
X97.26 Y198.26 S56
X96.91 Y197.9 S57
X96.56 Y197.55 S59
X96.2 Y197.2 S61
X95.85 Y196.84 S62
X95.5 Y196.49 S64
X95.14 Y196.13 S66
X94.79 Y195.78 S67
X94.43 Y195.43 S69
X94.08 Y195.07 S71
X93.73 Y194.72 S72
M5
G0 X93.4 Y193.68
M3 S74
G1 X93.74 Y194.03 S72
X94.09 Y194.38 S71
X94.44 Y194.72 S69
X94.78 Y195.07 S67
X95.13 Y195.42 S66
X95.48 Y195.76 S64
X95.83 Y196.11 S62
X96.17 Y196.46 S61
X96.52 Y196.81 S59
X96.87 Y197.15 S58
X97.21 Y197.5 S56
X97.56 Y197.85 S54
X97.91 Y198.19 S53
X98.26 Y198.54 S51
X98.6 Y198.89 S49
X98.95 Y199.24 S48
X99.3 Y199.58 S46
X99.65 Y199.93 S44
X99.99 Y200.28 S43
X100.34 Y200.63 S41
X100.69 Y200.97 S39
X101.03 Y201.32 S38
X101.38 Y201.67 S36
X101.73 Y202.01 S34
X102.08 Y202.36 S33
X102.42 Y202.71 S31
X102.77 Y203.06 S29
X103.12 Y203.4 S28
X103.46 Y203.75 S26
X103.81 Y204.1 S24
X104.16 Y204.44 S23
X104.51 Y204.79 S21
X104.85 Y205.14 S19
X105.2 Y205.49 S18
X105.55 Y205.83 S16
X105.9 Y206.18 S14
X106.24 Y206.53 S13
X106.59 Y206.88 S11
X106.94 Y207.22 S10
X107.28 Y207.57 S8
X107.63 Y207.92 S6
X107.98 Y208.26 S5
X108.33 Y208.61 S3
X108.67 Y208.96 S1
M5
G0 X108.77 Y208.35
M3 S1
G1 X108.42 Y208 S2
X108.07 Y207.65 S4
X107.72 Y207.3 S6
X107.37 Y206.95 S7
X107.02 Y206.6 S9
X106.67 Y206.24 S11
X106.32 Y205.89 S12
X105.96 Y205.54 S14
X105.61 Y205.19 S16
X105.26 Y204.84 S17
X104.91 Y204.49 S19
X104.56 Y204.14 S21
X104.21 Y203.79 S23
X103.86 Y203.44 S24
X103.51 Y203.09 S26
X103.16 Y202.74 S28
X102.81 Y202.39 S29
X102.46 Y202.03 S31
X102.1 Y201.68 S33
X101.75 Y201.33 S34
X101.4 Y200.98 S36
X101.05 Y200.63 S38
X100.7 Y200.28 S39
X100.35 Y199.93 S41
X100 Y199.58 S43
X99.65 Y199.23 S44
X99.3 Y198.88 S46
X98.95 Y198.53 S48
X98.6 Y198.18 S49
X98.25 Y197.82 S51
X97.89 Y197.47 S53
X97.54 Y197.12 S54
X97.19 Y196.77 S56
X96.84 Y196.42 S58
X96.49 Y196.07 S59
X96.14 Y195.72 S61
X95.79 Y195.37 S63
X95.44 Y195.02 S64
X95.09 Y194.67 S66
X94.74 Y194.32 S68
X94.39 Y193.97 S69
X94.04 Y193.61 S71
X93.68 Y193.26 S73
X93.33 Y192.91 S74
X92.98 Y192.56 S76
M5
G0 X92.37 Y191.24
M3 S79
G1 X92.72 Y191.59 S77
X93.07 Y191.95 S76
X93.42 Y192.3 S74
X93.78 Y192.65 S72
X94.13 Y193 S71
X94.48 Y193.35 S69
X94.83 Y193.7 S67
X95.18 Y194.05 S66
X95.53 Y194.4 S64
X95.88 Y194.75 S62
X96.23 Y195.1 S61
X96.58 Y195.45 S59
X96.93 Y195.8 S57
X97.28 Y196.15 S56
X97.63 Y196.51 S54
X97.98 Y196.86 S52
X98.34 Y197.21 S51
X98.69 Y197.56 S49
X99.04 Y197.91 S47
X99.39 Y198.26 S46
X99.74 Y198.61 S44
X100.09 Y198.96 S42
X100.44 Y199.31 S40
X100.79 Y199.66 S39
X101.14 Y200.01 S37
X101.49 Y200.36 S35
X101.84 Y200.71 S34
X102.19 Y201.07 S32
X102.54 Y201.42 S30
X102.9 Y201.77 S29
X103.25 Y202.12 S27
X103.6 Y202.47 S25
X103.95 Y202.82 S24
X104.3 Y203.17 S22
X104.65 Y203.52 S20
X105 Y203.87 S19
X105.35 Y204.22 S17
X105.7 Y204.57 S15
X106.05 Y204.92 S14
X106.4 Y205.27 S12
X106.75 Y205.63 S10
X107.1 Y205.98 S9
X107.46 Y206.33 S7
X107.81 Y206.68 S5
X108.16 Y207.03 S4
X108.51 Y207.38 S2
X108.86 Y207.73 S0
M5
G0 X108.89 Y207.06
M3 S0
G1 X108.54 Y206.71 S2
X108.19 Y206.36 S4
X107.84 Y206.01 S5
X107.49 Y205.66 S7
X107.14 Y205.31 S9
X106.79 Y204.96 S10
X106.44 Y204.61 S12
X106.09 Y204.26 S14
X105.74 Y203.91 S15
X105.39 Y203.56 S17
X105.04 Y203.21 S19
X104.69 Y202.86 S20
X104.34 Y202.51 S22
X103.99 Y202.16 S24
X103.64 Y201.81 S25
X103.29 Y201.46 S27
X102.94 Y201.11 S29
X102.59 Y200.76 S30
X102.24 Y200.41 S32
X101.89 Y200.06 S34
X101.54 Y199.71 S35
X101.19 Y199.36 S37
X100.84 Y199.01 S39
X100.49 Y198.66 S40
X100.14 Y198.31 S42
X99.79 Y197.96 S44
X99.44 Y197.61 S45
X99.09 Y197.26 S47
X98.74 Y196.91 S49
X98.39 Y196.55 S50
X98.04 Y196.2 S52
X97.69 Y195.85 S54
X97.34 Y195.5 S55
X96.99 Y195.15 S57
X96.64 Y194.8 S59
X96.29 Y194.45 S60
X95.94 Y194.1 S62
X95.59 Y193.75 S64
X95.24 Y193.4 S65
X94.89 Y193.05 S67
X94.54 Y192.7 S69
X94.19 Y192.35 S70
X93.84 Y192 S72
X93.49 Y191.65 S74
X93.14 Y191.3 S75
X92.79 Y190.95 S77
X92.44 Y190.6 S79
X92.09 Y190.25 S80
X91.74 Y189.9 S82
X91.39 Y189.55 S84
M5
G0 X86.25 Y184.41
M3 S108
G1 X85.89 Y184.06 S110
X85.54 Y183.71 S112
X85.19 Y183.35 S113
X84.84 Y183 S115
X84.48 Y182.65 S117
X84.13 Y182.3 S118
X83.78 Y181.94 S120
X83.43 Y181.59 S122
X83.07 Y181.24 S123
X82.72 Y180.89 S125
X82.37 Y180.53 S127
X82.02 Y180.18 S128
X81.67 Y179.83 S130
X81.31 Y179.48 S132
X80.96 Y179.13 S133
X80.61 Y178.77 S135
X80.26 Y178.42 S137
X79.9 Y178.07 S138
X79.55 Y177.72 S140
X79.2 Y177.36 S142
X78.85 Y177.01 S143
X78.5 Y176.66 S145
X78.14 Y176.31 S147
X77.79 Y175.96 S148
X77.44 Y175.6 S150
X77.09 Y175.25 S152
X76.73 Y174.9 S154
X76.38 Y174.55 S155
X76.03 Y174.19 S157
X75.68 Y173.84 S159
X75.32 Y173.49 S160
X74.97 Y173.14 S162
X74.62 Y172.78 S164
X74.27 Y172.43 S165
X73.92 Y172.08 S167
X73.56 Y171.73 S169
X73.21 Y171.38 S170
X72.86 Y171.02 S172
X72.51 Y170.67 S174
M5
G0 X71.83 Y170.7
M3 S177
G1 X72.18 Y171.05 S175
X72.52 Y171.39 S174
X72.86 Y171.74 S172
X73.21 Y172.08 S170
X73.55 Y172.42 S169
X73.9 Y172.77 S167
X74.24 Y173.11 S165
X74.59 Y173.46 S164
X74.93 Y173.8 S162
X75.27 Y174.15 S160
X75.62 Y174.49 S159
X75.96 Y174.83 S157
X76.31 Y175.18 S156
X76.65 Y175.52 S154
X76.99 Y175.87 S152
X77.34 Y176.21 S151
X77.68 Y176.55 S149
X78.03 Y176.9 S147
X78.37 Y177.24 S146
X78.72 Y177.59 S144
X79.06 Y177.93 S142
X79.4 Y178.28 S141
X79.75 Y178.62 S139
X80.09 Y178.96 S137
X80.44 Y179.31 S136
X80.78 Y179.65 S134
X81.13 Y180 S133
X81.47 Y180.34 S131
X81.81 Y180.69 S129
X82.16 Y181.03 S128
X82.5 Y181.37 S126
X82.85 Y181.72 S124
X83.19 Y182.06 S123
X83.54 Y182.41 S121
X83.88 Y182.75 S119
X84.22 Y183.1 S118
X84.57 Y183.44 S116
M5
G0 X83.26 Y182.84
M3 S122
G1 X82.91 Y182.49 S124
X82.57 Y182.15 S126
X82.22 Y181.8 S127
X81.88 Y181.46 S129
X81.53 Y181.11 S131
X81.19 Y180.76 S132
X80.84 Y180.42 S134
X80.49 Y180.07 S136
X80.15 Y179.73 S137
X79.8 Y179.38 S139
X79.46 Y179.03 S141
X79.11 Y178.69 S142
X78.76 Y178.34 S144
X78.42 Y178 S145
X78.07 Y177.65 S147
X77.73 Y177.31 S149
X77.38 Y176.96 S150
X77.04 Y176.61 S152
X76.69 Y176.27 S154
X76.34 Y175.92 S155
X76 Y175.58 S157
X75.65 Y175.23 S159
X75.31 Y174.88 S160
X74.96 Y174.54 S162
X74.61 Y174.19 S164
X74.27 Y173.85 S165
X73.92 Y173.5 S167
X73.58 Y173.16 S169
X73.23 Y172.81 S170
X72.89 Y172.46 S172
X72.54 Y172.12 S173
X72.19 Y171.77 S175
X71.85 Y171.43 S177
X71.5 Y171.08 S178
X71.16 Y170.73 S180
M5
G0 X70.48 Y170.77
M3 S183
G1 X70.83 Y171.12 S182
X71.19 Y171.47 S180
X71.54 Y171.82 S178
X71.89 Y172.18 S177
X72.24 Y172.53 S175
X72.6 Y172.88 S173
X72.95 Y173.24 S172
X73.3 Y173.59 S170
X73.65 Y173.94 S168
X74.01 Y174.29 S166
X74.36 Y174.65 S165
X74.71 Y175 S163
X75.07 Y175.35 S161
X75.42 Y175.7 S160
X75.77 Y176.06 S158
X76.12 Y176.41 S156
X76.48 Y176.76 S155
X76.83 Y177.11 S153
X77.18 Y177.47 S151
X77.53 Y177.82 S150
X77.89 Y178.17 S148
X78.24 Y178.53 S146
X78.59 Y178.88 S145
X78.95 Y179.23 S143
X79.3 Y179.58 S141
X79.65 Y179.94 S140
X80 Y180.29 S138
X80.36 Y180.64 S136
X80.71 Y180.99 S135
X81.06 Y181.35 S133
X81.41 Y181.7 S131
X81.77 Y182.05 S130
X82.12 Y182.41 S128
M5
G0 X81.15 Y182.14
M3 S132
G1 X80.81 Y181.8 S134
X80.46 Y181.46 S136
X80.12 Y181.11 S137
X79.78 Y180.77 S139
X79.43 Y180.43 S141
X79.09 Y180.08 S142
X78.75 Y179.74 S144
X78.4 Y179.4 S146
X78.06 Y179.05 S147
X77.72 Y178.71 S149
X77.37 Y178.37 S150
X77.03 Y178.02 S152
X76.69 Y177.68 S154
X76.34 Y177.34 S155
X76 Y176.99 S157
X75.66 Y176.65 S159
