; Generated by Inkscape InkBurn extension
; Document: example
; Date: 2026-02-17T21:56:17Z
G21
G90
; Layer: Layer 1 - Cut Example
; Job: cut 0 (id=550e8400-e29b-41d4-a716-446655440001)
; Shape: path#rect1
G0 X20 Y277
M3 S600
G1 X70 F800
Y227
X20
Y277
M5
; Shape: path#circle1
G0 X120 Y252
M3 S600
G1 X119.9 Y250
X119.6 Y248.1
X119.1 Y246.2
X118.5 Y244.3
X117.6 Y242.6
X116.6 Y240.9
X115.5 Y239.3
X114.1 Y237.9
X112.7 Y236.5
X111.1 Y235.4
X109.4 Y234.4
X107.7 Y233.5
X105.8 Y232.9
X103.9 Y232.4
X102 Y232.1
X100 Y232
X98 Y232.1
X96.1 Y232.4
X94.2 Y232.9
X92.3 Y233.5
X90.6 Y234.4
X88.9 Y235.4
X87.3 Y236.5
X85.9 Y237.9
X84.5 Y239.3
X83.4 Y240.9
X82.4 Y242.6
X81.5 Y244.3
X80.9 Y246.2
X80.4 Y248.1
X80.1 Y250
X80 Y252
X80.1 Y254
X80.4 Y255.9
X80.9 Y257.8
X81.5 Y259.7
X82.4 Y261.4
X83.4 Y263.1
X84.5 Y264.7
X85.9 Y266.1
X87.3 Y267.5
X88.9 Y268.6
X90.6 Y269.6
X92.3 Y270.5
X94.2 Y271.1
X96.1 Y271.6
X98 Y271.9
X100 Y272
X102 Y271.9
X103.9 Y271.6
X105.8 Y271.1
X107.7 Y270.5
X109.4 Y269.6
X111.1 Y268.6
X112.7 Y267.5
X114.1 Y266.1
X115.5 Y264.7
X116.6 Y263.1
X117.6 Y261.4
X118.5 Y259.7
X119.1 Y257.8
X119.6 Y255.9
X119.9 Y254
X120 Y252
M5
; Layer: Layer 2 - Cut and Fill
; Job: cut 0 (id=550e8400-e29b-41d4-a716-446655440002)
; Shape: path#rect2
G0 X20 Y197
M4 S700
G1 X100 F1000
Y137
X20
Y197
M5
; Shape: path#ellipse1
G0 X165 Y167
M4 S700
G1 X164.9 Y165.5
X164.5 Y164.1
X163.9 Y162.6
X163.1 Y161.3
X162.1 Y159.9
X160.8 Y158.7
X159.3 Y157.5
X157.7 Y156.4
X155.8 Y155.4
X153.9 Y154.5
X151.8 Y153.8
X149.6 Y153.1
X144.9 Y152.3
X140 Y152
X135.1 Y152.3
X130.4 Y153.1
X128.2 Y153.8
X126.1 Y154.5
X124.2 Y155.4
X122.3 Y156.4
X120.7 Y157.5
X119.2 Y158.7
X117.9 Y159.9
X116.9 Y161.3
X116.1 Y162.6
X115.5 Y164.1
X115.1 Y165.5
X115 Y167
X115.1 Y168.5
X115.5 Y169.9
X116.1 Y171.4
X116.9 Y172.7
X117.9 Y174.1
X119.2 Y175.3
X120.7 Y176.5
X122.3 Y177.6
X124.2 Y178.6
X126.1 Y179.5
X128.2 Y180.2
X130.4 Y180.9
X135.1 Y181.7
X140 Y182
X144.9 Y181.7
X149.6 Y180.9
X151.8 Y180.2
X153.9 Y179.5
X155.8 Y178.6
X157.7 Y177.6
X159.3 Y176.5
X160.8 Y175.3
X162.1 Y174.1
X163.1 Y172.7
X163.9 Y171.4
X164.5 Y169.9
X164.9 Y168.5
X165 Y167
M5
; Layer: Layer 2 - Cut and Fill
; Job: fill 1 (id=550e8400-e29b-41d4-a716-446655440003)
; Shape: hatch#hatch
G0 X20.1 Y137
M4 S500
G1 X80.1 Y197 F1200
M5
G0 X80.8
M4 S500
G1 X20.8 Y137
M5
G0 X21.5
M4 S500
G1 X81.5 Y197
M5
G0 X82.2
M4 S500
G1 X22.2 Y137
M5
G0 X22.9
M4 S500
G1 X82.9 Y197
M5
G0 X83.6
M4 S500
G1 X23.6 Y137
M5
G0 X24.3
M4 S500
G1 X84.3 Y197
M5
G0 X85
M4 S500
G1 X25 Y137
M5
G0 X25.8
M4 S500
G1 X85.8 Y197
M5
G0 X86.5
M4 S500
G1 X26.5 Y137
M5
G0 X27.2
M4 S500
G1 X87.2 Y197
M5
G0 X87.9
M4 S500
G1 X27.9 Y137
M5
G0 X28.6
M4 S500
G1 X88.6 Y197
M5
G0 X89.3
M4 S500
G1 X29.3 Y137
M5
G0 X30
M4 S500
G1 X90 Y197
M5
G0 X90.7
M4 S500
G1 X30.7 Y137
M5
G0 X31.4
M4 S500
G1 X91.4 Y197
M5
G0 X92.1
M4 S500
G1 X32.1 Y137
M5
G0 X32.8
M4 S500
G1 X92.8 Y197
M5
G0 X93.5
M4 S500
G1 X33.5 Y137
M5
G0 X34.2
M4 S500
G1 X94.2 Y197
M5
G0 X94.9
M4 S500
G1 X34.9 Y137
M5
G0 X35.7
M4 S500
G1 X95.7 Y197
M5
G0 X96.4
M4 S500
G1 X36.4 Y137
M5
G0 X37.1
M4 S500
G1 X97.1 Y197
M5
G0 X97.8
M4 S500
G1 X37.8 Y137
M5
G0 X38.5
M4 S500
G1 X98.5 Y197
M5
G0 X99.2
M4 S500
G1 X39.2 Y137
M5
G0 X39.9
M4 S500
G1 X99.9 Y197
M5
G0 X100 Y196.4
M4 S500
G1 X40.6 Y137
M5
G0 X41.3
M4 S500
G1 X100 Y195.7
M5
G0 Y195
M4 S500
G1 X42 Y137
M5
G0 X42.7
M4 S500
G1 X100 Y194.3
M5
G0 Y193.6
M4 S500
G1 X43.4 Y137
M5
G0 X44.1
M4 S500
G1 X100 Y192.9
M5
G0 Y192.2
M4 S500
G1 X44.8 Y137
M5
G0 X45.6
M4 S500
G1 X100 Y191.4
M5
G0 Y190.7
M4 S500
G1 X46.3 Y137
M5
G0 X47
M4 S500
G1 X100 Y190
M5
G0 Y189.3
M4 S500
G1 X47.7 Y137
M5
G0 X48.4
M4 S500
G1 X100 Y188.6
M5
G0 Y187.9
M4 S500
G1 X49.1 Y137
M5
G0 X49.8
M4 S500
G1 X100 Y187.2
M5
G0 Y186.5
M4 S500
G1 X50.5 Y137
M5
G0 X51.2
M4 S500
G1 X100 Y185.8
M5
G0 Y185.1
M4 S500
G1 X51.9 Y137
M5
G0 X52.6
M4 S500
G1 X100 Y184.4
M5
G0 Y183.7
M4 S500
G1 X53.3 Y137
M5
G0 X54
M4 S500
G1 X100 Y183
M5
G0 Y182.3
M4 S500
G1 X54.7 Y137
M5
G0 X55.5
M4 S500
G1 X100 Y181.5
M5
G0 Y180.8
M4 S500
G1 X56.2 Y137
M5
G0 X56.9
M4 S500
G1 X100 Y180.1
M5
G0 Y179.4
M4 S500
G1 X57.6 Y137
M5
G0 X58.3
M4 S500
G1 X100 Y178.7
M5
G0 Y178
M4 S500
G1 X59 Y137
M5
G0 X59.7
M4 S500
G1 X100 Y177.3
M5
G0 Y176.6
M4 S500
G1 X60.4 Y137
M5
G0 X61.1
M4 S500
G1 X100 Y175.9
M5
G0 Y175.2
M4 S500
G1 X61.8 Y137
M5
G0 X62.5
M4 S500
G1 X100 Y174.5
M5
G0 Y173.8
M4 S500
G1 X63.2 Y137
M5
G0 X63.9
M4 S500
G1 X100 Y173.1
M5
G0 Y172.4
M4 S500
G1 X64.6 Y137
M5
G0 X65.4
M4 S500
G1 X100 Y171.6
M5
G0 Y170.9
M4 S500
G1 X66.1 Y137
M5
G0 X66.8
M4 S500
G1 X100 Y170.2
M5
G0 Y169.5
M4 S500
G1 X67.5 Y137
M5
G0 X68.2
M4 S500
G1 X100 Y168.8
M5
G0 Y168.1
M4 S500
G1 X68.9 Y137
M5
G0 X69.6
M4 S500
G1 X100 Y167.4
M5
G0 Y166.7
M4 S500
G1 X70.3 Y137
M5
G0 X71
M4 S500
G1 X100 Y166
M5
G0 Y165.3
M4 S500
G1 X71.7 Y137
M5
G0 X72.4
M4 S500
G1 X100 Y164.6
M5
G0 Y163.9
M4 S500
G1 X73.1 Y137
M5
G0 X73.8
M4 S500
G1 X100 Y163.2
M5
G0 Y162.5
M4 S500
G1 X74.5 Y137
M5
G0 X75.3
M4 S500
G1 X100 Y161.7
M5
G0 Y161
M4 S500
G1 X76 Y137
M5
G0 X76.7
M4 S500
G1 X100 Y160.3
M5
G0 Y159.6
M4 S500
G1 X77.4 Y137
M5
G0 X78.1
M4 S500
G1 X100 Y158.9
M5
G0 Y158.2
M4 S500
G1 X78.8 Y137
M5
G0 X79.5
M4 S500
G1 X100 Y157.5
M5
G0 Y156.8
M4 S500
G1 X80.2 Y137
M5
G0 X80.9
M4 S500
G1 X100 Y156.1
M5
G0 Y155.4
M4 S500
G1 X81.6 Y137
M5
G0 X82.3
M4 S500
G1 X100 Y154.7
M5
G0 Y154
M4 S500
G1 X83 Y137
M5
G0 X83.7
M4 S500
G1 X100 Y153.3
M5
G0 Y152.6
M4 S500
G1 X84.4 Y137
M5
G0 X85.2
M4 S500
G1 X100 Y151.8
M5
G0 Y151.1
M4 S500
G1 X85.9 Y137
M5
G0 X86.6
M4 S500
G1 X100 Y150.4
M5
G0 Y149.7
M4 S500
G1 X87.3 Y137
M5
G0 X88
M4 S500
G1 X100 Y149
M5
G0 Y148.3
M4 S500
G1 X88.7 Y137
M5
G0 X89.4
M4 S500
G1 X100 Y147.6
M5
G0 Y146.9
M4 S500
G1 X90.1 Y137
M5
G0 X90.8
M4 S500
G1 X100 Y146.2
M5
G0 Y145.5
M4 S500
G1 X91.5 Y137
M5
G0 X92.2
M4 S500
G1 X100 Y144.8
M5
G0 Y144.1
M4 S500
G1 X92.9 Y137
M5
G0 X93.6
M4 S500
G1 X100 Y143.4
M5
G0 Y142.7
M4 S500
G1 X94.3 Y137
M5
G0 X95.1
M4 S500
G1 X100 Y141.9
M5
G0 Y141.2
M4 S500
G1 X95.8 Y137
M5
G0 X96.5
M4 S500
G1 X100 Y140.5
M5
G0 Y139.8
M4 S500
G1 X97.2 Y137
M5
G0 X97.9
M4 S500
G1 X100 Y139.1
M5
G0 Y138.4
M4 S500
G1 X98.6 Y137
M5
G0 X99.3
M4 S500
G1 X100 Y137.7
M5
G0 X119.1 Y158.7
M4 S500
G1 X142.3 Y181.9
M5
G0 X141.6
M4 S500
G1 X118.8 Y159.1
M5
G0 X118.4 Y159.4
M4 S500
G1 X140.9 Y181.9
M5
G0 X140.3 Y182
M4 S500
G1 X118.1 Y159.8
M5
G0 X117.8 Y160.2
M4 S500
G1 X139.5 Y182
M5
G0 X138.8 Y181.9
M4 S500
G1 X117.4 Y160.6
M5
G0 X117.1 Y161
M4 S500
G1 X138 Y181.9
M5
G0 X137.3 Y181.8
M4 S500
G1 X116.8 Y161.4
M5
G0 X116.6 Y161.8
M4 S500
G1 X136.5 Y181.8
M5
G0 X135.8 Y181.7
M4 S500
G1 X116.3 Y162.3
M5
G0 X116 Y162.7
M4 S500
G1 X135 Y181.7
M5
G0 X134.2 Y181.5
M4 S500
G1 X115.8 Y163.2
M5
G0 X115.6 Y163.7
M4 S500
G1 X133.3 Y181.4
M5
G0 X132.4 Y181.2
M4 S500
G1 X115.4 Y164.2
M5
G0 X115.3 Y164.8
M4 S500
G1 X131.6 Y181.1
M5
G0 X130.7 Y180.9
M4 S500
G1 X115.2 Y165.4
M5
G0 X115.1 Y166
M4 S500
G1 X129.8 Y180.7
M5
G0 X128.8 Y180.4
M4 S500
G1 X115 Y166.6
M5
G0 Y167.4
M4 S500
G1 X127.7 Y180.1
M5
G0 X126.6 Y179.7
M4 S500
G1 X115.1 Y168.1
M5
G0 X115.2 Y169
M4 S500
G1 X125.4 Y179.2
M5
G0 X124.2 Y178.6
M4 S500
G1 X115.5 Y169.9
M5
G0 X116 Y171.1
M4 S500
G1 X122.6 Y177.8
M5
G0 X120.6 Y176.4
M4 S500
G1 X117 Y172.9
M5
G0 X119.5 Y158.4
M4 S500
G1 X142.9 Y181.8
M5
G0 X143.6
M4 S500
G1 X119.9 Y158.1
M5
G0 X120.3 Y157.8
M4 S500
G1 X144.3 Y181.7
M5
G0 X144.9
M4 S500
G1 X120.7 Y157.5
M5
G0 X121.1 Y157.2
M4 S500
G1 X145.5 Y181.6
M5
G0 X146.1 Y181.5
M4 S500
G1 X121.6 Y156.9
M5
G0 X122 Y156.6
M4 S500
G1 X146.7 Y181.4
M5
G0 X147.3 Y181.3
M4 S500
G1 X122.4 Y156.3
M5
G0 X122.9 Y156.1
M4 S500
G1 X147.9 Y181.2
M5
G0 X148.5 Y181
M4 S500
G1 X123.3 Y155.8
M5
G0 X123.8 Y155.6
M4 S500
G1 X149.1 Y180.9
M5
G0 X149.7 Y180.8
M4 S500
G1 X124.2 Y155.4
M5
G0 X124.7 Y155.1
M4 S500
G1 X150.3 Y180.7
M5
G0 X150.8 Y180.5
M4 S500
G1 X125.2 Y154.9
M5
G0 X125.7 Y154.7
M4 S500
G1 X151.4 Y180.4
M5
G0 X151.9 Y180.2
M4 S500
G1 X126.2 Y154.5
M5
G0 X126.7 Y154.3
M4 S500
G1 X152.4 Y180
M5
G0 X152.9 Y179.8
M4 S500
G1 X127.2 Y154.1
M5
G0 X127.8 Y153.9
M4 S500
G1 X153.5 Y179.6
M5
G0 X154 Y179.4
M4 S500
G1 X128.3 Y153.7
M5
G0 X128.8 Y153.6
M4 S500
G1 X154.5 Y179.2
M5
G0 X155 Y179
M4 S500
G1 X129.4 Y153.4
M5
G0 X129.9 Y153.3
M4 S500
G1 X155.4 Y178.8
M5
G0 X155.9 Y178.6
M4 S500
G1 X130.5 Y153.1
M5
G0 X131.1 Y153
M4 S500
G1 X156.4 Y178.3
M5
G0 X156.8 Y178.1
M4 S500
G1 X131.7 Y152.9
M5
G0 X132.3 Y152.8
M4 S500
G1 X157.3 Y177.8
M5
G0 X157.8 Y177.6
M4 S500
G1 X132.9 Y152.7
M5
G0 X133.5 Y152.6
M4 S500
G1 X158.2 Y177.3
M5
G0 X158.6 Y177
M4 S500
G1 X134.1 Y152.5
M5
G0 X134.7 Y152.4
M4 S500
G1 X159 Y176.7
M5
G0 X159.4 Y176.4
M4 S500
G1 X135.3 Y152.3
M5
G0 X136 Y152.2
M4 S500
G1 X159.8 Y176.1
M5
G0 X160.2 Y175.8
M4 S500
G1 X136.6 Y152.2
M5
G0 X137.3
M4 S500
G1 X160.6 Y175.5
M5
G0 X161 Y175.1
M4 S500
G1 X138 Y152.1
M5
G0 X138.6
M4 S500
G1 X161.3 Y174.8
M5
G0 X161.7 Y174.4
M4 S500
G1 X139.3 Y152
M5
G0 X140
M4 S500
G1 X162 Y174.1
M5
G0 X162.4 Y173.7
M4 S500
G1 X140.7 Y152
M5
G0 X141.5 Y152.1
M4 S500
G1 X162.7 Y173.3
M5
G0 X163 Y172.9
M4 S500
G1 X142.2 Y152.1
M5
G0 X143 Y152.2
M4 S500
G1 X163.3 Y172.5
M5
G0 X163.5 Y172
M4 S500
G1 X143.7 Y152.2
M5
G0 X144.5 Y152.3
M4 S500
G1 X163.8 Y171.6
M5
G0 X164 Y171.1
M4 S500
G1 X145.3 Y152.4
M5
G0 X146.2 Y152.5
M4 S500
G1 X164.2 Y170.6
M5
G0 X164.4 Y170.1
M4 S500
G1 X147 Y152.7
M5
G0 X147.9 Y152.8
M4 S500
G1 X164.6 Y169.6
M5
G0 X164.8 Y169
M4 S500
G1 X148.8 Y153
M5
G0 X149.6 Y153.2
M4 S500
G1 X164.9 Y168.4
M5
G0 Y167.8
M4 S500
G1 X150.6 Y153.4
M5
G0 X151.6 Y153.7
M4 S500
G1 X165 Y167.1
M5
G0 X164.9 Y166.4
M4 S500
G1 X152.7 Y154.1
M5
G0 X153.8 Y154.5
M4 S500
G1 X164.9 Y165.6
M5
G0 X164.7 Y164.7
M4 S500
G1 X155 Y155
M5
G0 X156.4 Y155.7
M4 S500
G1 X164.3 Y163.6
M5
G0 X163.7 Y162.3
M4 S500
G1 X158.1 Y156.6
M5
G0 X79.4 Y197
M4 S500
G1 X20 Y137.6
M5
G0 Y138.3
M4 S500
G1 X78.7 Y197
M5
G0 X78
M4 S500
G1 X20 Y139
M5
G0 Y139.7
M4 S500
G1 X77.3 Y197
M5
G0 X76.6
M4 S500
G1 X20 Y140.4
M5
G0 Y141.1
M4 S500
G1 X75.9 Y197
M5
G0 X75.1
M4 S500
G1 X20 Y141.9
M5
G0 Y142.6
M4 S500
G1 X74.4 Y197
M5
G0 X73.7
M4 S500
G1 X20 Y143.3
M5
G0 Y144
M4 S500
G1 X73 Y197
M5
G0 X72.3
M4 S500
G1 X20 Y144.7
M5
G0 Y145.4
M4 S500
G1 X71.6 Y197
M5
G0 X70.9
M4 S500
G1 X20 Y146.1
M5
G0 Y146.8
M4 S500
G1 X70.2 Y197
M5
G0 X69.5
M4 S500
G1 X20 Y147.5
M5
G0 Y148.2
M4 S500
G1 X68.8 Y197
M5
G0 X68.1
M4 S500
G1 X20 Y148.9
M5
G0 Y149.6
M4 S500
G1 X67.4 Y197
M5
G0 X66.7
M4 S500
G1 X20 Y150.3
M5
G0 Y151
M4 S500
G1 X66 Y197
M5
G0 X65.2
M4 S500
G1 X20 Y151.8
M5
G0 Y152.5
M4 S500
G1 X64.5 Y197
M5
G0 X63.8
M4 S500
G1 X20 Y153.2
M5
G0 Y153.9
M4 S500
G1 X63.1 Y197
M5
G0 X62.4
M4 S500
G1 X20 Y154.6
M5
G0 Y155.3
M4 S500
G1 X61.7 Y197
M5
G0 X61
M4 S500
G1 X20 Y156
M5
G0 Y156.7
M4 S500
G1 X60.3 Y197
M5
G0 X59.6
M4 S500
G1 X20 Y157.4
M5
G0 Y158.1
M4 S500
G1 X58.9 Y197
M5
G0 X58.2
M4 S500
G1 X20 Y158.8
M5
G0 Y159.5
M4 S500
G1 X57.5 Y197
M5
G0 X56.8
M4 S500
G1 X20 Y160.2
M5
G0 Y160.9
M4 S500
G1 X56.1 Y197
M5
G0 X55.3
M4 S500
G1 X20 Y161.7
M5
G0 Y162.4
M4 S500
G1 X54.6 Y197
M5
G0 X53.9
M4 S500
G1 X20 Y163.1
M5
G0 Y163.8
M4 S500
G1 X53.2 Y197
M5
G0 X52.5
M4 S500
G1 X20 Y164.5
M5
G0 Y165.2
M4 S500
G1 X51.8 Y197
M5
G0 X51.1
M4 S500
G1 X20 Y165.9
M5
G0 Y166.6
M4 S500
G1 X50.4 Y197
M5
G0 X49.7
M4 S500
G1 X20 Y167.3
M5
G0 Y168
M4 S500
G1 X49 Y197
M5
G0 X48.3
M4 S500
G1 X20 Y168.7
M5
G0 Y169.4
M4 S500
G1 X47.6 Y197
M5
G0 X46.9
M4 S500
G1 X20 Y170.1
M5
G0 Y170.8
M4 S500
G1 X46.2 Y197
M5
G0 X45.4
M4 S500
G1 X20 Y171.6
M5
G0 Y172.3
M4 S500
G1 X44.7 Y197
M5
G0 X44
M4 S500
G1 X20 Y173
M5
G0 Y173.7
M4 S500
G1 X43.3 Y197
M5
G0 X42.6
M4 S500
G1 X20 Y174.4
M5
G0 Y175.1
M4 S500
G1 X41.9 Y197
M5
G0 X41.2
M4 S500
G1 X20 Y175.8
M5
G0 Y176.5
M4 S500
G1 X40.5 Y197
M5
G0 X39.8
M4 S500
G1 X20 Y177.2
M5
G0 Y177.9
M4 S500
G1 X39.1 Y197
M5
G0 X38.4
M4 S500
G1 X20 Y178.6
M5
G0 Y179.3
M4 S500
G1 X37.7 Y197
M5
G0 X37
M4 S500
G1 X20 Y180
M5
G0 Y180.7
M4 S500
G1 X36.3 Y197
M5
G0 X35.5
M4 S500
G1 X20 Y181.5
M5
G0 Y182.2
M4 S500
G1 X34.8 Y197
M5
G0 X34.1
M4 S500
G1 X20 Y182.9
M5
G0 Y183.6
M4 S500
G1 X33.4 Y197
M5
G0 X32.7
M4 S500
G1 X20 Y184.3
M5
G0 Y185
M4 S500
G1 X32 Y197
M5
G0 X31.3
M4 S500
G1 X20 Y185.7
M5
G0 Y186.4
M4 S500
G1 X30.6 Y197
M5
G0 X29.9
M4 S500
G1 X20 Y187.1
M5
G0 Y187.8
M4 S500
G1 X29.2 Y197
M5
G0 X28.5
M4 S500
G1 X20 Y188.5
M5
G0 Y189.2
M4 S500
G1 X27.8 Y197
M5
G0 X27.1
M4 S500
G1 X20 Y189.9
M5
G0 Y190.6
M4 S500
G1 X26.4 Y197
M5
G0 X25.6
M4 S500
G1 X20 Y191.4
M5
G0 Y192.1
M4 S500
G1 X24.9 Y197
M5
G0 X24.2
M4 S500
G1 X20 Y192.8
M5
G0 Y193.5
M4 S500
G1 X23.5 Y197
M5
G0 X22.8
M4 S500
G1 X20 Y194.2
M5
G0 Y194.9
M4 S500
G1 X22.1 Y197
M5
G0 X21.4
M4 S500
G1 X20 Y195.6
M5
G0 Y196.3
M4 S500
G1 X20.7 Y197
M5
; Layer: Layer 3 - With Inactive Job
; Job: cut 0 (id=550e8400-e29b-41d4-a716-446655440004)
; --- Pass 1/2
; Shape: path#path1
G0 X20 Y97
M3 S800
G1 X50 Y127 F600
X80 Y97
X50 Y67
X20 Y97
M5
; --- Pass 2/2
; Shape: path#path1
G0
M3 S800
G1 X50 Y127
X80 Y97
X50 Y67
X20 Y97
M5
M5
G0 X0 Y0
