; Generated by Inkscape InkBurn extension
; Document: example
; Date: 2026-02-17T19:52:00Z
G21
G90
; Layer: Layer 1 - Cut Example
; Job: cut 0 (id=550e8400-e29b-41d4-a716-446655440001)
; Shape: rect#rect1
G0 X20 Y277
M3 S600
G1 X70 F800 S600
G1 Y227
G1 X20
G1 Y277
M5
; Shape: circle#circle1
G0 X120 Y252
M3 S600
G1 X119.9 Y251.4 F800 S600
G1 X119.6 Y250.8
G1 X119.2 Y250.3
G1 X118.7 Y249.8
G1 X118.1 Y249.4
G1 X117.5 Y249.1
G1 X116.9 Y248.8
G1 X116.2 Y248.6
G1 X115.5 Y248.5
G1 X114.8 Y248.5
G1 X114.1 Y248.6
G1 X113.5 Y248.8
G1 X112.8 Y249.1
G1 X112.2 Y249.4
G1 X111.7 Y249.8
G1 X111.2 Y250.3
G1 X110.8 Y250.8
G1 X110.5 Y251.4
G1 X110.3 Y252
G1 X110.2 Y252.7
G1 X110.2 Y253.3
G1 X110.3 Y254
G1 X110.5 Y254.6
G1 X110.8 Y255.2
G1 X111.2 Y255.7
G1 X111.7 Y256.2
G1 X112.2 Y256.6
G1 X112.8 Y256.9
G1 X113.5 Y257.2
G1 X114.1 Y257.4
G1 X114.8 Y257.5
G1 X115.5 Y257.5
G1 X116.2 Y257.4
G1 X116.9 Y257.2
G1 X117.5 Y256.9
G1 X118.1 Y256.6
G1 X118.7 Y256.2
G1 X119.2 Y255.7
G1 X119.6 Y255.2
G1 X119.9 Y254.6
G1 X120.1 Y254
G1 X120.2 Y253.3
G1 X120.2 Y252.7
G1 X120.1 Y252
M5
; Layer: Layer 2 - Cut and Fill
; Job: cut 0 (id=550e8400-e29b-41d4-a716-446655440002)
; Shape: rect#rect2
G0 X20 Y197
M4 S700
G1 X100 F1000 S700
G1 Y137
G1 X20
G1 Y197
M5
; Shape: ellipse#ellipse1
G0 X165 Y167
M4 S700
G1 X164.9 Y166.4 F1000 S700
G1 X164.6 Y165.8
G1 X164.2 Y165.3
G1 X163.7 Y164.8
G1 X163.1 Y164.4
G1 X162.5 Y164.1
G1 X161.8 Y163.8
G1 X161.1 Y163.6
G1 X160.4 Y163.5
G1 X159.6 Y163.5
G1 X158.9 Y163.6
G1 X158.2 Y163.8
G1 X157.5 Y164.1
G1 X156.9 Y164.4
G1 X156.3 Y164.8
G1 X155.8 Y165.3
G1 X155.4 Y165.8
G1 X155.1 Y166.4
G1 X154.9 Y167
G1 X154.8 Y167.7
G1 X154.8 Y168.3
G1 X154.9 Y169
G1 X155.1 Y169.6
G1 X155.4 Y170.2
G1 X155.8 Y170.7
G1 X156.3 Y171.2
G1 X156.9 Y171.6
G1 X157.5 Y171.9
G1 X158.2 Y172.2
G1 X158.9 Y172.4
G1 X159.6 Y172.5
G1 X160.4 Y172.5
G1 X161.1 Y172.4
G1 X161.8 Y172.2
G1 X162.5 Y171.9
G1 X163.1 Y171.6
G1 X163.7 Y171.2
G1 X164.2 Y170.7
G1 X164.6 Y170.2
G1 X164.9 Y169.6
G1 X165.1 Y169
G1 X165.2 Y168.3
G1 X165.2 Y167.7
G1 X165.1 Y167
M5
; Job: fill 1 (id=550e8400-e29b-41d4-a716-446655440003)
; Shape: hatch
G0 X20.4 Y196.6
M4 S500
G1 X99.6 F1200 S500
M5
; Shape: hatch
G0 X99.3 Y196.3
M4 S500
G1 X20.7 F1200 S500
M5
; Layer: Layer 3 - With Inactive Job
; Job: cut 0 (id=550e8400-e29b-41d4-a716-446655440004)
; --- Pass 1/2
; Shape: path#path1
G0 X20 Y97
M3 S800
G1 X50 Y127 F600 S800
G1 X80 Y97
G1 X50 Y67
G1 X20 Y97
M5
; --- Pass 2/2
; Shape: path#path1
G0 X20 Y97
M3 S800
G1 X50 Y127 F600 S800
G1 X80 Y97
G1 X50 Y67
G1 X20 Y97
M5
M5
G0 X0 Y0
