; Generated by Inkscape InkBurn extension
; Document: example
; Date: 2026-02-17T19:52:00Z
G21
G90
; Layer: Layer 1 - Cut Example
; Job: cut 0 (id=550e8400-e29b-41d4-a716-446655440001)
; Shape: rect#rect1
G0 X20 Y277
M3 S600
G1 X70 F800
Y227
X20
Y277
M5
; Shape: circle#circle1
G0 X120 Y252
M3 S600
G1 X119.9 Y251.4 F800 S600
X119.6 Y250.8
X119.2 Y250.3
X118.7 Y249.8
X118.1 Y249.4
X117.5 Y249.1
X116.9 Y248.8
X116.2 Y248.6
X115.5 Y248.5
X114.8 Y248.5
X114.1 Y248.6
X113.5 Y248.8
X112.8 Y249.1
X112.2 Y249.4
X111.7 Y249.8
X111.2 Y250.3
X110.8 Y250.8
X110.5 Y251.4
X110.3 Y252
X110.2 Y252.7
X110.2 Y253.3
X110.3 Y254
X110.5 Y254.6
X110.8 Y255.2
X111.2 Y255.7
X111.7 Y256.2
X112.2 Y256.6
X112.8 Y256.9
X113.5 Y257.2
X114.1 Y257.4
X114.8 Y257.5
X115.5 Y257.5
X116.2 Y257.4
X116.9 Y257.2
X117.5 Y256.9
X118.1 Y256.6
X118.7 Y256.2
X119.2 Y255.7
X119.6 Y255.2
X119.9 Y254.6
X120.1 Y254
X120.2 Y253.3
X120.2 Y252.7
X120.1 Y252
M5
; Layer: Layer 2 - Cut and Fill
; Job: cut 0 (id=550e8400-e29b-41d4-a716-446655440002)
; Shape: rect#rect2
G0 X20 Y197
M4 S700
G1 X100 F1000
Y137
X20
Y197
M5
; Shape: ellipse#ellipse1
G0 X165 Y167
M4 S700
G1 X164.9 Y166.4 F1000 S700
X164.6 Y165.8
X164.2 Y165.3
X163.7 Y164.8
X163.1 Y164.4
X162.5 Y164.1
X161.8 Y163.8
X161.1 Y163.6
X160.4 Y163.5
X159.6 Y163.5
X158.9 Y163.6
X158.2 Y163.8
X157.5 Y164.1
X156.9 Y164.4
X156.3 Y164.8
X155.8 Y165.3
X155.4 Y165.8
X155.1 Y166.4
X154.9 Y167
X154.8 Y167.7
X154.8 Y168.3
X154.9 Y169
X155.1 Y169.6
X155.4 Y170.2
X155.8 Y170.7
X156.3 Y171.2
X156.9 Y171.6
X157.5 Y171.9
X158.2 Y172.2
X158.9 Y172.4
X159.6 Y172.5
X160.4 Y172.5
X161.1 Y172.4
X161.8 Y172.2
X162.5 Y171.9
X163.1 Y171.6
X163.7 Y171.2
X164.2 Y170.7
X164.6 Y170.2
X164.9 Y169.6
X165.1 Y169
X165.2 Y168.3
X165.2 Y167.7
X165.1 Y167
M5
; Job: fill 1 (id=550e8400-e29b-41d4-a716-446655440003)
; Shape: hatch
G0 X20.4 Y196.6
M4 S500
G1 X99.6 F1200 S500
M5
; Shape: hatch
G0 X99.3 Y196.3
M4 S500
G1 X20.7 F1200 S500
M5
; Layer: Layer 3 - With Inactive Job
; Job: cut 0 (id=550e8400-e29b-41d4-a716-446655440004)
; --- Pass 1/2
; Shape: path#path1
G0 X20 Y97
M3 S800
G1 X50 Y127 F600 S800
X80 Y97
X50 Y67
X20 Y97
M5
; --- Pass 2/2
; Shape: path#path1
G0 X20 Y97
M3 S800
G1 X50 Y127 F600 S800
X80 Y97
X50 Y67
X20 Y97
M5
M5
G0 X0 Y0
